;FLAVOR:Marlin
;TIME:1985
;Filament used: 1.4719m
;Layer height: 0.16
;MINX:99.7
;MINY:99.7
;MINZ:0.2
;MAXX:135.3
;MAXY:135.3
;MAXZ:20
;Generated with Cura_SteamEngine 4.5.0
M140 S60
M105
M190 S60
M104 S185
M105
M109 S185
M82 ;absolute extrusion mode
; Ender 3 Custom Start G-code
G92 E0 ; Reset Extruder
G28 ; Home all axes
G1 Z2.0 F3000 ; Move Z Axis up little to prevent scratching of Heat Bed
G1 X0.1 Y20 Z0.3 F5000.0 ; Move to start position
G1 X0.1 Y200.0 Z0.3 F1500.0 E15 ; Draw the first line
G1 X0.4 Y200.0 Z0.3 F5000.0 ; Move to side a little
G1 X0.4 Y20 Z0.3 F1500.0 E30 ; Draw the second line
G92 E0 ; Reset Extruder
G1 Z2.0 F3000 ; Move Z Axis up little to prevent scratching of Heat Bed
G1 X5 Y20 Z0.3 F5000.0 ; Move over to prevent blob squish
G92 E0
G92 E0
G1 F2700 E-5
;LAYER_COUNT:101
;LAYER:0
M107
G0 F7500 X101.985 Y102.102 Z0.2
;TYPE:SKIRT
G1 F2700 E0
G1 F1500 X102.102 Y101.985 E0.0055
G1 X102.688 Y101.455 E0.03178
G1 X103.324 Y100.988 E0.05803
G1 X104.004 Y100.587 E0.08428
G1 X104.722 Y100.257 E0.11057
G1 X105.469 Y100.002 E0.13682
G1 X106.238 Y99.823 E0.16308
G1 X107.022 Y99.723 E0.18937
G1 X107.617 Y99.7 E0.20917
G1 X127.383 Y99.7 E0.86659
G1 X128.172 Y99.74 E0.89287
G1 X128.952 Y99.859 E0.91911
G1 X129.717 Y100.057 E0.94539
G1 X130.457 Y100.331 E0.97164
G1 X131.166 Y100.679 E0.99791
G1 X131.837 Y101.097 E1.0242
G1 X132.461 Y101.58 E1.05045
G1 X132.898 Y101.985 E1.07026
G1 X133.015 Y102.102 E1.07577
G1 X133.545 Y102.688 E1.10205
G1 X134.012 Y103.324 E1.12829
G1 X134.413 Y104.004 E1.15455
G1 X134.743 Y104.722 E1.18083
G1 X134.998 Y105.469 E1.20708
G1 X135.177 Y106.238 E1.23334
G1 X135.277 Y107.022 E1.25963
G1 X135.3 Y107.617 E1.27943
G1 X135.3 Y127.383 E1.93685
G1 X135.26 Y128.172 E1.96313
G1 X135.141 Y128.952 E1.98937
G1 X134.943 Y129.717 E2.01565
G1 X134.669 Y130.457 E2.0419
G1 X134.321 Y131.166 E2.06817
G1 X133.903 Y131.837 E2.09446
G1 X133.42 Y132.461 E2.12071
G1 X133.015 Y132.898 E2.14053
G1 X132.898 Y133.015 E2.14603
G1 X132.312 Y133.545 E2.17231
G1 X131.676 Y134.012 E2.19855
G1 X130.996 Y134.413 E2.22481
G1 X130.278 Y134.743 E2.25109
G1 X129.531 Y134.998 E2.27734
G1 X128.762 Y135.177 E2.3036
G1 X127.978 Y135.277 E2.32989
G1 X127.383 Y135.3 E2.3497
G1 X107.617 Y135.3 E3.00712
G1 X106.828 Y135.26 E3.03339
G1 X106.048 Y135.141 E3.05964
G1 X105.283 Y134.943 E3.08592
G1 X104.543 Y134.669 E3.11216
G1 X103.834 Y134.321 E3.13843
G1 X103.163 Y133.903 E3.16473
G1 X102.539 Y133.42 E3.19097
G1 X102.102 Y133.015 E3.21079
G1 X101.985 Y132.898 E3.21629
G1 X101.455 Y132.312 E3.24257
G1 X100.988 Y131.676 E3.26881
G1 X100.587 Y130.996 E3.29507
G1 X100.257 Y130.278 E3.32135
G1 X100.002 Y129.531 E3.34761
G1 X99.823 Y128.762 E3.37387
G1 X99.723 Y127.978 E3.40015
G1 X99.7 Y127.383 E3.41996
G1 X99.7 Y107.617 E4.07738
G1 X99.74 Y106.828 E4.10365
G1 X99.859 Y106.048 E4.1299
G1 X100.057 Y105.283 E4.15618
G1 X100.331 Y104.543 E4.18243
G1 X100.679 Y103.834 E4.20869
G1 X101.097 Y103.163 E4.23499
G1 X101.58 Y102.539 E4.26123
G1 X101.985 Y102.102 E4.28105
G0 F7500 X102.384 Y102.267
G1 F1500 X102.956 Y101.753 E4.30663
G1 X103.578 Y101.3 E4.33222
G1 X104.243 Y100.914 E4.35779
G1 X104.945 Y100.599 E4.38339
G1 X105.676 Y100.359 E4.40898
G1 X106.427 Y100.196 E4.43454
G1 X107.192 Y100.112 E4.46013
G1 X107.617 Y100.1 E4.47427
G1 X127.383 Y100.1 E5.13169
G1 X128.151 Y100.14 E5.15727
G1 X128.911 Y100.259 E5.18286
G1 X129.654 Y100.457 E5.20843
G1 X130.373 Y100.731 E5.23402
G1 X131.059 Y101.078 E5.25959
G1 X131.706 Y101.494 E5.28518
G1 X132.306 Y101.975 E5.31075
G1 X132.733 Y102.384 E5.33042
G1 X133.247 Y102.956 E5.356
G1 X133.7 Y103.578 E5.38159
G1 X134.086 Y104.243 E5.40716
G1 X134.401 Y104.945 E5.43276
G1 X134.641 Y105.676 E5.45835
G1 X134.804 Y106.427 E5.48391
G1 X134.888 Y107.192 E5.5095
G1 X134.9 Y107.617 E5.52364
G1 X134.9 Y127.383 E6.18106
G1 X134.86 Y128.151 E6.20664
G1 X134.741 Y128.911 E6.23223
G1 X134.543 Y129.654 E6.2578
G1 X134.269 Y130.373 E6.28339
G1 X133.922 Y131.059 E6.30896
G1 X133.506 Y131.706 E6.33455
G1 X133.025 Y132.306 E6.36012
G1 X132.616 Y132.733 E6.37979
G1 X132.044 Y133.247 E6.40537
G1 X131.422 Y133.7 E6.43096
G1 X130.757 Y134.086 E6.45654
G1 X130.055 Y134.401 E6.48213
G1 X129.324 Y134.641 E6.50772
G1 X128.573 Y134.804 E6.53328
G1 X127.808 Y134.888 E6.55887
G1 X127.383 Y134.9 E6.57301
G1 X107.617 Y134.9 E7.23043
G1 X106.849 Y134.86 E7.25601
G1 X106.089 Y134.741 E7.2816
G1 X105.346 Y134.543 E7.30717
G1 X104.627 Y134.269 E7.33277
G1 X103.941 Y133.922 E7.35833
G1 X103.294 Y133.506 E7.38392
G1 X102.694 Y133.025 E7.4095
G1 X102.267 Y132.616 E7.42916
G1 X101.753 Y132.044 E7.45474
G1 X101.3 Y131.422 E7.48033
G1 X100.914 Y130.757 E7.50591
G1 X100.599 Y130.055 E7.5315
G1 X100.359 Y129.324 E7.55709
G1 X100.196 Y128.573 E7.58265
G1 X100.112 Y127.808 E7.60824
G1 X100.1 Y127.383 E7.62238
G1 X100.1 Y107.617 E8.2798
G1 X100.14 Y106.849 E8.30538
G1 X100.259 Y106.089 E8.33097
G1 X100.457 Y105.346 E8.35654
G1 X100.731 Y104.627 E8.38214
G1 X101.078 Y103.941 E8.4077
G1 X101.494 Y103.294 E8.43329
G1 X101.975 Y102.694 E8.45887
G1 X102.384 Y102.267 E8.47853
G0 F7500 X102.55 Y102.667
G1 F1500 X102.667 Y102.55 E8.48403
G1 X103.224 Y102.05 E8.50893
G1 X103.83 Y101.613 E8.53378
G1 X104.48 Y101.242 E8.55867
G1 X105.166 Y100.943 E8.58356
G1 X105.88 Y100.719 E8.60845
G1 X106.613 Y100.572 E8.63332
G1 X107.617 Y100.5 E8.66679
G1 X127.383 Y100.5 E9.32421
G1 X128.13 Y100.54 E9.3491
G1 X128.868 Y100.659 E9.37396
G1 X129.59 Y100.857 E9.39886
G1 X130.286 Y101.13 E9.42373
G1 X130.949 Y101.477 E9.44861
G1 X131.572 Y101.892 E9.47351
G1 X132.333 Y102.55 E9.50697
G1 X132.45 Y102.667 E9.51248
G1 X132.95 Y103.224 E9.53737
G1 X133.387 Y103.83 E9.56222
G1 X133.758 Y104.48 E9.58711
G1 X134.057 Y105.166 E9.612
G1 X134.281 Y105.88 E9.63689
G1 X134.428 Y106.613 E9.66176
G1 X134.5 Y107.617 E9.69524
G1 X134.5 Y127.383 E10.35266
G1 X134.46 Y128.13 E10.37754
G1 X134.341 Y128.868 E10.4024
G1 X134.143 Y129.59 E10.4273
G1 X133.87 Y130.286 E10.45217
G1 X133.523 Y130.949 E10.47706
G1 X133.108 Y131.572 E10.50195
G1 X132.45 Y132.333 E10.53541
G1 X132.333 Y132.45 E10.54092
G1 X131.776 Y132.95 E10.56581
G1 X131.17 Y133.387 E10.59066
G1 X130.52 Y133.758 E10.61555
G1 X129.834 Y134.057 E10.64044
G1 X129.12 Y134.281 E10.66533
G1 X128.387 Y134.428 E10.6902
G1 X127.383 Y134.5 E10.72368
G1 X107.617 Y134.5 E11.3811
G1 X106.87 Y134.46 E11.40598
G1 X106.132 Y134.341 E11.43084
G1 X105.41 Y134.143 E11.45574
G1 X104.714 Y133.87 E11.48061
G1 X104.051 Y133.523 E11.5055
G1 X103.428 Y133.108 E11.53039
G1 X102.667 Y132.45 E11.56385
G1 X102.55 Y132.333 E11.56936
G1 X102.05 Y131.776 E11.59425
G1 X101.613 Y131.17 E11.6191
G1 X101.242 Y130.52 E11.64399
G1 X100.943 Y129.834 E11.66888
G1 X100.719 Y129.12 E11.69377
G1 X100.572 Y128.387 E11.71864
G1 X100.5 Y127.383 E11.75212
G1 X100.5 Y107.617 E12.40954
G1 X100.54 Y106.87 E12.43442
G1 X100.659 Y106.132 E12.45928
G1 X100.857 Y105.41 E12.48418
G1 X101.13 Y104.714 E12.50905
G1 X101.477 Y104.051 E12.53394
G1 X101.892 Y103.428 E12.55883
G1 X102.55 Y102.667 E12.59229
G0 F7500 X102.833 Y102.95
G1 F1500 X102.95 Y102.833 E12.5978
G1 X103.491 Y102.349 E12.62194
G1 X104.082 Y101.926 E12.64611
G1 X104.716 Y101.572 E12.67027
G1 X105.385 Y101.289 E12.69443
G1 X106.081 Y101.081 E12.71859
G1 X106.796 Y100.951 E12.74276
G1 X107.617 Y100.9 E12.77012
G1 X127.383 Y100.9 E13.42754
G1 X128.108 Y100.94 E13.45169
G1 X128.825 Y101.059 E13.47586
G1 X129.524 Y101.257 E13.50002
G1 X130.197 Y101.53 E13.52418
G1 X130.836 Y101.875 E13.54833
G1 X131.433 Y102.289 E13.5725
G1 X132.05 Y102.833 E13.59986
G1 X132.167 Y102.95 E13.60536
G1 X132.651 Y103.491 E13.6295
G1 X133.074 Y104.082 E13.65368
G1 X133.428 Y104.716 E13.67783
G1 X133.711 Y105.385 E13.70199
G1 X133.919 Y106.081 E13.72615
G1 X134.049 Y106.796 E13.75032
G1 X134.1 Y107.617 E13.77768
G1 X134.1 Y127.383 E14.4351
G1 X134.06 Y128.108 E14.45925
G1 X133.941 Y128.825 E14.48342
G1 X133.743 Y129.524 E14.50758
G1 X133.47 Y130.197 E14.53174
G1 X133.125 Y130.836 E14.55589
G1 X132.711 Y131.433 E14.58006
G1 X132.167 Y132.05 E14.60742
G1 X132.05 Y132.167 E14.61292
G1 X131.509 Y132.651 E14.63706
G1 X130.918 Y133.074 E14.66124
G1 X130.284 Y133.428 E14.68539
G1 X129.615 Y133.711 E14.70955
G1 X128.919 Y133.919 E14.73371
G1 X128.204 Y134.049 E14.75788
G1 X127.383 Y134.1 E14.78524
G1 X107.617 Y134.1 E15.44266
G1 X106.892 Y134.06 E15.46681
G1 X106.175 Y133.941 E15.49098
G1 X105.476 Y133.743 E15.51514
G1 X104.803 Y133.47 E15.5393
G1 X104.164 Y133.125 E15.56345
G1 X103.567 Y132.711 E15.58762
G1 X102.95 Y132.167 E15.61498
G1 X102.833 Y132.05 E15.62048
G1 X102.349 Y131.509 E15.64462
G1 X101.926 Y130.918 E15.6688
G1 X101.572 Y130.284 E15.69295
G1 X101.289 Y129.615 E15.71711
G1 X101.081 Y128.919 E15.74127
G1 X100.951 Y128.204 E15.76544
G1 X100.9 Y127.383 E15.7928
G1 X100.9 Y107.617 E16.45022
G1 X100.94 Y106.892 E16.47437
G1 X101.059 Y106.175 E16.49854
G1 X101.257 Y105.476 E16.52271
G1 X101.53 Y104.803 E16.54686
G1 X101.875 Y104.164 E16.57101
G1 X102.289 Y103.567 E16.59518
G1 X102.833 Y102.95 E16.62254
G0 F7500 X103.116 Y103.233
G1 F1500 X103.233 Y103.116 E16.62804
G1 X103.758 Y102.647 E16.65145
G1 X104.333 Y102.241 E16.67487
G1 X104.951 Y101.903 E16.69829
G1 X105.602 Y101.636 E16.7217
G1 X106.28 Y101.446 E16.74512
G1 X106.975 Y101.333 E16.76853
G1 X107.617 Y101.3 E16.78992
G1 X127.383 Y101.3 E17.44734
G1 X128.086 Y101.34 E17.47076
G1 X128.78 Y101.459 E17.49418
G1 X129.455 Y101.657 E17.51757
G1 X130.104 Y101.929 E17.54098
G1 X130.718 Y102.274 E17.5644
G1 X131.289 Y102.685 E17.5878
G1 X131.767 Y103.116 E17.60921
G1 X131.884 Y103.233 E17.61471
G1 X132.353 Y103.758 E17.63813
G1 X132.759 Y104.333 E17.66154
G1 X133.097 Y104.951 E17.68497
G1 X133.364 Y105.602 E17.70837
G1 X133.554 Y106.28 E17.73179
G1 X133.667 Y106.975 E17.75521
G1 X133.7 Y107.617 E17.77659
G1 X133.7 Y127.383 E18.43401
G1 X133.66 Y128.086 E18.45743
G1 X133.541 Y128.78 E18.48085
G1 X133.343 Y129.455 E18.50424
G1 X133.071 Y130.104 E18.52765
G1 X132.726 Y130.718 E18.55107
G1 X132.315 Y131.289 E18.57447
G1 X131.884 Y131.767 E18.59588
G1 X131.767 Y131.884 E18.60138
G1 X131.242 Y132.353 E18.6248
G1 X130.667 Y132.759 E18.64821
G1 X130.049 Y133.097 E18.67164
G1 X129.398 Y133.364 E18.69504
G1 X128.72 Y133.554 E18.71846
G1 X128.025 Y133.667 E18.74188
G1 X127.383 Y133.7 E18.76326
G1 X107.617 Y133.7 E19.42068
G1 X106.914 Y133.66 E19.4441
G1 X106.22 Y133.541 E19.46752
G1 X105.545 Y133.343 E19.49091
G1 X104.896 Y133.071 E19.51432
G1 X104.282 Y132.726 E19.53774
G1 X103.711 Y132.315 E19.56114
G1 X103.233 Y131.884 E19.58255
G1 X103.116 Y131.767 E19.58805
G1 X102.647 Y131.242 E19.61147
G1 X102.241 Y130.667 E19.63488
G1 X101.903 Y130.049 E19.65831
G1 X101.636 Y129.398 E19.68171
G1 X101.446 Y128.72 E19.70513
G1 X101.333 Y128.025 E19.72855
G1 X101.3 Y127.383 E19.74993
G1 X101.3 Y107.617 E20.40735
G1 X101.34 Y106.914 E20.43077
G1 X101.459 Y106.22 E20.45419
G1 X101.657 Y105.545 E20.47759
G1 X101.929 Y104.896 E20.50099
G1 X102.274 Y104.282 E20.52442
G1 X102.685 Y103.711 E20.54782
G1 X103.116 Y103.233 E20.56922
G0 F7500 X103.399 Y103.516
G1 F1500 X103.516 Y103.399 E20.57473
G1 X104.025 Y102.946 E20.59739
G1 X104.583 Y102.557 E20.62001
G1 X105.183 Y102.235 E20.64266
G1 X105.817 Y101.986 E20.66532
G1 X106.476 Y101.813 E20.68798
G1 X107.15 Y101.719 E20.71061
G1 X107.617 Y101.7 E20.72616
G1 X127.383 Y101.7 E21.38358
G1 X128.063 Y101.74 E21.40623
G1 X128.733 Y101.859 E21.42887
G1 X129.385 Y102.056 E21.45152
G1 X130.009 Y102.328 E21.47416
G1 X130.597 Y102.672 E21.49682
G1 X131.141 Y103.082 E21.51947
G1 X131.484 Y103.399 E21.53501
G1 X131.601 Y103.516 E21.54051
G1 X132.054 Y104.025 E21.56317
G1 X132.443 Y104.583 E21.5858
G1 X132.765 Y105.183 E21.60845
G1 X133.014 Y105.817 E21.6311
G1 X133.187 Y106.476 E21.65376
G1 X133.281 Y107.15 E21.6764
G1 X133.3 Y107.617 E21.69194
G1 X133.3 Y127.383 E22.34936
G1 X133.26 Y128.063 E22.37202
G1 X133.141 Y128.733 E22.39465
G1 X132.944 Y129.385 E22.41731
G1 X132.672 Y130.009 E22.43995
G1 X132.328 Y130.597 E22.4626
G1 X131.918 Y131.141 E22.48526
G1 X131.601 Y131.484 E22.50079
G1 X131.484 Y131.601 E22.5063
G1 X130.975 Y132.054 E22.52896
G1 X130.417 Y132.443 E22.55158
G1 X129.817 Y132.765 E22.57423
G1 X129.183 Y133.014 E22.59689
G1 X128.524 Y133.187 E22.61955
G1 X127.85 Y133.281 E22.64218
G1 X127.383 Y133.3 E22.65773
G1 X107.617 Y133.3 E23.31515
G1 X106.937 Y133.26 E23.3378
G1 X106.267 Y133.141 E23.36044
G1 X105.615 Y132.944 E23.38309
G1 X104.991 Y132.672 E23.40573
G1 X104.403 Y132.328 E23.42839
G1 X103.859 Y131.918 E23.45105
G1 X103.516 Y131.601 E23.46658
G1 X103.399 Y131.484 E23.47208
G1 X102.946 Y130.975 E23.49475
G1 X102.557 Y130.417 E23.51737
G1 X102.235 Y129.817 E23.54002
G1 X101.986 Y129.183 E23.56267
G1 X101.813 Y128.524 E23.58534
G1 X101.719 Y127.85 E23.60797
G1 X101.7 Y127.383 E23.62352
G1 X101.7 Y107.617 E24.28093
G1 X101.74 Y106.937 E24.30359
G1 X101.859 Y106.267 E24.32622
G1 X102.056 Y105.615 E24.34888
G1 X102.328 Y104.991 E24.37152
G1 X102.672 Y104.403 E24.39418
G1 X103.082 Y103.859 E24.41683
G1 X103.399 Y103.516 E24.43237
G0 F7500 X103.682 Y103.799
G1 F1500 X103.799 Y103.682 E24.43787
G1 X104.291 Y103.246 E24.45974
G1 X104.832 Y102.874 E24.48157
G1 X105.414 Y102.57 E24.50341
G1 X106.029 Y102.339 E24.52526
G1 X106.668 Y102.184 E24.54713
G1 X107.617 Y102.1 E24.57882
G1 X127.383 Y102.1 E25.23624
G1 X128.039 Y102.14 E25.2581
G1 X128.685 Y102.259 E25.27995
G1 X129.312 Y102.456 E25.3018
G1 X129.91 Y102.728 E25.32365
G1 X130.471 Y103.07 E25.34551
G1 X131.201 Y103.682 E25.37719
G1 X131.318 Y103.799 E25.38269
G1 X131.754 Y104.291 E25.40456
G1 X132.126 Y104.832 E25.4264
G1 X132.43 Y105.414 E25.44824
G1 X132.661 Y106.029 E25.47009
G1 X132.816 Y106.668 E25.49196
G1 X132.9 Y107.617 E25.52364
G1 X132.9 Y127.383 E26.18106
G1 X132.86 Y128.039 E26.20292
G1 X132.741 Y128.685 E26.22477
G1 X132.544 Y129.312 E26.24663
G1 X132.272 Y129.91 E26.26848
G1 X131.93 Y130.471 E26.29033
G1 X131.318 Y131.201 E26.32202
G1 X131.201 Y131.318 E26.32752
G1 X130.709 Y131.754 E26.34938
G1 X130.168 Y132.126 E26.37122
G1 X129.586 Y132.43 E26.39306
G1 X128.971 Y132.661 E26.41491
G1 X128.332 Y132.816 E26.43678
G1 X127.383 Y132.9 E26.46847
G1 X107.617 Y132.9 E27.12589
G1 X106.961 Y132.86 E27.14775
G1 X106.315 Y132.741 E27.16959
G1 X105.688 Y132.544 E27.19145
G1 X105.09 Y132.272 E27.2133
G1 X104.529 Y131.93 E27.23516
G1 X103.799 Y131.318 E27.26684
G1 X103.682 Y131.201 E27.27234
G1 X103.246 Y130.709 E27.29421
G1 X102.874 Y130.168 E27.31604
G1 X102.57 Y129.586 E27.33788
G1 X102.339 Y128.971 E27.35973
G1 X102.184 Y128.332 E27.3816
G1 X102.1 Y127.383 E27.41329
G1 X102.1 Y107.617 E28.07071
G1 X102.14 Y106.961 E28.09257
G1 X102.259 Y106.315 E28.11442
G1 X102.456 Y105.688 E28.13628
G1 X102.728 Y105.09 E28.15813
G1 X103.07 Y104.529 E28.17998
G1 X103.682 Y103.799 E28.21166
G0 F7500 X103.964 Y104.081
G1 F1500 X104.081 Y103.964 E28.21717
G1 X104.556 Y103.547 E28.23819
G1 X105.079 Y103.192 E28.25921
G1 X105.643 Y102.906 E28.28025
G1 X106.238 Y102.694 E28.30125
G1 X106.856 Y102.558 E28.3223
G1 X107.617 Y102.5 E28.34769
G1 X127.383 Y102.5 E29.0051
G1 X128.014 Y102.54 E29.02613
G1 X128.635 Y102.659 E29.04716
G1 X129.235 Y102.856 E29.06817
G1 X129.807 Y103.127 E29.08922
G1 X130.339 Y103.467 E29.11022
G1 X130.919 Y103.964 E29.13562
G1 X131.036 Y104.081 E29.14113
G1 X131.453 Y104.556 E29.16215
G1 X131.808 Y105.079 E29.18317
G1 X132.094 Y105.643 E29.20421
G1 X132.306 Y106.238 E29.22522
G1 X132.442 Y106.856 E29.24626
G1 X132.5 Y107.617 E29.27165
G1 X132.5 Y127.383 E29.92907
G1 X132.46 Y128.014 E29.9501
G1 X132.341 Y128.635 E29.97113
G1 X132.144 Y129.235 E29.99213
G1 X131.873 Y129.807 E30.01318
G1 X131.533 Y130.339 E30.03418
G1 X131.036 Y130.919 E30.05959
G1 X130.919 Y131.036 E30.06509
G1 X130.444 Y131.453 E30.08611
G1 X129.921 Y131.808 E30.10714
G1 X129.357 Y132.094 E30.12817
G1 X128.762 Y132.306 E30.14918
G1 X128.144 Y132.442 E30.17022
G1 X127.383 Y132.5 E30.19561
G1 X107.617 Y132.5 E30.85303
G1 X106.986 Y132.46 E30.87406
G1 X106.365 Y132.341 E30.89509
G1 X105.765 Y132.144 E30.91609
G1 X105.193 Y131.873 E30.93714
G1 X104.661 Y131.533 E30.95814
G1 X104.081 Y131.036 E30.98355
G1 X103.964 Y130.919 E30.98905
