;FLAVOR:Marlin
;TIME:3737
;Filament used: 1.58178m
;Layer height: 0.12
;MINX:99.7
;MINY:99.7
;MINZ:0.12
;MAXX:135.3
;MAXY:135.3
;MAXZ:19.92
;Generated with Cura_SteamEngine 4.5.0
M140 S60
M105
M190 S60
M104 S185
M105
M109 S185
M82 ;absolute extrusion mode
; Ender 3 Custom Start G-code
G92 E0 ; Reset Extruder
G28 ; Home all axes
G1 Z2.0 F3000 ; Move Z Axis up little to prevent scratching of Heat Bed
G1 X0.1 Y20 Z0.3 F5000.0 ; Move to start position
G1 X0.1 Y200.0 Z0.3 F1500.0 E15 ; Draw the first line
G1 X0.4 Y200.0 Z0.3 F5000.0 ; Move to side a little
G1 X0.4 Y20 Z0.3 F1500.0 E30 ; Draw the second line
G92 E0 ; Reset Extruder
G1 Z2.0 F3000 ; Move Z Axis up little to prevent scratching of Heat Bed
G1 X5 Y20 Z0.3 F5000.0 ; Move over to prevent blob squish
G92 E0
G92 E0
G1 F2700 E-5
;LAYER_COUNT:166
;LAYER:0
M107
G0 F7500 X101.985 Y102.102 Z0.12
;TYPE:SKIRT
G1 F2700 E0
G1 F1500 X102.102 Y101.985 E0.0033
G1 X102.688 Y101.455 E0.01907
G1 X103.324 Y100.988 E0.03482
G1 X104.004 Y100.587 E0.05057
G1 X104.722 Y100.257 E0.06634
G1 X105.469 Y100.002 E0.08209
G1 X106.238 Y99.823 E0.09785
G1 X107.022 Y99.723 E0.11362
G1 X107.617 Y99.7 E0.1255
G1 X127.383 Y99.7 E0.51995
G1 X128.172 Y99.74 E0.53572
G1 X128.952 Y99.859 E0.55147
G1 X129.717 Y100.057 E0.56724
G1 X130.457 Y100.331 E0.58298
G1 X131.166 Y100.679 E0.59874
G1 X131.837 Y101.097 E0.61452
G1 X132.461 Y101.58 E0.63027
G1 X132.898 Y101.985 E0.64216
G1 X133.015 Y102.102 E0.64546
G1 X133.545 Y102.688 E0.66123
G1 X134.012 Y103.324 E0.67697
G1 X134.413 Y104.004 E0.69273
G1 X134.743 Y104.722 E0.7085
G1 X134.998 Y105.469 E0.72425
G1 X135.177 Y106.238 E0.74001
G1 X135.277 Y107.022 E0.75578
G1 X135.3 Y107.617 E0.76766
G1 X135.3 Y127.383 E1.16211
G1 X135.26 Y128.172 E1.17788
G1 X135.141 Y128.952 E1.19362
G1 X134.943 Y129.717 E1.20939
G1 X134.669 Y130.457 E1.22514
G1 X134.321 Y131.166 E1.2409
G1 X133.903 Y131.837 E1.25668
G1 X133.42 Y132.461 E1.27243
G1 X133.015 Y132.898 E1.28432
G1 X132.898 Y133.015 E1.28762
G1 X132.312 Y133.545 E1.30338
G1 X131.676 Y134.012 E1.31913
G1 X130.996 Y134.413 E1.33489
G1 X130.278 Y134.743 E1.35065
G1 X129.531 Y134.998 E1.36641
G1 X128.762 Y135.177 E1.38216
G1 X127.978 Y135.277 E1.39794
G1 X127.383 Y135.3 E1.40982
G1 X107.617 Y135.3 E1.80427
G1 X106.828 Y135.26 E1.82004
G1 X106.048 Y135.141 E1.83578
G1 X105.283 Y134.943 E1.85155
G1 X104.543 Y134.669 E1.8673
G1 X103.834 Y134.321 E1.88306
G1 X103.163 Y133.903 E1.89884
G1 X102.539 Y133.42 E1.91458
G1 X102.102 Y133.015 E1.92647
G1 X101.985 Y132.898 E1.92977
G1 X101.455 Y132.312 E1.94554
G1 X100.988 Y131.676 E1.96129
G1 X100.587 Y130.996 E1.97704
G1 X100.257 Y130.278 E1.99281
G1 X100.002 Y129.531 E2.00856
G1 X99.823 Y128.762 E2.02432
G1 X99.723 Y127.978 E2.04009
G1 X99.7 Y127.383 E2.05198
G1 X99.7 Y107.617 E2.44643
G1 X99.74 Y106.828 E2.46219
G1 X99.859 Y106.048 E2.47794
G1 X100.057 Y105.283 E2.49371
G1 X100.331 Y104.543 E2.50946
G1 X100.679 Y103.834 E2.52522
G1 X101.097 Y103.163 E2.54099
G1 X101.58 Y102.539 E2.55674
G1 X101.985 Y102.102 E2.56863
G0 F7500 X102.384 Y102.267
G1 F1500 X102.956 Y101.753 E2.58398
G1 X103.578 Y101.3 E2.59933
G1 X104.243 Y100.914 E2.61468
G1 X104.945 Y100.599 E2.63003
G1 X105.676 Y100.359 E2.64539
G1 X106.427 Y100.196 E2.66072
G1 X107.192 Y100.112 E2.67608
G1 X107.617 Y100.1 E2.68456
G1 X127.383 Y100.1 E3.07902
G1 X128.151 Y100.14 E3.09436
G1 X128.911 Y100.259 E3.10971
G1 X129.654 Y100.457 E3.12506
G1 X130.373 Y100.731 E3.14041
G1 X131.059 Y101.078 E3.15576
G1 X131.706 Y101.494 E3.17111
G1 X132.306 Y101.975 E3.18645
G1 X132.733 Y102.384 E3.19825
G1 X133.247 Y102.956 E3.2136
G1 X133.7 Y103.578 E3.22895
G1 X134.086 Y104.243 E3.2443
G1 X134.401 Y104.945 E3.25965
G1 X134.641 Y105.676 E3.27501
G1 X134.804 Y106.427 E3.29034
G1 X134.888 Y107.192 E3.3057
G1 X134.9 Y107.617 E3.31419
G1 X134.9 Y127.383 E3.70864
G1 X134.86 Y128.151 E3.72399
G1 X134.741 Y128.911 E3.73934
G1 X134.543 Y129.654 E3.75468
G1 X134.269 Y130.373 E3.77004
G1 X133.922 Y131.059 E3.78538
G1 X133.506 Y131.706 E3.80073
G1 X133.025 Y132.306 E3.81607
G1 X132.616 Y132.733 E3.82787
G1 X132.044 Y133.247 E3.84322
G1 X131.422 Y133.7 E3.85858
G1 X130.757 Y134.086 E3.87392
G1 X130.055 Y134.401 E3.88928
G1 X129.324 Y134.641 E3.90463
G1 X128.573 Y134.804 E3.91997
G1 X127.808 Y134.888 E3.93532
G1 X127.383 Y134.9 E3.94381
G1 X107.617 Y134.9 E4.33826
G1 X106.849 Y134.86 E4.35361
G1 X106.089 Y134.741 E4.36896
G1 X105.346 Y134.543 E4.3843
G1 X104.627 Y134.269 E4.39966
G1 X103.941 Y133.922 E4.415
G1 X103.294 Y133.506 E4.43035
G1 X102.694 Y133.025 E4.4457
G1 X102.267 Y132.616 E4.4575
G1 X101.753 Y132.044 E4.47284
G1 X101.3 Y131.422 E4.4882
G1 X100.914 Y130.757 E4.50354
G1 X100.599 Y130.055 E4.5189
G1 X100.359 Y129.324 E4.53425
G1 X100.196 Y128.573 E4.54959
G1 X100.112 Y127.808 E4.56495
G1 X100.1 Y127.383 E4.57343
G1 X100.1 Y107.617 E4.96788
G1 X100.14 Y106.849 E4.98323
G1 X100.259 Y106.089 E4.99858
G1 X100.457 Y105.346 E5.01393
G1 X100.731 Y104.627 E5.02928
G1 X101.078 Y103.941 E5.04462
G1 X101.494 Y103.294 E5.05997
G1 X101.975 Y102.694 E5.07532
G1 X102.384 Y102.267 E5.08712
G0 F7500 X102.55 Y102.667
G1 F1500 X102.667 Y102.55 E5.09042
G1 X103.224 Y102.05 E5.10536
G1 X103.83 Y101.613 E5.12027
G1 X104.48 Y101.242 E5.1352
G1 X105.166 Y100.943 E5.15014
G1 X105.88 Y100.719 E5.16507
G1 X106.613 Y100.572 E5.17999
G1 X107.617 Y100.5 E5.20008
G1 X127.383 Y100.5 E5.59453
G1 X128.13 Y100.54 E5.60946
G1 X128.868 Y100.659 E5.62438
G1 X129.59 Y100.857 E5.63932
G1 X130.286 Y101.13 E5.65424
G1 X130.949 Y101.477 E5.66917
G1 X131.572 Y101.892 E5.68411
G1 X132.333 Y102.55 E5.70418
G1 X132.45 Y102.667 E5.70749
G1 X132.95 Y103.224 E5.72242
G1 X133.387 Y103.83 E5.73733
G1 X133.758 Y104.48 E5.75227
G1 X134.057 Y105.166 E5.7672
G1 X134.281 Y105.88 E5.78213
G1 X134.428 Y106.613 E5.79705
G1 X134.5 Y107.617 E5.81714
G1 X134.5 Y127.383 E6.21159
G1 X134.46 Y128.13 E6.22652
G1 X134.341 Y128.868 E6.24144
G1 X134.143 Y129.59 E6.25638
G1 X133.87 Y130.286 E6.2713
G1 X133.523 Y130.949 E6.28623
G1 X133.108 Y131.572 E6.30117
G1 X132.45 Y132.333 E6.32125
G1 X132.333 Y132.45 E6.32455
G1 X131.776 Y132.95 E6.33949
G1 X131.17 Y133.387 E6.3544
G1 X130.52 Y133.758 E6.36933
G1 X129.834 Y134.057 E6.38427
G1 X129.12 Y134.281 E6.3992
G1 X128.387 Y134.428 E6.41412
G1 X127.383 Y134.5 E6.43421
G1 X107.617 Y134.5 E6.82866
G1 X106.87 Y134.46 E6.84359
G1 X106.132 Y134.341 E6.8585
G1 X105.41 Y134.143 E6.87344
G1 X104.714 Y133.87 E6.88836
G1 X104.051 Y133.523 E6.9033
G1 X103.428 Y133.108 E6.91824
G1 X102.667 Y132.45 E6.93831
G1 X102.55 Y132.333 E6.94161
G1 X102.05 Y131.776 E6.95655
G1 X101.613 Y131.17 E6.97146
G1 X101.242 Y130.52 E6.9864
G1 X100.943 Y129.834 E7.00133
G1 X100.719 Y129.12 E7.01626
G1 X100.572 Y128.387 E7.03118
G1 X100.5 Y127.383 E7.05127
G1 X100.5 Y107.617 E7.44572
G1 X100.54 Y106.87 E7.46065
G1 X100.659 Y106.132 E7.47557
G1 X100.857 Y105.41 E7.49051
G1 X101.13 Y104.714 E7.50543
G1 X101.477 Y104.051 E7.52036
G1 X101.892 Y103.428 E7.5353
G1 X102.55 Y102.667 E7.55538
G0 F7500 X102.833 Y102.95
G1 F1500 X102.95 Y102.833 E7.55868
G1 X103.491 Y102.349 E7.57317
G1 X104.082 Y101.926 E7.58767
G1 X104.716 Y101.572 E7.60216
G1 X105.385 Y101.289 E7.61666
G1 X106.081 Y101.081 E7.63115
G1 X106.796 Y100.951 E7.64565
G1 X107.617 Y100.9 E7.66207
G1 X127.383 Y100.9 E8.05652
G1 X128.108 Y100.94 E8.07101
G1 X128.825 Y101.059 E8.08552
G1 X129.524 Y101.257 E8.10001
G1 X130.197 Y101.53 E8.11451
G1 X130.836 Y101.875 E8.129
G1 X131.433 Y102.289 E8.1435
G1 X132.05 Y102.833 E8.15991
G1 X132.167 Y102.95 E8.16322
G1 X132.651 Y103.491 E8.1777
G1 X133.074 Y104.082 E8.19221
G1 X133.428 Y104.716 E8.2067
G1 X133.711 Y105.385 E8.22119
G1 X133.919 Y106.081 E8.23569
G1 X134.049 Y106.796 E8.25019
G1 X134.1 Y107.617 E8.26661
G1 X134.1 Y127.383 E8.66106
G1 X134.06 Y128.108 E8.67555
G1 X133.941 Y128.825 E8.69005
G1 X133.743 Y129.524 E8.70455
G1 X133.47 Y130.197 E8.71904
G1 X133.125 Y130.836 E8.73354
G1 X132.711 Y131.433 E8.74803
G1 X132.167 Y132.05 E8.76445
G1 X132.05 Y132.167 E8.76775
G1 X131.509 Y132.651 E8.78224
G1 X130.918 Y133.074 E8.79674
G1 X130.284 Y133.428 E8.81123
G1 X129.615 Y133.711 E8.82573
G1 X128.919 Y133.919 E8.84022
G1 X128.204 Y134.049 E8.85473
G1 X127.383 Y134.1 E8.87114
G1 X107.617 Y134.1 E9.26559
G1 X106.892 Y134.06 E9.28008
G1 X106.175 Y133.941 E9.29459
G1 X105.476 Y133.743 E9.30909
G1 X104.803 Y133.47 E9.32358
G1 X104.164 Y133.125 E9.33807
G1 X103.567 Y132.711 E9.35257
G1 X102.95 Y132.167 E9.36899
G1 X102.833 Y132.05 E9.37229
G1 X102.349 Y131.509 E9.38677
G1 X101.926 Y130.918 E9.40128
G1 X101.572 Y130.284 E9.41577
G1 X101.289 Y129.615 E9.43026
G1 X101.081 Y128.919 E9.44476
G1 X100.951 Y128.204 E9.45926
G1 X100.9 Y127.383 E9.47568
G1 X100.9 Y107.617 E9.87013
G1 X100.94 Y106.892 E9.88462
G1 X101.059 Y106.175 E9.89913
G1 X101.257 Y105.476 E9.91362
G1 X101.53 Y104.803 E9.92812
G1 X101.875 Y104.164 E9.94261
G1 X102.289 Y103.567 E9.95711
G1 X102.833 Y102.95 E9.97352
G0 F7500 X103.116 Y103.233
G1 F1500 X103.233 Y103.116 E9.97682
G1 X103.758 Y102.647 E9.99087
G1 X104.333 Y102.241 E10.00492
G1 X104.951 Y101.903 E10.01898
G1 X105.602 Y101.636 E10.03302
G1 X106.28 Y101.446 E10.04707
G1 X106.975 Y101.333 E10.06112
G1 X107.617 Y101.3 E10.07395
G1 X127.383 Y101.3 E10.4684
G1 X128.086 Y101.34 E10.48245
G1 X128.78 Y101.459 E10.49651
G1 X129.455 Y101.657 E10.51054
G1 X130.104 Y101.929 E10.52459
G1 X130.718 Y102.274 E10.53864
G1 X131.289 Y102.685 E10.55268
G1 X131.767 Y103.116 E10.56552
G1 X131.884 Y103.233 E10.56883
G1 X132.353 Y103.758 E10.58288
G1 X132.759 Y104.333 E10.59692
G1 X133.097 Y104.951 E10.61098
G1 X133.364 Y105.602 E10.62502
G1 X133.554 Y106.28 E10.63907
G1 X133.667 Y106.975 E10.65312
G1 X133.7 Y107.617 E10.66595
G1 X133.7 Y127.383 E11.0604
G1 X133.66 Y128.086 E11.07446
G1 X133.541 Y128.78 E11.08851
G1 X133.343 Y129.455 E11.10255
G1 X133.071 Y130.104 E11.11659
G1 X132.726 Y130.718 E11.13064
G1 X132.315 Y131.289 E11.14468
G1 X131.884 Y131.767 E11.15753
G1 X131.767 Y131.884 E11.16083
G1 X131.242 Y132.353 E11.17488
G1 X130.667 Y132.759 E11.18893
G1 X130.049 Y133.097 E11.20298
G1 X129.398 Y133.364 E11.21702
G1 X128.72 Y133.554 E11.23108
G1 X128.025 Y133.667 E11.24513
G1 X127.383 Y133.7 E11.25796
G1 X107.617 Y133.7 E11.65241
G1 X106.914 Y133.66 E11.66646
G1 X106.22 Y133.541 E11.68051
G1 X105.545 Y133.343 E11.69455
G1 X104.896 Y133.071 E11.70859
G1 X104.282 Y132.726 E11.72265
G1 X103.711 Y132.315 E11.73669
G1 X103.233 Y131.884 E11.74953
G1 X103.116 Y131.767 E11.75283
G1 X102.647 Y131.242 E11.76688
G1 X102.241 Y130.667 E11.78093
G1 X101.903 Y130.049 E11.79498
G1 X101.636 Y129.398 E11.80903
G1 X101.446 Y128.72 E11.82308
G1 X101.333 Y128.025 E11.83713
G1 X101.3 Y127.383 E11.84996
G1 X101.3 Y107.617 E12.24441
G1 X101.34 Y106.914 E12.25846
G1 X101.459 Y106.22 E12.27251
G1 X101.657 Y105.545 E12.28655
G1 X101.929 Y104.896 E12.30059
G1 X102.274 Y104.282 E12.31465
G1 X102.685 Y103.711 E12.32869
G1 X103.116 Y103.233 E12.34153
G0 F7500 X103.399 Y103.516
G1 F1500 X103.516 Y103.399 E12.34484
G1 X104.025 Y102.946 E12.35843
G1 X104.583 Y102.557 E12.37201
G1 X105.183 Y102.235 E12.3856
G1 X105.817 Y101.986 E12.39919
G1 X106.476 Y101.813 E12.41279
G1 X107.15 Y101.719 E12.42637
G1 X107.617 Y101.7 E12.43569
G1 X127.383 Y101.7 E12.83015
G1 X128.063 Y101.74 E12.84374
G1 X128.733 Y101.859 E12.85732
G1 X129.385 Y102.056 E12.87091
G1 X130.009 Y102.328 E12.8845
G1 X130.597 Y102.672 E12.89809
G1 X131.141 Y103.082 E12.91168
G1 X131.484 Y103.399 E12.921
G1 X131.601 Y103.516 E12.92431
G1 X132.054 Y104.025 E12.9379
G1 X132.443 Y104.583 E12.95148
G1 X132.765 Y105.183 E12.96507
G1 X133.014 Y105.817 E12.97866
G1 X133.187 Y106.476 E12.99226
G1 X133.281 Y107.15 E13.00584
G1 X133.3 Y107.617 E13.01517
G1 X133.3 Y127.383 E13.40962
G1 X133.26 Y128.063 E13.42321
G1 X133.141 Y128.733 E13.43679
G1 X132.944 Y129.385 E13.45038
G1 X132.672 Y130.009 E13.46397
G1 X132.328 Y130.597 E13.47756
G1 X131.918 Y131.141 E13.49116
G1 X131.601 Y131.484 E13.50048
G1 X131.484 Y131.601 E13.50378
G1 X130.975 Y132.054 E13.51738
G1 X130.417 Y132.443 E13.53095
G1 X129.817 Y132.765 E13.54454
G1 X129.183 Y133.014 E13.55813
G1 X128.524 Y133.187 E13.57173
G1 X127.85 Y133.281 E13.58531
G1 X127.383 Y133.3 E13.59464
G1 X107.617 Y133.3 E13.98909
G1 X106.937 Y133.26 E14.00268
G1 X106.267 Y133.141 E14.01626
G1 X105.615 Y132.944 E14.02985
G1 X104.991 Y132.672 E14.04344
G1 X104.403 Y132.328 E14.05703
G1 X103.859 Y131.918 E14.07063
G1 X103.516 Y131.601 E14.07995
G1 X103.399 Y131.484 E14.08325
G1 X102.946 Y130.975 E14.09685
G1 X102.557 Y130.417 E14.11042
G1 X102.235 Y129.817 E14.12401
G1 X101.986 Y129.183 E14.1376
G1 X101.813 Y128.524 E14.1512
G1 X101.719 Y127.85 E14.16478
G1 X101.7 Y127.383 E14.17411
G1 X101.7 Y107.617 E14.56856
G1 X101.74 Y106.937 E14.58215
G1 X101.859 Y106.267 E14.59573
G1 X102.056 Y105.615 E14.60933
G1 X102.328 Y104.991 E14.62291
G1 X102.672 Y104.403 E14.63651
G1 X103.082 Y103.859 E14.6501
G1 X103.399 Y103.516 E14.65942
G0 F7500 X103.682 Y103.799
G1 F1500 X103.799 Y103.682 E14.66272
G1 X104.291 Y103.246 E14.67584
G1 X104.832 Y102.874 E14.68894
G1 X105.414 Y102.57 E14.70205
G1 X106.029 Y102.339 E14.71516
G1 X106.668 Y102.184 E14.72828
G1 X107.617 Y102.1 E14.74729
G1 X127.383 Y102.1 E15.14174
G1 X128.039 Y102.14 E15.15486
G1 X128.685 Y102.259 E15.16797
G1 X129.312 Y102.456 E15.18108
G1 X129.91 Y102.728 E15.19419
G1 X130.471 Y103.07 E15.2073
G1 X131.201 Y103.682 E15.22631
G1 X131.318 Y103.799 E15.22962
G1 X131.754 Y104.291 E15.24274
G1 X132.126 Y104.832 E15.25584
G1 X132.43 Y105.414 E15.26894
G1 X132.661 Y106.029 E15.28205
G1 X132.816 Y106.668 E15.29517
G1 X132.9 Y107.617 E15.31419
G1 X132.9 Y127.383 E15.70864
G1 X132.86 Y128.039 E15.72175
G1 X132.741 Y128.685 E15.73486
G1 X132.544 Y129.312 E15.74798
G1 X132.272 Y129.91 E15.76109
G1 X131.93 Y130.471 E15.7742
G1 X131.318 Y131.201 E15.79321
G1 X131.201 Y131.318 E15.79651
G1 X130.709 Y131.754 E15.80963
G1 X130.168 Y132.126 E15.82273
G1 X129.586 Y132.43 E15.83584
G1 X128.971 Y132.661 E15.84895
G1 X128.332 Y132.816 E15.86207
G1 X127.383 Y132.9 E15.88108
G1 X107.617 Y132.9 E16.27553
G1 X106.961 Y132.86 E16.28865
G1 X106.315 Y132.741 E16.30176
G1 X105.688 Y132.544 E16.31487
G1 X105.09 Y132.272 E16.32798
G1 X104.529 Y131.93 E16.34109
G1 X103.799 Y131.318 E16.3601
G1 X103.682 Y131.201 E16.36341
G1 X103.246 Y130.709 E16.37652
G1 X102.874 Y130.168 E16.38963
G1 X102.57 Y129.586 E16.40273
G1 X102.339 Y128.971 E16.41584
G1 X102.184 Y128.332 E16.42896
G1 X102.1 Y127.383 E16.44797
G1 X102.1 Y107.617 E16.84243
G1 X102.14 Y106.961 E16.85554
G1 X102.259 Y106.315 E16.86865
G1 X102.456 Y105.688 E16.88177
G1 X102.728 Y105.09 E16.89488
G1 X103.07 Y104.529 E16.90799
G1 X103.682 Y103.799 E16.927
G0 F7500 X103.964 Y104.081
G1 F1500 X104.081 Y103.964 E16.9303
G1 X104.556 Y103.547 E16.94291
G1 X105.079 Y103.192 E16.95553
G1 X105.643 Y102.906 E16.96815
G1 X106.238 Y102.694 E16.98075
G1 X106.856 Y102.558 E16.99338
G1 X107.617 Y102.5 E17.00861
G1 X127.383 Y102.5 E17.40306
G1 X128.014 Y102.54 E17.41568
G1 X128.635 Y102.659 E17.4283
G1 X129.235 Y102.856 E17.4409
G1 X129.807 Y103.127 E17.45353
G1 X130.339 Y103.467 E17.46613
G1 X130.919 Y103.964 E17.48137
G1 X131.036 Y104.081 E17.48468
G1 X131.453 Y104.556 E17.49729
G1 X131.808 Y105.079 E17.5099
G1 X132.094 Y105.643 E17.52252
G1 X132.306 Y106.238 E17.53513
G1 X132.442 Y106.856 E17.54776
G1 X132.5 Y107.617 E17.56299
G1 X132.5 Y127.383 E17.95744
G1 X132.46 Y128.014 E17.97006
G1 X132.341 Y128.635 E17.98268
G1 X132.144 Y129.235 E17.99528
G1 X131.873 Y129.807 E18.00791
G1 X131.533 Y130.339 E18.02051
G1 X131.036 Y130.919 E18.03575
G1 X130.919 Y131.036 E18.03905
G1 X130.444 Y131.453 E18.05167
G1 X129.921 Y131.808 E18.06428
G1 X129.357 Y132.094 E18.0769
G1 X128.762 Y132.306 E18.08951
G1 X128.144 Y132.442 E18.10213
G1 X127.383 Y132.5 E18.11736
G1 X107.617 Y132.5 E18.51182
G1 X106.986 Y132.46 E18.52443
G1 X106.365 Y132.341 E18.53705
G1 X105.765 Y132.144 E18.54966
G1 X105.193 Y131.873 E18.56229
G1 X104.661 Y131.533 E18.57489
G1 X104.081 Y131.036 E18.59013
G1 X103.964 Y130.919 E18.59343
G1 X103.547 Y130.444 E18.60604
G1 X103.192 Y129.921 E18.61866
G1 X102.906 Y129.357 E18.63128
