;FLAVOR:Marlin
;TIME:339
;Filament used: 0.160393m
;Layer height: 0.2
;MINX:99.702
;MINY:99.702
;MINZ:0.2
;MAXX:135.298
;MAXY:135.298
;MAXZ:5
;Generated with Cura_SteamEngine 4.5.0
M140 S60
M105
M190 S60
M104 S185
M105
M109 S185
M82 ;absolute extrusion mode
; Ender 3 Custom Start G-code
G92 E0 ; Reset Extruder
G28 ; Home all axes
G1 Z2.0 F3000 ; Move Z Axis up little to prevent scratching of Heat Bed
G1 X0.1 Y20 Z0.3 F5000.0 ; Move to start position
G1 X0.1 Y200.0 Z0.3 F1500.0 E15 ; Draw the first line
G1 X0.4 Y200.0 Z0.3 F5000.0 ; Move to side a little
G1 X0.4 Y20 Z0.3 F1500.0 E30 ; Draw the second line
G92 E0 ; Reset Extruder
G1 Z2.0 F3000 ; Move Z Axis up little to prevent scratching of Heat Bed
G1 X5 Y20 Z0.3 F5000.0 ; Move over to prevent blob squish
G92 E0
G92 E0
G1 F2700 E-5
;LAYER_COUNT:25
;LAYER:0
M107
G0 F7500 X104.779 Y105.052 Z0.2
;TYPE:SKIRT
G1 F2700 E0
G1 F1500 X105.053 Y104.778 E0.01289
G1 X105.408 Y104.441 E0.02917
G1 X105.664 Y104.209 E0.04066
G1 X106.021 Y103.899 E0.05639
G1 X106.3 Y103.667 E0.06845
G1 X106.676 Y103.37 E0.08439
G1 X106.995 Y103.131 E0.09765
G1 X107.395 Y102.847 E0.11396
G1 X107.684 Y102.652 E0.12556
G1 X108.081 Y102.396 E0.14127
G1 X108.424 Y102.187 E0.15463
G1 X108.842 Y101.947 E0.17066
G1 X109.162 Y101.773 E0.18278
G1 X109.602 Y101.547 E0.19923
G1 X109.962 Y101.374 E0.21251
G1 X110.397 Y101.178 E0.22838
G1 X110.729 Y101.037 E0.24038
G1 X111.191 Y100.854 E0.25691
G1 X111.567 Y100.716 E0.27023
G1 X112.023 Y100.562 E0.28624
G1 X112.391 Y100.448 E0.29905
G1 X112.867 Y100.313 E0.31551
G1 X113.235 Y100.218 E0.32815
G1 X113.723 Y100.105 E0.34481
G1 X114.088 Y100.03 E0.3572
G1 X114.583 Y99.94 E0.37394
G1 X115.012 Y99.874 E0.38837
G1 X115.509 Y99.812 E0.40503
G1 X115.872 Y99.775 E0.41717
G1 X116.375 Y99.736 E0.43395
G1 X116.783 Y99.715 E0.44753
G1 X117.302 Y99.702 E0.4648
G1 X117.692 Y99.702 E0.47777
G1 X118.212 Y99.715 E0.49507
G1 X118.62 Y99.736 E0.50866
G1 X119.123 Y99.775 E0.52544
G1 X119.489 Y99.812 E0.53768
G1 X119.984 Y99.874 E0.55427
G1 X120.39 Y99.936 E0.56793
G1 X120.887 Y100.025 E0.58472
G1 X121.268 Y100.103 E0.59766
G1 X121.757 Y100.216 E0.61435
G1 X122.119 Y100.309 E0.62678
G1 X122.594 Y100.443 E0.6432
G1 X122.977 Y100.562 E0.65654
G1 X123.432 Y100.716 E0.67251
G1 X123.787 Y100.846 E0.68509
G1 X124.252 Y101.029 E0.70171
G1 X124.613 Y101.181 E0.71474
G1 X125.046 Y101.377 E0.73054
G1 X125.374 Y101.535 E0.74265
G1 X125.813 Y101.759 E0.75905
G1 X126.169 Y101.953 E0.77253
G1 X126.588 Y102.195 E0.78862
G1 X126.891 Y102.379 E0.80041
G1 X127.288 Y102.633 E0.81609
G1 X127.599 Y102.843 E0.82857
G1 X127.992 Y103.122 E0.8446
G1 X128.299 Y103.351 E0.85734
G1 X128.683 Y103.653 E0.87359
G1 X128.958 Y103.879 E0.88543
G1 X129.316 Y104.188 E0.90116
G1 X129.602 Y104.449 E0.91403
G1 X129.948 Y104.779 E0.92994
G1 X130.222 Y105.053 E0.94282
G1 X130.559 Y105.408 E0.95911
G1 X130.791 Y105.664 E0.9706
G1 X131.101 Y106.021 E0.98632
G1 X131.333 Y106.3 E0.99839
G1 X131.63 Y106.676 E1.01433
G1 X131.869 Y106.995 E1.02758
G1 X132.153 Y107.395 E1.0439
G1 X132.348 Y107.684 E1.0555
G1 X132.604 Y108.081 E1.07121
G1 X132.813 Y108.424 E1.08457
G1 X133.053 Y108.842 E1.1006
G1 X133.227 Y109.162 E1.11271
G1 X133.453 Y109.602 E1.12917
G1 X133.626 Y109.962 E1.14245
G1 X133.822 Y110.397 E1.15832
G1 X133.963 Y110.729 E1.17032
G1 X134.146 Y111.191 E1.18684
G1 X134.284 Y111.567 E1.20017
G1 X134.438 Y112.023 E1.21617
G1 X134.551 Y112.387 E1.22885
G1 X134.686 Y112.862 E1.24527
G1 X134.778 Y113.217 E1.25747
G1 X134.891 Y113.7 E1.27397
G1 X134.976 Y114.113 E1.28799
G1 X135.065 Y114.614 E1.30492
G1 X135.122 Y114.985 E1.3174
G1 X135.185 Y115.476 E1.33387
G1 X135.225 Y115.872 E1.34711
G1 X135.264 Y116.38 E1.36405
G1 X135.285 Y116.78 E1.37737
G1 X135.298 Y117.295 E1.39451
G1 X135.298 Y117.685 E1.40748
G1 X135.285 Y118.21 E1.42495
G1 X135.264 Y118.61 E1.43827
G1 X135.226 Y119.108 E1.45488
G1 X135.188 Y119.49 E1.46765
G1 X135.125 Y119.99 E1.48441
G1 X135.065 Y120.386 E1.49773
G1 X134.977 Y120.879 E1.51439
G1 X134.897 Y121.265 E1.5275
G1 X134.783 Y121.758 E1.54433
G1 X134.692 Y122.116 E1.55662
G1 X134.561 Y122.581 E1.57268
G1 X134.443 Y122.961 E1.58592
G1 X134.286 Y123.426 E1.60224
G1 X134.156 Y123.784 E1.61491
G1 X133.978 Y124.237 E1.6311
G1 X133.826 Y124.595 E1.64403
G1 X133.625 Y125.04 E1.66027
G1 X133.467 Y125.369 E1.67241
G1 X133.248 Y125.799 E1.68846
G1 X133.056 Y126.153 E1.70186
G1 X132.814 Y126.573 E1.71798
G1 X132.627 Y126.881 E1.72996
G1 X132.368 Y127.286 E1.74595
G1 X132.157 Y127.599 E1.75851
G1 X131.878 Y127.992 E1.77454
G1 X131.653 Y128.294 E1.78706
G1 X131.357 Y128.671 E1.80301
G1 X131.127 Y128.95 E1.81503
G1 X130.812 Y129.315 E1.83107
G1 X130.551 Y129.602 E1.84397
G1 X130.221 Y129.948 E1.85987
G1 X129.947 Y130.222 E1.87276
G1 X129.592 Y130.559 E1.88904
G1 X129.336 Y130.791 E1.90053
G1 X128.979 Y131.101 E1.91626
G1 X128.7 Y131.333 E1.92833
G1 X128.324 Y131.63 E1.94426
G1 X128.005 Y131.869 E1.95752
G1 X127.605 Y132.153 E1.97384
G1 X127.316 Y132.348 E1.98543
G1 X126.919 Y132.604 E2.00114
G1 X126.576 Y132.813 E2.0145
G1 X126.158 Y133.053 E2.03054
G1 X125.838 Y133.227 E2.04265
G1 X125.398 Y133.453 E2.0591
G1 X125.038 Y133.626 E2.07239
G1 X124.603 Y133.822 E2.08826
G1 X124.266 Y133.965 E2.10043
G1 X123.803 Y134.148 E2.11699
G1 X123.437 Y134.282 E2.12995
G1 X122.982 Y134.436 E2.14593
G1 X122.609 Y134.552 E2.15892
G1 X122.133 Y134.687 E2.17538
G1 X121.783 Y134.778 E2.18741
G1 X121.296 Y134.892 E2.20404
G1 X120.875 Y134.978 E2.21833
G1 X120.377 Y135.066 E2.23515
G1 X120.005 Y135.123 E2.24767
G1 X119.51 Y135.186 E2.26427
G1 X119.128 Y135.225 E2.27704
G1 X118.625 Y135.264 E2.29382
G1 X118.217 Y135.285 E2.30741
G1 X117.698 Y135.298 E2.32468
G1 X117.308 Y135.298 E2.33765
G1 X116.788 Y135.285 E2.35495
G1 X116.38 Y135.264 E2.36854
G1 X115.877 Y135.225 E2.38532
G1 X115.511 Y135.188 E2.39755
G1 X115.016 Y135.126 E2.41414
G1 X114.61 Y135.064 E2.4278
G1 X114.113 Y134.975 E2.4446
G1 X113.732 Y134.897 E2.45753
G1 X113.243 Y134.784 E2.47422
G1 X112.881 Y134.691 E2.48666
G1 X112.406 Y134.557 E2.50307
G1 X112.023 Y134.438 E2.51641
G1 X111.568 Y134.284 E2.53239
G1 X111.213 Y134.154 E2.54496
G1 X110.748 Y133.971 E2.56158
G1 X110.387 Y133.819 E2.57461
G1 X109.954 Y133.623 E2.59042
G1 X109.626 Y133.465 E2.60253
G1 X109.185 Y133.24 E2.61899
G1 X108.827 Y133.045 E2.63255
G1 X108.41 Y132.804 E2.64857
G1 X108.109 Y132.621 E2.66029
G1 X107.712 Y132.367 E2.67596
G1 X107.397 Y132.155 E2.68859
G1 X106.996 Y131.87 E2.70495
G1 X106.688 Y131.639 E2.71776
G1 X106.311 Y131.342 E2.73372
G1 X106.043 Y131.121 E2.74528
G1 X105.686 Y130.813 E2.76096
G1 X105.395 Y130.548 E2.77405
G1 X105.041 Y130.21 E2.79033
G1 X104.775 Y129.944 E2.80284
G1 X104.445 Y129.597 E2.81877
G1 X104.206 Y129.334 E2.83059
G1 X103.891 Y128.971 E2.84657
G1 X103.65 Y128.68 E2.85914
G1 X103.352 Y128.301 E2.87517
G1 X103.119 Y127.989 E2.88813
G1 X102.842 Y127.598 E2.90406
G1 X102.648 Y127.311 E2.91559
G1 X102.386 Y126.904 E2.93168
G1 X102.192 Y126.585 E2.9441
G1 X101.951 Y126.168 E2.96012
G1 X101.747 Y125.792 E2.97435
G1 X101.528 Y125.36 E2.99046
G1 X101.373 Y125.037 E3.00237
G1 X101.173 Y124.593 E3.01857
G1 X101.031 Y124.255 E3.03076
G1 X100.852 Y123.802 E3.04697
G1 X100.717 Y123.436 E3.05994
G1 X100.56 Y122.972 E3.07623
G1 X100.444 Y122.598 E3.08926
G1 X100.312 Y122.132 E3.10537
G1 X100.221 Y121.778 E3.11752
G1 X100.106 Y121.285 E3.13436
G1 X100.021 Y120.871 E3.14842
G1 X99.934 Y120.379 E3.16503
G1 X99.878 Y120.009 E3.17748
G1 X99.814 Y119.508 E3.19428
G1 X99.774 Y119.113 E3.20748
G1 X99.736 Y118.615 E3.2241
G1 X99.715 Y118.219 E3.23729
G1 X99.702 Y117.705 E3.25439
G1 X99.702 Y117.315 E3.26736
G1 X99.715 Y116.79 E3.28483
G1 X99.736 Y116.39 E3.29815
G1 X99.774 Y115.892 E3.31476
G1 X99.812 Y115.51 E3.32753
G1 X99.875 Y115.01 E3.34429
G1 X99.935 Y114.614 E3.35761
G1 X100.023 Y114.121 E3.37427
G1 X100.103 Y113.735 E3.38738
G1 X100.217 Y113.242 E3.40421
G1 X100.308 Y112.884 E3.41649
G1 X100.439 Y112.419 E3.43256
G1 X100.557 Y112.039 E3.4458
G1 X100.714 Y111.574 E3.46212
G1 X100.844 Y111.216 E3.47479
G1 X101.022 Y110.763 E3.49098
G1 X101.174 Y110.405 E3.50391
G1 X101.375 Y109.96 E3.52015
G1 X101.533 Y109.631 E3.53229
G1 X101.752 Y109.201 E3.54834
G1 X101.944 Y108.847 E3.56174
G1 X102.186 Y108.427 E3.57786
G1 X102.373 Y108.119 E3.58984
G1 X102.632 Y107.714 E3.60583
G1 X102.843 Y107.401 E3.61839
G1 X103.122 Y107.008 E3.63442
G1 X103.351 Y106.701 E3.64716
G1 X103.653 Y106.317 E3.6634
G1 X103.879 Y106.042 E3.67524
G1 X104.188 Y105.684 E3.69097
G1 X104.449 Y105.398 E3.70385
G1 X104.779 Y105.052 E3.71975
G0 F7500 X105.068 Y105.328
G1 F1500 X105.328 Y105.068 E3.73198
G1 X105.683 Y104.731 E3.74826
G1 X105.926 Y104.511 E3.75917
G1 X106.283 Y104.201 E3.77489
G1 X106.548 Y103.981 E3.78635
G1 X106.924 Y103.684 E3.80228
G1 X107.227 Y103.457 E3.81488
G1 X107.627 Y103.173 E3.83119
G1 X107.901 Y102.988 E3.84219
G1 X108.298 Y102.732 E3.8579
G1 X108.623 Y102.534 E3.87056
G1 X109.041 Y102.294 E3.88659
G1 X109.345 Y102.129 E3.89809
G1 X109.785 Y101.903 E3.91454
G1 X110.126 Y101.738 E3.92714
G1 X110.561 Y101.542 E3.94301
G1 X110.876 Y101.409 E3.95439
G1 X111.338 Y101.226 E3.97091
G1 X111.695 Y101.095 E3.98356
G1 X112.151 Y100.941 E3.99957
G1 X112.5 Y100.833 E4.01172
G1 X112.976 Y100.698 E4.02818
G1 X113.326 Y100.608 E4.0402
G1 X113.814 Y100.495 E4.05686
G1 X114.159 Y100.423 E4.06858
G1 X114.654 Y100.333 E4.08531
G1 X115.062 Y100.271 E4.09904
G1 X115.559 Y100.209 E4.1157
G1 X115.903 Y100.174 E4.1272
G1 X116.406 Y100.135 E4.14398
G1 X116.793 Y100.115 E4.15687
G1 X117.312 Y100.102 E4.17413
G1 X117.682 Y100.102 E4.18644
G1 X118.202 Y100.115 E4.20374
G1 X118.589 Y100.135 E4.21663
G1 X119.092 Y100.174 E4.23341
G1 X119.44 Y100.209 E4.24504
G1 X119.935 Y100.271 E4.26164
G1 X120.319 Y100.33 E4.27456
G1 X120.816 Y100.419 E4.29135
G1 X121.178 Y100.493 E4.30364
G1 X121.667 Y100.606 E4.32033
G1 X122.01 Y100.694 E4.33211
G1 X122.485 Y100.828 E4.34852
G1 X122.848 Y100.941 E4.36117
G1 X123.303 Y101.095 E4.37715
G1 X123.641 Y101.218 E4.38911
G1 X124.106 Y101.401 E4.40573
G1 X124.448 Y101.545 E4.41807
G1 X124.881 Y101.741 E4.43388
G1 X125.192 Y101.891 E4.44536
G1 X125.631 Y102.115 E4.46176
G1 X125.969 Y102.299 E4.47456
G1 X126.388 Y102.541 E4.49065
G1 X126.675 Y102.716 E4.50183
G1 X127.072 Y102.97 E4.51751
G1 X127.368 Y103.169 E4.52937
G1 X127.761 Y103.448 E4.5454
G1 X128.052 Y103.665 E4.55747
G1 X128.436 Y103.967 E4.57372
G1 X128.696 Y104.182 E4.58494
G1 X129.054 Y104.491 E4.60067
G1 X129.326 Y104.738 E4.61289
G1 X129.672 Y105.068 E4.62879
G1 X129.932 Y105.328 E4.64102
G1 X130.269 Y105.683 E4.6573
G1 X130.489 Y105.926 E4.66821
G1 X130.799 Y106.283 E4.68393
G1 X131.019 Y106.548 E4.69539
G1 X131.316 Y106.924 E4.71132
G1 X131.543 Y107.227 E4.72392
G1 X131.827 Y107.627 E4.74023
G1 X132.012 Y107.901 E4.75123
G1 X132.268 Y108.298 E4.76694
G1 X132.466 Y108.623 E4.7796
G1 X132.706 Y109.041 E4.79563
G1 X132.871 Y109.345 E4.80713
G1 X133.097 Y109.785 E4.82359
G1 X133.262 Y110.126 E4.83619
G1 X133.458 Y110.561 E4.85206
G1 X133.591 Y110.876 E4.86343
G1 X133.774 Y111.338 E4.87996
G1 X133.905 Y111.695 E4.8926
G1 X134.059 Y112.151 E4.90861
G1 X134.166 Y112.496 E4.92063
G1 X134.301 Y112.971 E4.93705
G1 X134.388 Y113.308 E4.94863
G1 X134.501 Y113.791 E4.96512
G1 X134.582 Y114.183 E4.97844
G1 X134.671 Y114.684 E4.99536
G1 X134.725 Y115.036 E5.00721
G1 X134.788 Y115.527 E5.02367
G1 X134.826 Y115.903 E5.03624
G1 X134.865 Y116.411 E5.05319
G1 X134.885 Y116.79 E5.06581
G1 X134.898 Y117.305 E5.08294
G1 X134.898 Y117.675 E5.09525
G1 X134.885 Y118.2 E5.11272
G1 X134.866 Y118.58 E5.12537
G1 X134.828 Y119.078 E5.14198
G1 X134.791 Y119.44 E5.15409
G1 X134.728 Y119.94 E5.17085
G1 X134.671 Y120.315 E5.18346
G1 X134.583 Y120.808 E5.20012
G1 X134.508 Y121.175 E5.21258
G1 X134.394 Y121.668 E5.22941
G1 X134.307 Y122.008 E5.24108
G1 X134.176 Y122.473 E5.25715
G1 X134.064 Y122.833 E5.26969
G1 X133.907 Y123.298 E5.28601
G1 X133.783 Y123.637 E5.29802
G1 X133.605 Y124.09 E5.31421
G1 X133.462 Y124.43 E5.32648
G1 X133.261 Y124.875 E5.34272
G1 X133.111 Y125.187 E5.35423
G1 X132.892 Y125.617 E5.37028
G1 X132.71 Y125.953 E5.38299
G1 X132.468 Y126.373 E5.39911
G1 X132.29 Y126.666 E5.41051
G1 X132.031 Y127.071 E5.4265
G1 X131.831 Y127.368 E5.43841
G1 X131.552 Y127.761 E5.45444
G1 X131.338 Y128.047 E5.46632
G1 X131.042 Y128.424 E5.48227
G1 X130.824 Y128.689 E5.49368
G1 X130.509 Y129.054 E5.50971
G1 X130.262 Y129.326 E5.52193
G1 X129.932 Y129.672 E5.53784
G1 X129.672 Y129.932 E5.55007
G1 X129.317 Y130.269 E5.56635
G1 X129.074 Y130.489 E5.57725
G1 X128.717 Y130.799 E5.59298
G1 X128.452 Y131.019 E5.60443
G1 X128.076 Y131.316 E5.62037
G1 X127.773 Y131.543 E5.63296
G1 X127.373 Y131.827 E5.64928
G1 X127.099 Y132.012 E5.66027
G1 X126.702 Y132.268 E5.67598
G1 X126.377 Y132.466 E5.68864
G1 X125.959 Y132.706 E5.70467
G1 X125.655 Y132.871 E5.71618
G1 X125.215 Y133.097 E5.73263
G1 X124.874 Y133.262 E5.74523
G1 X124.439 Y133.458 E5.7611
G1 X124.119 Y133.593 E5.77265
G1 X123.656 Y133.776 E5.78921
G1 X123.308 Y133.903 E5.80153
G1 X122.853 Y134.057 E5.81751
G1 X122.5 Y134.167 E5.8298
G1 X122.024 Y134.302 E5.84626
G1 X121.692 Y134.388 E5.85767
G1 X121.205 Y134.502 E5.8743
G1 X120.806 Y134.584 E5.88785
G1 X120.308 Y134.672 E5.90467
G1 X119.954 Y134.726 E5.91658
G1 X119.459 Y134.789 E5.93318
G1 X119.097 Y134.826 E5.94528
G1 X118.594 Y134.865 E5.96206
G1 X118.207 Y134.885 E5.97495
G1 X117.688 Y134.898 E5.99222
G1 X117.318 Y134.898 E6.00452
G1 X116.798 Y134.885 E6.02182
G1 X116.411 Y134.865 E6.03471
G1 X115.908 Y134.826 E6.05149
G1 X115.56 Y134.791 E6.06313
G1 X115.065 Y134.729 E6.07972
G1 X114.681 Y134.67 E6.09264
G1 X114.184 Y134.581 E6.10943
G1 X113.822 Y134.507 E6.12172
G1 X113.333 Y134.394 E6.13841
G1 X112.99 Y134.306 E6.15019
G1 X112.515 Y134.172 E6.16661
G1 X112.152 Y134.059 E6.17925
G1 X111.697 Y133.905 E6.19523
G1 X111.359 Y133.782 E6.20719
G1 X110.894 Y133.599 E6.22381
G1 X110.552 Y133.455 E6.23616
G1 X110.119 Y133.259 E6.25196
G1 X109.808 Y133.109 E6.26345
G1 X109.367 Y132.884 E6.27991
G1 X109.027 Y132.699 E6.29279
G1 X108.61 Y132.458 E6.30881
G1 X108.325 Y132.284 E6.31991
G1 X107.928 Y132.03 E6.33559
G1 X107.629 Y131.829 E6.34757
G1 X107.228 Y131.544 E6.36393
G1 X106.936 Y131.325 E6.37607
G1 X106.559 Y131.028 E6.39204
G1 X106.304 Y130.818 E6.40302
G1 X105.947 Y130.51 E6.41871
G1 X105.671 Y130.259 E6.43112
G1 X105.317 Y129.921 E6.44739
G1 X105.065 Y129.669 E6.45925
G1 X104.735 Y129.322 E6.47517
G1 X104.508 Y129.072 E6.48641
G1 X104.193 Y128.709 E6.50239
G1 X103.965 Y128.433 E6.5143
G1 X103.667 Y128.054 E6.53033
G1 X103.446 Y127.758 E6.54262
G1 X103.169 Y127.367 E6.55856
G1 X102.985 Y127.094 E6.56951
G1 X102.723 Y126.687 E6.58561
G1 X102.538 Y126.385 E6.59739
G1 X102.297 Y125.968 E6.61341
G1 X102.104 Y125.611 E6.6269
G1 X101.885 Y125.179 E6.64301
G1 X101.738 Y124.872 E6.65433
G1 X101.538 Y124.428 E6.67053
G1 X101.403 Y124.108 E6.68208
G1 X101.224 Y123.655 E6.69828
G1 X101.096 Y123.308 E6.71058
G1 X100.939 Y122.844 E6.72688
G1 X100.829 Y122.489 E6.73924
G1 X100.697 Y122.023 E6.75535
G1 X100.61 Y121.687 E6.76689
G1 X100.495 Y121.194 E6.78373
G1 X100.415 Y120.802 E6.79703
G1 X100.328 Y120.31 E6.81365
G1 X100.275 Y119.959 E6.82546
G1 X100.211 Y119.458 E6.84226
G1 X100.172 Y119.083 E6.8548
G1 X100.134 Y118.585 E6.87141
G1 X100.115 Y118.209 E6.88393
G1 X100.102 Y117.695 E6.90103
G1 X100.102 Y117.325 E6.91334
G1 X100.115 Y116.8 E6.9308
G1 X100.134 Y116.42 E6.94346
G1 X100.172 Y115.922 E6.96007
G1 X100.209 Y115.56 E6.97217
G1 X100.272 Y115.06 E6.98894
G1 X100.329 Y114.685 E7.00155
G1 X100.417 Y114.192 E7.01821
G1 X100.492 Y113.825 E7.03067
G1 X100.606 Y113.332 E7.0475
G1 X100.693 Y112.992 E7.05917
G1 X100.824 Y112.527 E7.07524
G1 X100.936 Y112.167 E7.08778
G1 X101.093 Y111.702 E7.1041
G1 X101.217 Y111.363 E7.11611
G1 X101.395 Y110.91 E7.13229
G1 X101.538 Y110.57 E7.14456
G1 X101.739 Y110.125 E7.1608
G1 X101.889 Y109.813 E7.17232
G1 X102.108 Y109.383 E7.18837
G1 X102.29 Y109.047 E7.20108
G1 X102.532 Y108.627 E7.2172
G1 X102.71 Y108.334 E7.2286
G1 X102.969 Y107.929 E7.24459
G1 X103.169 Y107.632 E7.2565
G1 X103.448 Y107.239 E7.27253
G1 X103.665 Y106.948 E7.2846
