;FLAVOR:Marlin
;TIME:1143
;Filament used: 0.464159m
;Layer height: 0.2
;MINX:99.463
;MINY:103.995
;MINZ:0.2
;MAXX:135.537
;MAXY:131.005
;MAXZ:20
;Generated with Cura_SteamEngine 4.5.0
M140 S50
M105
M190 S50
M104 S200
M105
M109 S200
M82 ;absolute extrusion mode
; Ender 3 Custom Start G-code
G92 E0 ; Reset Extruder
G28 ; Home all axes
G1 Z2.0 F3000 ; Move Z Axis up little to prevent scratching of Heat Bed
G1 X0.1 Y20 Z0.3 F5000.0 ; Move to start position
G1 X0.1 Y200.0 Z0.3 F1500.0 E15 ; Draw the first line
G1 X0.4 Y200.0 Z0.3 F5000.0 ; Move to side a little
G1 X0.4 Y20 Z0.3 F1500.0 E30 ; Draw the second line
G92 E0 ; Reset Extruder
G1 Z2.0 F3000 ; Move Z Axis up little to prevent scratching of Heat Bed
G1 X5 Y20 Z0.3 F5000.0 ; Move over to prevent blob squish
G92 E0
G92 E0
G1 F2700 E-5
;LAYER_COUNT:100
;LAYER:0
M107
G0 F6000 X102.821 Y107.232 Z0.2
;TYPE:SKIRT
G1 F2700 E0
G1 F1200 X103.512 Y106.598 E0.03119
G1 X104.254 Y106.024 E0.06239
G1 X105.043 Y105.517 E0.09359
G1 X105.871 Y105.078 E0.12476
G1 X106.735 Y104.711 E0.15598
G1 X107.626 Y104.419 E0.18716
G1 X108.539 Y104.205 E0.21835
G1 X109.467 Y104.068 E0.24955
G1 X110.402 Y104.012 E0.28071
G1 X111.15 Y104 E0.30559
G1 X119.704 Y103.995 E0.5901
G1 X123.727 Y104 E0.7239
G1 X124.569 Y104.011 E0.75191
G1 X125.505 Y104.065 E0.78309
G1 X126.433 Y104.197 E0.81427
G1 X127.347 Y104.409 E0.84548
G1 X128.239 Y104.698 E0.87666
G1 X129.104 Y105.061 E0.90786
G1 X129.934 Y105.497 E0.93905
G1 X130.725 Y106.002 E0.97026
G1 X131.469 Y106.573 E1.00145
G1 X132.052 Y107.097 E1.02752
G1 X132.168 Y107.209 E1.03289
G1 X132.814 Y107.888 E1.06406
G1 X133.4 Y108.62 E1.09525
G1 X133.922 Y109.4 E1.12646
G1 X134.375 Y110.221 E1.15765
G1 X134.757 Y111.078 E1.18886
G1 X135.064 Y111.964 E1.22004
G1 X135.295 Y112.873 E1.25124
G1 X135.447 Y113.798 E1.28242
G1 X135.525 Y114.915 E1.31966
G1 X135.537 Y115.657 E1.34434
G1 X135.535 Y119.339 E1.4668
G1 X135.526 Y119.999 E1.48876
G1 X135.473 Y120.935 E1.51994
G1 X135.341 Y121.864 E1.55115
G1 X135.13 Y122.778 E1.58235
G1 X134.842 Y123.67 E1.61352
G1 X134.479 Y124.535 E1.64472
G1 X134.044 Y125.366 E1.67592
G1 X133.539 Y126.156 E1.70711
G1 X132.729 Y127.179 E1.75051
G1 X132.603 Y127.32 E1.7568
G1 X131.949 Y127.992 E1.78798
G1 X131.24 Y128.606 E1.81918
G1 X130.481 Y129.157 E1.85037
G1 X129.678 Y129.641 E1.88156
G1 X128.837 Y130.056 E1.91275
G1 X127.963 Y130.397 E1.94395
G1 X127.064 Y130.663 E1.97514
G1 X126.145 Y130.851 E2.00634
G1 X125.214 Y130.96 E2.03751
G1 X124.598 Y130.988 E2.05802
G1 X123.85 Y131 E2.0829
G1 X115.296 Y131.005 E2.36741
G1 X111.129 Y130.999 E2.50601
G1 X110.431 Y130.989 E2.52922
G1 X109.495 Y130.935 E2.56041
G1 X108.567 Y130.803 E2.59158
G1 X107.653 Y130.591 E2.62279
G1 X106.761 Y130.302 E2.65398
G1 X105.896 Y129.939 E2.68518
G1 X105.066 Y129.503 E2.71636
G1 X104.275 Y128.998 E2.74757
G1 X103.531 Y128.427 E2.77877
G1 X102.984 Y127.938 E2.80317
G1 X102.868 Y127.827 E2.80851
G1 X102.219 Y127.15 E2.8397
G1 X101.629 Y126.42 E2.87092
G1 X101.104 Y125.643 E2.90211
G1 X100.647 Y124.824 E2.9333
G1 X100.262 Y123.969 E2.96449
G1 X99.95 Y123.085 E2.99567
G1 X99.716 Y122.177 E3.02686
G1 X99.559 Y121.252 E3.05806
G1 X99.475 Y120.062 E3.09774
G1 X99.463 Y119.275 E3.12392
G1 X99.465 Y115.602 E3.24608
G1 X99.475 Y114.963 E3.26734
G1 X99.53 Y114.027 E3.29853
G1 X99.664 Y113.098 E3.32974
G1 X99.877 Y112.185 E3.36093
G1 X100.167 Y111.293 E3.39212
G1 X100.532 Y110.429 E3.42332
G1 X100.969 Y109.599 E3.45452
G1 X101.475 Y108.81 E3.48569
G1 X102.046 Y108.066 E3.51689
G1 X102.696 Y107.357 E3.54888
G1 X102.821 Y107.232 E3.55476
G0 F6000 X103.104 Y107.515
G1 F1200 X103.782 Y106.893 E3.58536
G1 X104.512 Y106.332 E3.61598
G1 X105.288 Y105.836 E3.64661
G1 X106.104 Y105.41 E3.67723
G1 X106.954 Y105.056 E3.70785
G1 X107.832 Y104.778 E3.73848
G1 X108.73 Y104.576 E3.7691
G1 X109.643 Y104.453 E3.79974
G1 X110.409 Y104.412 E3.82525
G1 X111.15 Y104.4 E3.8499
G1 X119.704 Y104.395 E4.13441
G1 X123.726 Y104.4 E4.26818
G1 X124.563 Y104.411 E4.29602
G1 X125.482 Y104.464 E4.32664
G1 X126.393 Y104.597 E4.35726
G1 X127.289 Y104.808 E4.38788
G1 X128.163 Y105.096 E4.41848
G1 X129.01 Y105.459 E4.44913
G1 X129.821 Y105.894 E4.47974
G1 X130.591 Y106.398 E4.51035
G1 X131.315 Y106.967 E4.54098
G1 X131.89 Y107.496 E4.56697
G1 X132.524 Y108.164 E4.5976
G1 X133.097 Y108.884 E4.6282
G1 X133.606 Y109.651 E4.65882
G1 X134.047 Y110.46 E4.68946
G1 X134.415 Y111.303 E4.72006
G1 X134.709 Y112.176 E4.7507
G1 X134.927 Y113.07 E4.7813
G1 X135.065 Y113.981 E4.81195
G1 X135.125 Y114.923 E4.84334
G1 X135.137 Y115.657 E4.86776
G1 X135.135 Y119.334 E4.99006
G1 X135.126 Y119.994 E5.01201
G1 X135.073 Y120.913 E5.04263
G1 X134.941 Y121.824 E5.07324
G1 X134.731 Y122.72 E5.10385
G1 X134.443 Y123.595 E5.13449
G1 X134.081 Y124.441 E5.1651
G1 X133.646 Y125.253 E5.19573
G1 X133.143 Y126.024 E5.22635
G1 X132.431 Y126.912 E5.26421
G1 X132.305 Y127.053 E5.2705
G1 X131.662 Y127.712 E5.30112
G1 X130.965 Y128.313 E5.33173
G1 X130.218 Y128.851 E5.36235
G1 X129.427 Y129.323 E5.39299
G1 X128.598 Y129.724 E5.42362
G1 X127.738 Y130.051 E5.45422
G1 X126.852 Y130.303 E5.48486
G1 X125.948 Y130.477 E5.51547
G1 X124.591 Y130.588 E5.56076
G1 X123.85 Y130.6 E5.58541
G1 X115.296 Y130.605 E5.86992
G1 X111.135 Y130.599 E6.00831
G1 X110.437 Y130.589 E6.03153
G1 X109.518 Y130.536 E6.06215
G1 X108.607 Y130.403 E6.09277
G1 X107.711 Y130.192 E6.12338
G1 X106.837 Y129.904 E6.15399
G1 X105.99 Y129.541 E6.18464
G1 X105.179 Y129.106 E6.21525
G1 X104.409 Y128.602 E6.24586
G1 X103.685 Y128.033 E6.27648
G1 X103.145 Y127.538 E6.30085
G1 X102.508 Y126.873 E6.33148
G1 X101.931 Y126.155 E6.36211
G1 X101.418 Y125.39 E6.39275
G1 X100.974 Y124.584 E6.42335
G1 X100.602 Y123.742 E6.45397
G1 X100.304 Y122.871 E6.48459
G1 X100.083 Y121.977 E6.51522
G1 X99.94 Y121.068 E6.54582
G1 X99.874 Y120.055 E6.57959
G1 X99.863 Y119.275 E6.60553
G1 X99.865 Y115.608 E6.7275
G1 X99.875 Y114.969 E6.74875
G1 X99.93 Y114.05 E6.77938
G1 X100.064 Y113.139 E6.81
G1 X100.276 Y112.243 E6.84063
G1 X100.565 Y111.369 E6.87124
G1 X100.93 Y110.524 E6.90186
G1 X101.366 Y109.713 E6.93248
G1 X101.87 Y108.943 E6.96309
G1 X102.44 Y108.22 E6.99371
G1 X102.979 Y107.64 E7.02005
G1 X103.104 Y107.515 E7.02593
G0 F6000 X103.387 Y107.798
G1 F1200 X104.053 Y107.188 E7.05597
G1 X104.77 Y106.639 E7.086
G1 X105.534 Y106.157 E7.11605
G1 X106.337 Y105.743 E7.14609
G1 X107.173 Y105.403 E7.17611
G1 X108.036 Y105.137 E7.20615
G1 X108.919 Y104.949 E7.23617
G1 X109.816 Y104.84 E7.26623
G1 X110.416 Y104.812 E7.28621
G1 X111.15 Y104.8 E7.31062
G1 X119.704 Y104.795 E7.59513
G1 X123.726 Y104.8 E7.7289
G1 X124.557 Y104.811 E7.75654
G1 X125.459 Y104.864 E7.7866
G1 X126.352 Y104.996 E7.81662
G1 X127.23 Y105.207 E7.84665
G1 X128.086 Y105.495 E7.87669
G1 X128.913 Y105.857 E7.90672
G1 X129.705 Y106.292 E7.93677
G1 X130.456 Y106.794 E7.96682
G1 X131.159 Y107.361 E7.99686
G1 X131.612 Y107.784 E8.01747
G1 X132.233 Y108.44 E8.04752
G1 X132.794 Y109.147 E8.07753
G1 X133.29 Y109.902 E8.10758
G1 X133.717 Y110.698 E8.13762
G1 X134.073 Y111.528 E8.16766
G1 X134.353 Y112.386 E8.19768
G1 X134.557 Y113.266 E8.22772
G1 X134.682 Y114.161 E8.25778
G1 X134.725 Y114.93 E8.2834
G1 X134.737 Y115.657 E8.30758
G1 X134.735 Y119.328 E8.42968
G1 X134.726 Y119.988 E8.45163
G1 X134.674 Y120.89 E8.48168
G1 X134.542 Y121.783 E8.51171
G1 X134.332 Y122.661 E8.54173
G1 X134.044 Y123.518 E8.5718
G1 X133.683 Y124.345 E8.60182
G1 X133.249 Y125.137 E8.63185
G1 X132.747 Y125.888 E8.6619
G1 X132.133 Y126.646 E8.69434
G1 X132.007 Y126.787 E8.70063
G1 X131.376 Y127.433 E8.73067
G1 X130.69 Y128.02 E8.7607
G1 X129.955 Y128.545 E8.79074
G1 X129.177 Y129.003 E8.82077
G1 X128.361 Y129.39 E8.85081
G1 X127.514 Y129.703 E8.88084
G1 X126.642 Y129.941 E8.9109
G1 X125.753 Y130.1 E8.94094
G1 X124.584 Y130.188 E8.97993
G1 X123.85 Y130.2 E9.00435
G1 X115.296 Y130.205 E9.28885
G1 X111.141 Y130.199 E9.42705
G1 X110.443 Y130.189 E9.45027
G1 X109.541 Y130.136 E9.48032
G1 X108.648 Y130.004 E9.51034
G1 X107.77 Y129.793 E9.54038
G1 X106.914 Y129.505 E9.57042
G1 X106.087 Y129.143 E9.60044
G1 X105.295 Y128.708 E9.6305
G1 X104.544 Y128.206 E9.66054
G1 X103.537 Y127.36 E9.70429
G1 X103.421 Y127.249 E9.70963
G1 X102.797 Y126.596 E9.73967
G1 X102.233 Y125.891 E9.7697
G1 X101.733 Y125.138 E9.79976
G1 X101.302 Y124.345 E9.82978
G1 X100.943 Y123.516 E9.85982
G1 X100.659 Y122.659 E9.88985
G1 X100.452 Y121.78 E9.91989
G1 X100.323 Y120.886 E9.94993
G1 X100.274 Y120.049 E9.97782
G1 X100.263 Y119.275 E10.00356
G1 X100.265 Y115.614 E10.12533
G1 X100.275 Y114.975 E10.14658
G1 X100.329 Y114.074 E10.17661
G1 X100.463 Y113.181 E10.20664
G1 X100.675 Y112.303 E10.23668
G1 X100.964 Y111.447 E10.26673
G1 X101.327 Y110.621 E10.29674
G1 X101.763 Y109.829 E10.32681
G1 X102.266 Y109.079 E10.35684
G1 X102.834 Y108.377 E10.38688
G1 X103.262 Y107.923 E10.40763
G1 X103.387 Y107.798 E10.41351
G0 F6000 X110.664 Y115.212
G1 F1200 X112.061 Y115.2 E10.45998
G1 X112.06 Y119.8 E10.61297
G1 X110.663 Y119.8 E10.65944
G1 X110.664 Y115.212 E10.81204
G0 F6000 X111.064 Y115.6
G1 F1200 X111.661 Y115.6 E10.83189
G1 X111.66 Y119.4 E10.95828
G1 X111.063 Y119.4 E10.97814
G1 X111.064 Y115.6 E11.10453
G1 F2700 E6.10453
G0 F6000 X111.608 Y114.347
G0 X123.393 Y114.347
G0 X123.405 Y115.2
G0 X122.94 Y115.2
G1 F2700 E11.10453
G1 F1200 X124.337 Y115.2 E11.15099
G1 X124.336 Y119.788 E11.30359
G1 X122.939 Y119.8 E11.35005
G1 X122.94 Y115.2 E11.50305
G0 F6000 X123.34 Y115.6
G1 F1200 X123.937 Y115.6 E11.52291
G1 X123.936 Y119.4 E11.64929
G1 X123.339 Y119.4 E11.66915
G1 X123.34 Y115.6 E11.79554
G0 F6000 X122.54 Y115.2
;TYPE:SUPPORT-INTERFACE
G1 F1200 X122.539 Y119.8 E11.94854
G1 X120.027 Y119.8 E12.03209
G1 X120.027 Y115.2 E12.18508
G1 X122.54 Y115.2 E12.26866
G1 F2700 E7.26866
G0 F6000 X122.54 Y114.335
G0 X115.834 Y115.391
G0 X114.973 Y115.2
G1 F2700 E12.26866
G1 F1200 X114.973 Y119.8 E12.42166
G1 X112.46 Y119.8 E12.50524
G1 X112.461 Y115.2 E12.65824
G1 X114.973 Y115.2 E12.74179
G0 F6000 X114.772 Y116.027
G1 F1200 X112.66 Y118.139 E12.84113
G0 F6000 X112.659 Y119.448
G1 F1200 X112.811 Y119.599 E12.84826
G0 F6000 X114.594 Y119.599
G1 F1200 X114.772 Y119.421 E12.85663
G0 F6000 X114.772 Y118.166
G1 F1200 X112.66 Y116.054 E12.95597
G1 F2700 E7.95597
G0 F6000 X111.595 Y116.054
G0 X115.756 Y116.48
G0 X115.834 Y115.391
G0 X115.867 Y115.329
G0 X115.921 Y116.497
G0 X119.162 Y116.832
G0 X120.226 Y116.832
G1 F2700 E12.95597
G1 F1200 X122.338 Y118.944 E13.05532
G0 F6000 X122.337 Y118.644
G1 F1200 X121.381 Y119.6 E13.10028
G0 F6000 X120.226 Y117.361
G1 F1200 X122.188 Y115.399 E13.19257
G1 X122.339 Y115.551 E13.1997
G1 F2700 E8.1997
;MESH:cylinder.1cmtolerance.stl
G0 F6000 X122.339 Y114.335
G0 X119.158 Y115.551
G0 X118.073 Y115.551
G0 X117.107 Y119.4
;TYPE:WALL-INNER
G1 F2700 E13.1997
G1 F1200 X117.107 Y115.6 E13.32608
G1 X117.893 Y115.6 E13.35223
G1 X117.893 Y119.4 E13.47861
G1 X117.107 Y119.4 E13.50476
G0 F6000 X116.707 Y119.8
;TYPE:WALL-OUTER
G1 F1200 X116.707 Y115.2 E13.65775
G1 X118.293 Y115.2 E13.7105
G1 X118.293 Y119.8 E13.8635
G1 X116.707 Y119.8 E13.91625
G0 F6000 X116.977 Y119.53
G0 X117.526 Y119.223
G0 X117.403 Y119.1
;TYPE:SKIN
G1 F1200 X117.499 Y118.913 E13.9246
G1 X117.499 Y116.085 E14.03687
G1 X117.594 Y115.897 E14.04523
G0 F6000 X117.472 Y115.8
G1 F2700 E9.04523
;MESH:NONMESH
G0 F300 X117.472 Y115.8 Z0.4
G0 F6000 X116.921 Y115.414
G0 X115.842 Y115.414
G0 X110.675 Y115.2
;TIME_ELAPSED:31.058027
;LAYER:1
M140 S50
M106 S85
;TYPE:SUPPORT
G1 F2700 E14.04523
G1 F811 X111.692 Y115.2 E14.07906
G1 X111.691 Y119.8 E14.23206
G1 X110.663 Y119.8 E14.26625
G1 X110.664 Y115.211 E14.41888
G1 X110.675 Y115.2 E14.4194
G0 F7500 X110.944 Y115.48
G1 F811 X111.412 Y115.48 E14.43496
G1 X111.411 Y119.52 E14.56933
G1 X110.943 Y119.52 E14.5849
G1 X110.944 Y115.48 E14.71927
G1 F2700 E9.71927
G0 F7500 X110.944 Y114.335
G0 X123.309 Y114.335
G0 X123.309 Y115.2
G1 F2700 E14.71927
G1 F811 X124.337 Y115.2 E14.75346
G1 X124.336 Y119.789 E14.90609
G1 X124.325 Y119.8 E14.90661
G1 X123.308 Y119.8 E14.94043
G1 X123.309 Y115.2 E15.09343
G0 F7500 X124 Y115.48
G1 F811 X123.589 Y115.48 E15.1071
G1 X123.588 Y119.52 E15.24147
G1 X124 Y119.52 E15.25518
G1 X124 Y115.48 E15.38955
G1 X124.057 Y115.48 E15.39144
G1 X124.056 Y119.52 E15.52581
G1 X124 Y119.52 E15.52768
G0 F7500 X123.107 Y119.713
;TYPE:SUPPORT-INTERFACE
G1 F811 X120.626 Y117.231 E15.6444
G0 F7500 X120.626 Y116.961
G1 F811 X122.587 Y115 E15.73664
G0 F7500 X121.788 Y115
G1 F811 X123.107 Y116.319 E15.79868
G0 F7500 X123.107 Y117.874
G1 F811 X120.981 Y120 E15.89868
G1 F2700 E10.89868
G0 F7500 X120.981 Y120.665
G0 X115.012 Y120.629
G0 X114.373 Y119.82
G1 F2700 E15.89868
G1 F811 X114.194 Y119.998 E15.90708
G0 F7500 X113.21 Y119.998
G1 F811 X111.891 Y118.679 E15.96912
G0 F7500 X111.891 Y118.907
G1 F811 X114.373 Y116.426 E16.08584
G0 F7500 X114.373 Y117.767
G1 F811 X111.891 Y115.285 E16.20259
G0 F7500 X111.891 Y115.513
G1 F811 X112.406 Y114.998 E16.22681
G1 F2700 E11.22681
;MESH:cylinder.1cmtolerance.stl
G0 F7500 X112.406 Y114.335
G0 X115.012 Y114.371
G0 X115.587 Y115.414
G0 X116.173 Y119
;TYPE:WALL-INNER
G1 F2700 E16.22681
G1 F811 X116.173 Y116 E16.32659
G1 X118.827 Y116 E16.41486
G1 X118.827 Y119 E16.51464
G1 X116.173 Y119 E16.60291
G0 F7500 X115.773 Y119.4
G1 F811 X115.773 Y115.6 E16.7293
G1 X119.227 Y115.6 E16.84418
G1 X119.227 Y119.4 E16.97057
G1 X115.773 Y119.4 E17.08545
G0 F7500 X115.373 Y119.8
;TYPE:WALL-OUTER
G1 F811 X115.373 Y115.2 E17.23845
G1 X119.627 Y115.2 E17.37994
G1 X119.627 Y119.8 E17.53293
G1 X115.373 Y119.8 E17.67442
G0 F7500 X115.643 Y119.53
G0 X116.283 Y118.61
G0 X116.563 Y118.61
;TYPE:SKIN
G1 F811 X116.563 Y116.39 E17.74826
G1 X118.437 Y116.39 E17.81059
G1 X118.437 Y118.61 E17.88443
G1 X116.563 Y118.61 E17.94676
G0 F7500 X116.283 Y118.61
G0 X116.355 Y118.818
G0 X118.645 Y118.818
G0 X118.717 Y118.18
G0 X118.276 Y118.18
G1 F811 X118.006 Y118.449 E17.95943
G0 F7500 X117.441 Y118.449
G1 F811 X118.276 Y117.614 E17.99871
G0 F7500 X118.276 Y117.048
G1 F811 X116.875 Y118.449 E18.06461
G0 F7500 X116.722 Y118.036
G1 F811 X118.209 Y116.549 E18.13455
G0 F7500 X117.644 Y116.549
G1 F811 X116.722 Y117.47 E18.1779
G0 F7500 X116.722 Y116.905
G1 F811 X117.078 Y116.549 E18.19464
G0 F7500 X117.078 Y115.81
G1 F2700 E13.19464
;MESH:NONMESH
G0 F300 X117.078 Y115.81 Z0.6
G0 F7500 X115.587 Y115.414
G0 X115.012 Y114.371
G0 X110.674 Y114.335
G0 X110.674 Y115.2
;TIME_ELAPSED:45.033700
;LAYER:2
M106 S170
;TYPE:SUPPORT
G1 F2700 E18.19464
G1 F893.9 X111.324 Y115.2 E18.21626
G1 X111.335 Y119.8 E18.36926
G1 X110.663 Y119.8 E18.39161
G1 X110.664 Y115.21 E18.54427
G1 X110.674 Y115.2 E18.54474
G0 F9000 X110.944 Y115.48
G1 F893.9 X111.044 Y115.48 E18.54807
G1 X111.055 Y119.52 E18.68244
G1 X110.943 Y119.52 E18.68617
G1 X110.944 Y115.48 E18.82054
G1 F2700 E13.82054
G0 F9000 X110.944 Y114.335
G0 X123.665 Y114.335
G0 X123.665 Y115.2
G1 F2700 E18.82054
G1 F893.9 X124.337 Y115.2 E18.84289
G1 X124.336 Y119.79 E18.99555
G1 X124.326 Y119.8 E18.99602
G1 X123.676 Y119.8 E19.01764
G1 X123.665 Y115.2 E19.17064
G0 F9000 X124 Y115.48
G1 F893.9 X123.945 Y115.48 E19.17247
G1 X123.956 Y119.52 E19.30684
G1 X124 Y119.52 E19.3083
G1 X124 Y115.48 E19.44267
G1 X124.057 Y115.48 E19.44457
G1 X124.056 Y119.52 E19.57894
G1 X124 Y119.52 E19.5808
G0 F9000 X123.394 Y120
;TYPE:SUPPORT-INTERFACE
G1 F893.9 X121.27 Y117.876 E19.68071
G0 F9000 X121.27 Y116.317
G1 F893.9 X122.588 Y114.999 E19.7427
G0 F9000 X121.788 Y115
G1 F893.9 X123.468 Y116.68 E19.82173
G0 F9000 X123.469 Y117.512
G1 F893.9 X121.27 Y119.711 E19.92516
G1 F2700 E14.92516
G0 F9000 X120.632 Y120.629
G0 X124.682 Y120.661
G0 X125.197 Y120.146
G0 X125.198 Y114.843
G0 X124.694 Y114.339
G0 X114.368 Y114.371
G0 X113.728 Y117.123
G1 F2700 E19.92516
G1 F893.9 X111.604 Y114.998 E20.02509
G0 F9000 X112.406 Y114.998
G1 F893.9 X111.526 Y115.879 E20.06651
G0 F9000 X111.53 Y118.318
G1 F893.9 X113.21 Y119.998 E20.14553
G0 F9000 X111.533 Y119.266
G1 F893.9 X113.728 Y117.07 E20.2488
G1 F2700 E15.2488
;MESH:cylinder.1cmtolerance.stl
G0 F9000 X114.949 Y117.07
G0 X115.529 Y119
;TYPE:WALL-INNER
G1 F2700 E20.2488
G1 F893.9 X115.529 Y116 E20.34858
G1 X119.471 Y116 E20.47969
G1 X119.471 Y119 E20.57947
