;FLAVOR:Marlin
;TIME:3084
;Filament used: 1.49058m
;Layer height: 0.12
;MINX:99.7
;MINY:99.7
;MINZ:0.12
;MAXX:135.3
;MAXY:135.3
;MAXZ:19.92
;Generated with Cura_SteamEngine 4.5.0
M140 S50
M105
M190 S50
M104 S200
M105
M109 S200
M82 ;absolute extrusion mode
; Ender 3 Custom Start G-code
G92 E0 ; Reset Extruder
G28 ; Home all axes
G1 Z2.0 F3000 ; Move Z Axis up little to prevent scratching of Heat Bed
G1 X0.1 Y20 Z0.3 F5000.0 ; Move to start position
G1 X0.1 Y200.0 Z0.3 F1500.0 E15 ; Draw the first line
G1 X0.4 Y200.0 Z0.3 F5000.0 ; Move to side a little
G1 X0.4 Y20 Z0.3 F1500.0 E30 ; Draw the second line
G92 E0 ; Reset Extruder
G1 Z2.0 F3000 ; Move Z Axis up little to prevent scratching of Heat Bed
G1 X5 Y20 Z0.3 F5000.0 ; Move over to prevent blob squish
G92 E0
G92 E0
G1 F2700 E-5
;LAYER_COUNT:166
;LAYER:0
M107
G0 F6000 X102.123 Y101.849 Z0.12
;TYPE:SKIRT
G1 F2700 E0
G1 F1200 X102.722 Y101.334 E0.01576
G1 X103.37 Y100.883 E0.03152
G1 X104.061 Y100.499 E0.0473
G1 X104.786 Y100.187 E0.06305
G1 X105.539 Y99.95 E0.0788
G1 X106.313 Y99.791 E0.09457
G1 X107.098 Y99.71 E0.11032
G1 X107.5 Y99.7 E0.11834
G1 X127.5 Y99.7 E0.51746
G1 X128.289 Y99.74 E0.53323
G1 X129.069 Y99.859 E0.54898
G1 X129.834 Y100.057 E0.56474
G1 X130.574 Y100.331 E0.58049
G1 X131.283 Y100.679 E0.59625
G1 X131.954 Y101.097 E0.61203
G1 X132.578 Y101.58 E0.62778
G1 X133.151 Y102.123 E0.64353
G1 X133.666 Y102.722 E0.65929
G1 X134.117 Y103.37 E0.67505
G1 X134.501 Y104.061 E0.69083
G1 X134.813 Y104.786 E0.70658
G1 X135.05 Y105.539 E0.72233
G1 X135.209 Y106.313 E0.7381
G1 X135.29 Y107.098 E0.75385
G1 X135.3 Y107.5 E0.76187
G1 X135.3 Y127.5 E1.16099
G1 X135.26 Y128.289 E1.17676
G1 X135.141 Y129.069 E1.19251
G1 X134.943 Y129.834 E1.20828
G1 X134.669 Y130.574 E1.22402
G1 X134.321 Y131.283 E1.23978
G1 X133.903 Y131.954 E1.25556
G1 X133.42 Y132.578 E1.27131
G1 X132.877 Y133.151 E1.28706
G1 X132.278 Y133.666 E1.30283
G1 X131.63 Y134.117 E1.31858
G1 X130.939 Y134.501 E1.33436
G1 X130.214 Y134.813 E1.35011
G1 X129.461 Y135.05 E1.36586
G1 X128.687 Y135.209 E1.38163
G1 X127.902 Y135.29 E1.39738
G1 X127.5 Y135.3 E1.4054
G1 X107.5 Y135.3 E1.80452
G1 X106.711 Y135.26 E1.82029
G1 X105.931 Y135.141 E1.83604
G1 X105.166 Y134.943 E1.85181
G1 X104.426 Y134.669 E1.86755
G1 X103.717 Y134.321 E1.88331
G1 X103.046 Y133.903 E1.89909
G1 X102.422 Y133.42 E1.91484
G1 X101.849 Y132.877 E1.93059
G1 X101.334 Y132.278 E1.94636
G1 X100.883 Y131.63 E1.96211
G1 X100.499 Y130.939 E1.97789
G1 X100.187 Y130.214 E1.99364
G1 X99.95 Y129.461 E2.00939
G1 X99.791 Y128.687 E2.02516
G1 X99.71 Y127.902 E2.04091
G1 X99.7 Y127.5 E2.04893
G1 X99.7 Y107.5 E2.44806
G1 X99.74 Y106.711 E2.46382
G1 X99.859 Y105.931 E2.47957
G1 X100.057 Y105.166 E2.49534
G1 X100.331 Y104.426 E2.51108
G1 X100.679 Y103.717 E2.52684
G1 X101.097 Y103.046 E2.54262
G1 X101.58 Y102.422 E2.55837
G1 X102.123 Y101.849 E2.57412
G0 F6000 X102.516 Y102.03
G1 F1200 X103.111 Y101.542 E2.58948
G1 X103.753 Y101.119 E2.60482
G1 X104.436 Y100.764 E2.62018
G1 X105.151 Y100.483 E2.63551
G1 X105.893 Y100.277 E2.65088
G1 X106.651 Y100.149 E2.66622
G1 X107.5 Y100.1 E2.68319
G1 X127.5 Y100.1 E3.08231
G1 X128.268 Y100.14 E3.09766
G1 X129.028 Y100.259 E3.11301
G1 X129.771 Y100.457 E3.12836
G1 X130.49 Y100.731 E3.14371
G1 X131.176 Y101.078 E3.15905
G1 X131.823 Y101.494 E3.1744
G1 X132.423 Y101.975 E3.18975
G1 X132.97 Y102.516 E3.2051
G1 X133.458 Y103.111 E3.22046
G1 X133.881 Y103.753 E3.2358
G1 X134.236 Y104.436 E3.25116
G1 X134.517 Y105.151 E3.2665
G1 X134.723 Y105.893 E3.28186
G1 X134.851 Y106.651 E3.2972
G1 X134.9 Y107.5 E3.31417
G1 X134.9 Y127.5 E3.7133
G1 X134.86 Y128.268 E3.72864
G1 X134.741 Y129.028 E3.74399
G1 X134.543 Y129.771 E3.75934
G1 X134.269 Y130.49 E3.77469
G1 X133.922 Y131.176 E3.79004
G1 X133.506 Y131.823 E3.80539
G1 X133.025 Y132.423 E3.82073
G1 X132.484 Y132.97 E3.83609
G1 X131.889 Y133.458 E3.85144
G1 X131.247 Y133.881 E3.86678
G1 X130.564 Y134.236 E3.88215
G1 X129.849 Y134.517 E3.89748
G1 X129.107 Y134.723 E3.91284
G1 X128.349 Y134.851 E3.92819
G1 X127.5 Y134.9 E3.94516
G1 X107.5 Y134.9 E4.34428
G1 X106.732 Y134.86 E4.35962
G1 X105.972 Y134.741 E4.37498
G1 X105.229 Y134.543 E4.39032
G1 X104.51 Y134.269 E4.40568
G1 X103.824 Y133.922 E4.42102
G1 X103.177 Y133.506 E4.43637
G1 X102.577 Y133.025 E4.45171
G1 X102.03 Y132.484 E4.46707
G1 X101.542 Y131.889 E4.48242
G1 X101.119 Y131.247 E4.49777
G1 X100.764 Y130.564 E4.51313
G1 X100.483 Y129.849 E4.52846
G1 X100.277 Y129.107 E4.54383
G1 X100.149 Y128.349 E4.55917
G1 X100.1 Y127.5 E4.57614
G1 X100.1 Y107.5 E4.97526
G1 X100.14 Y106.732 E4.99061
G1 X100.259 Y105.972 E5.00596
G1 X100.457 Y105.229 E5.0213
G1 X100.731 Y104.51 E5.03666
G1 X101.078 Y103.824 E5.052
G1 X101.494 Y103.177 E5.06735
G1 X101.975 Y102.577 E5.0827
G1 X102.516 Y102.03 E5.09805
G0 F6000 X102.908 Y102.216
G1 F1200 X103.498 Y101.757 E5.11297
G1 X104.134 Y101.362 E5.12791
G1 X104.808 Y101.038 E5.14283
G1 X105.513 Y100.788 E5.15776
G1 X106.241 Y100.614 E5.1727
G1 X106.983 Y100.519 E5.18762
G1 X107.5 Y100.5 E5.19795
G1 X127.5 Y100.5 E5.59707
G1 X128.247 Y100.54 E5.612
G1 X128.985 Y100.659 E5.62692
G1 X129.707 Y100.857 E5.64186
G1 X130.403 Y101.13 E5.65678
G1 X131.066 Y101.477 E5.67171
G1 X131.689 Y101.892 E5.68665
G1 X132.263 Y102.371 E5.70157
G1 X132.784 Y102.908 E5.7165
G1 X133.243 Y103.498 E5.73142
G1 X133.638 Y104.134 E5.74636
G1 X133.962 Y104.808 E5.76128
G1 X134.212 Y105.513 E5.77621
G1 X134.386 Y106.241 E5.79115
G1 X134.481 Y106.983 E5.80607
G1 X134.5 Y107.5 E5.8164
G1 X134.5 Y127.5 E6.21552
G1 X134.46 Y128.247 E6.23045
G1 X134.341 Y128.985 E6.24537
G1 X134.143 Y129.707 E6.26031
G1 X133.87 Y130.403 E6.27523
G1 X133.523 Y131.066 E6.29016
G1 X133.108 Y131.689 E6.3051
G1 X132.629 Y132.263 E6.32002
G1 X132.092 Y132.784 E6.33495
G1 X131.502 Y133.243 E6.34987
G1 X130.866 Y133.638 E6.36481
G1 X130.192 Y133.962 E6.37973
G1 X129.487 Y134.212 E6.39466
G1 X128.759 Y134.386 E6.4096
G1 X128.017 Y134.481 E6.42452
G1 X127.5 Y134.5 E6.43485
G1 X107.5 Y134.5 E6.83397
G1 X106.753 Y134.46 E6.8489
G1 X106.015 Y134.341 E6.86382
G1 X105.293 Y134.143 E6.87876
G1 X104.597 Y133.87 E6.89368
G1 X103.934 Y133.523 E6.90861
G1 X103.311 Y133.108 E6.92355
G1 X102.737 Y132.629 E6.93847
G1 X102.216 Y132.092 E6.9534
G1 X101.757 Y131.502 E6.96832
G1 X101.362 Y130.866 E6.98326
G1 X101.038 Y130.192 E6.99818
G1 X100.788 Y129.487 E7.01311
G1 X100.614 Y128.759 E7.02804
G1 X100.519 Y128.017 E7.04297
G1 X100.5 Y127.5 E7.0533
G1 X100.5 Y107.5 E7.45242
G1 X100.54 Y106.753 E7.46735
G1 X100.659 Y106.015 E7.48227
G1 X100.857 Y105.293 E7.49721
G1 X101.13 Y104.597 E7.51213
G1 X101.477 Y103.934 E7.52706
G1 X101.892 Y103.311 E7.542
G1 X102.371 Y102.737 E7.55692
G1 X102.908 Y102.216 E7.57185
G0 F6000 X102.765 Y102.902
G1 F1200 X103.299 Y102.409 E7.58635
G1 X103.884 Y101.979 E7.60084
G1 X104.513 Y101.615 E7.61534
G1 X105.178 Y101.322 E7.62984
G1 X105.871 Y101.104 E7.64434
G1 X106.583 Y100.964 E7.65882
G1 X107.5 Y100.9 E7.67717
G1 X127.5 Y100.9 E8.07629
G1 X128.225 Y100.94 E8.09078
G1 X128.942 Y101.059 E8.10528
G1 X129.641 Y101.257 E8.11978
G1 X130.314 Y101.53 E8.13427
G1 X130.953 Y101.875 E8.14877
G1 X131.55 Y102.289 E8.16326
G1 X132.098 Y102.765 E8.17775
G1 X132.591 Y103.299 E8.19225
G1 X133.021 Y103.884 E8.20674
G1 X133.385 Y104.513 E8.22125
G1 X133.678 Y105.178 E8.23575
G1 X133.896 Y105.871 E8.25024
G1 X134.036 Y106.583 E8.26473
G1 X134.1 Y107.5 E8.28307
G1 X134.1 Y127.5 E8.68219
G1 X134.06 Y128.225 E8.69668
G1 X133.941 Y128.942 E8.71119
G1 X133.743 Y129.641 E8.72568
G1 X133.47 Y130.314 E8.74018
G1 X133.125 Y130.953 E8.75467
G1 X132.711 Y131.55 E8.76917
G1 X132.235 Y132.098 E8.78365
G1 X131.701 Y132.591 E8.79816
G1 X131.116 Y133.021 E8.81265
G1 X130.487 Y133.385 E8.82715
G1 X129.822 Y133.678 E8.84165
G1 X129.129 Y133.896 E8.85615
G1 X128.417 Y134.036 E8.87063
G1 X127.5 Y134.1 E8.88897
G1 X107.5 Y134.1 E9.28809
G1 X106.775 Y134.06 E9.30258
G1 X106.058 Y133.941 E9.31709
G1 X105.359 Y133.743 E9.33159
G1 X104.686 Y133.47 E9.34608
G1 X104.047 Y133.125 E9.36057
G1 X103.45 Y132.711 E9.37507
G1 X102.902 Y132.235 E9.38956
G1 X102.409 Y131.701 E9.40406
G1 X101.979 Y131.116 E9.41855
G1 X101.615 Y130.487 E9.43305
G1 X101.322 Y129.822 E9.44755
G1 X101.104 Y129.129 E9.46205
G1 X100.964 Y128.417 E9.47653
G1 X100.9 Y127.5 E9.49488
G1 X100.9 Y107.5 E9.894
G1 X100.94 Y106.775 E9.90849
G1 X101.059 Y106.058 E9.92299
G1 X101.257 Y105.359 E9.93749
G1 X101.53 Y104.686 E9.95198
G1 X101.875 Y104.047 E9.96647
G1 X102.289 Y103.45 E9.98097
G1 X102.765 Y102.902 E9.99546
G0 F6000 X103.159 Y103.073
G1 F1200 X103.689 Y102.609 E10.00952
G1 X104.268 Y102.209 E10.02356
G1 X104.889 Y101.877 E10.03761
G1 X105.543 Y101.617 E10.05166
G1 X106.223 Y101.433 E10.06571
G1 X106.919 Y101.327 E10.07976
G1 X107.5 Y101.3 E10.09137
G1 X127.5 Y101.3 E10.49049
G1 X128.203 Y101.34 E10.50454
G1 X128.897 Y101.459 E10.5186
G1 X129.572 Y101.657 E10.53263
G1 X130.221 Y101.929 E10.54668
G1 X130.835 Y102.274 E10.56073
G1 X131.406 Y102.685 E10.57477
G1 X131.927 Y103.159 E10.58883
G1 X132.391 Y103.689 E10.60289
G1 X132.791 Y104.268 E10.61693
G1 X133.123 Y104.889 E10.63098
G1 X133.383 Y105.543 E10.64503
G1 X133.567 Y106.223 E10.65908
G1 X133.673 Y106.919 E10.67313
G1 X133.7 Y107.5 E10.68474
G1 X133.7 Y127.5 E11.08386
G1 X133.66 Y128.203 E11.09791
G1 X133.541 Y128.897 E11.11197
G1 X133.343 Y129.572 E11.126
G1 X133.071 Y130.221 E11.14005
G1 X132.726 Y130.835 E11.1541
G1 X132.315 Y131.406 E11.16814
G1 X131.841 Y131.927 E11.1822
G1 X131.311 Y132.391 E11.19626
G1 X130.732 Y132.791 E11.2103
G1 X130.111 Y133.123 E11.22435
G1 X129.457 Y133.383 E11.2384
G1 X128.777 Y133.567 E11.25245
G1 X128.081 Y133.673 E11.2665
G1 X127.5 Y133.7 E11.27811
G1 X107.5 Y133.7 E11.67723
G1 X106.797 Y133.66 E11.69128
G1 X106.103 Y133.541 E11.70534
G1 X105.428 Y133.343 E11.71937
G1 X104.779 Y133.071 E11.73342
G1 X104.165 Y132.726 E11.74747
G1 X103.594 Y132.315 E11.76151
G1 X103.073 Y131.841 E11.77557
G1 X102.609 Y131.311 E11.78963
G1 X102.209 Y130.732 E11.80367
G1 X101.877 Y130.111 E11.81772
G1 X101.617 Y129.457 E11.83177
G1 X101.433 Y128.777 E11.84582
G1 X101.327 Y128.081 E11.85987
G1 X101.3 Y127.5 E11.87148
G1 X101.3 Y107.5 E12.2706
G1 X101.34 Y106.797 E12.28465
G1 X101.459 Y106.103 E12.29871
G1 X101.657 Y105.428 E12.31274
G1 X101.929 Y104.779 E12.32679
G1 X102.274 Y104.165 E12.34084
G1 X102.685 Y103.594 E12.35488
G1 X103.159 Y103.073 E12.36894
G0 F6000 X103.553 Y103.251
G1 F1200 X104.078 Y102.817 E12.38253
G1 X104.65 Y102.448 E12.39612
G1 X105.262 Y102.149 E12.40971
G1 X105.904 Y101.924 E12.42328
G1 X106.569 Y101.775 E12.43688
G1 X107.5 Y101.7 E12.45552
G1 X127.5 Y101.7 E12.85464
G1 X128.18 Y101.74 E12.86824
G1 X128.85 Y101.859 E12.88182
G1 X129.502 Y102.056 E12.89541
G1 X130.126 Y102.328 E12.90899
G1 X130.714 Y102.672 E12.92259
G1 X131.258 Y103.082 E12.93618
G1 X131.749 Y103.553 E12.94976
G1 X132.183 Y104.078 E12.96335
G1 X132.552 Y104.65 E12.97694
G1 X132.851 Y105.262 E12.99053
G1 X133.076 Y105.904 E13.00411
G1 X133.225 Y106.569 E13.01771
G1 X133.3 Y107.5 E13.03635
G1 X133.3 Y127.5 E13.43547
G1 X133.26 Y128.18 E13.44906
G1 X133.141 Y128.85 E13.46264
G1 X132.944 Y129.502 E13.47623
G1 X132.672 Y130.126 E13.48982
G1 X132.328 Y130.714 E13.50341
G1 X131.918 Y131.258 E13.51701
G1 X131.447 Y131.749 E13.53058
G1 X130.922 Y132.183 E13.54418
G1 X130.35 Y132.552 E13.55776
G1 X129.738 Y132.851 E13.57135
G1 X129.096 Y133.076 E13.58493
G1 X128.431 Y133.225 E13.59853
G1 X127.5 Y133.3 E13.61717
G1 X107.5 Y133.3 E14.01629
G1 X106.82 Y133.26 E14.02988
G1 X106.15 Y133.141 E14.04346
G1 X105.498 Y132.944 E14.05706
G1 X104.874 Y132.672 E14.07064
G1 X104.286 Y132.328 E14.08424
G1 X103.742 Y131.918 E14.09783
G1 X103.251 Y131.447 E14.11141
G1 X102.817 Y130.922 E14.125
G1 X102.448 Y130.35 E14.13859
G1 X102.149 Y129.738 E14.15218
G1 X101.924 Y129.096 E14.16575
G1 X101.775 Y128.431 E14.17935
G1 X101.7 Y127.5 E14.19799
G1 X101.7 Y107.5 E14.59711
G1 X101.74 Y106.82 E14.61071
G1 X101.859 Y106.15 E14.62429
G1 X102.056 Y105.498 E14.63788
G1 X102.328 Y104.874 E14.65146
G1 X102.672 Y104.286 E14.66506
G1 X103.082 Y103.742 E14.67865
G1 X103.553 Y103.251 E14.69223
G0 F6000 X103.945 Y103.435
G1 F1200 X104.465 Y103.034 E14.70534
G1 X105.029 Y102.698 E14.71844
G1 X105.631 Y102.434 E14.73155
G1 X106.26 Y102.244 E14.74467
G1 X106.907 Y102.133 E14.75777
G1 X107.5 Y102.1 E14.76962
G1 X127.5 Y102.1 E15.16874
G1 X128.156 Y102.14 E15.18186
G1 X128.802 Y102.259 E15.19497
G1 X129.429 Y102.456 E15.20808
G1 X130.027 Y102.728 E15.22119
G1 X130.588 Y103.07 E15.2343
G1 X131.103 Y103.478 E15.24741
G1 X131.565 Y103.945 E15.26052
G1 X131.966 Y104.465 E15.27363
G1 X132.302 Y105.029 E15.28673
G1 X132.566 Y105.631 E15.29985
G1 X132.756 Y106.26 E15.31296
G1 X132.867 Y106.907 E15.32606
G1 X132.9 Y107.5 E15.33791
G1 X132.9 Y127.5 E15.73703
G1 X132.86 Y128.156 E15.75015
G1 X132.741 Y128.802 E15.76326
G1 X132.544 Y129.429 E15.77637
G1 X132.272 Y130.027 E15.78948
G1 X131.93 Y130.588 E15.8026
G1 X131.522 Y131.103 E15.81571
G1 X131.055 Y131.565 E15.82882
G1 X130.535 Y131.966 E15.84192
G1 X129.971 Y132.302 E15.85502
G1 X129.369 Y132.566 E15.86814
G1 X128.74 Y132.756 E15.88125
G1 X128.093 Y132.867 E15.89435
G1 X127.5 Y132.9 E15.90621
G1 X107.5 Y132.9 E16.30533
G1 X106.844 Y132.86 E16.31844
G1 X106.198 Y132.741 E16.33155
G1 X105.571 Y132.544 E16.34467
G1 X104.973 Y132.272 E16.35778
G1 X104.412 Y131.93 E16.37089
G1 X103.897 Y131.522 E16.384
G1 X103.435 Y131.055 E16.39711
G1 X103.034 Y130.535 E16.41021
G1 X102.698 Y129.971 E16.42332
G1 X102.434 Y129.369 E16.43643
G1 X102.244 Y128.74 E16.44955
G1 X102.133 Y128.093 E16.46265
G1 X102.1 Y127.5 E16.4745
G1 X102.1 Y107.5 E16.87362
G1 X102.14 Y106.844 E16.88674
G1 X102.259 Y106.198 E16.89984
G1 X102.456 Y105.571 E16.91296
G1 X102.728 Y104.973 E16.92607
G1 X103.07 Y104.412 E16.93918
G1 X103.478 Y103.897 E16.95229
G1 X103.945 Y103.435 E16.9654
G0 F6000 X103.873 Y104.059
G1 F1200 X104.336 Y103.629 E16.97801
G1 X104.85 Y103.26 E16.99064
G1 X105.406 Y102.96 E17.00325
G1 X105.995 Y102.732 E17.01585
G1 X106.609 Y102.58 E17.02847
G1 X107.5 Y102.5 E17.04633
G1 X127.5 Y102.5 E17.44545
G1 X128.131 Y102.54 E17.45807
G1 X128.752 Y102.659 E17.47068
G1 X129.352 Y102.856 E17.48329
G1 X129.924 Y103.127 E17.49592
G1 X130.456 Y103.467 E17.50852
G1 X130.941 Y103.873 E17.52114
G1 X131.371 Y104.336 E17.53375
G1 X131.74 Y104.85 E17.54638
G1 X132.04 Y105.406 E17.55898
G1 X132.268 Y105.995 E17.57159
G1 X132.42 Y106.609 E17.58421
G1 X132.5 Y107.5 E17.60206
G1 X132.5 Y127.5 E18.00118
G1 X132.46 Y128.131 E18.0138
G1 X132.341 Y128.752 E18.02642
G1 X132.144 Y129.352 E18.03902
G1 X131.873 Y129.924 E18.05165
G1 X131.533 Y130.456 E18.06425
G1 X131.127 Y130.941 E18.07688
G1 X130.664 Y131.371 E18.08949
G1 X130.15 Y131.74 E18.10211
G1 X129.594 Y132.04 E18.11472
G1 X129.005 Y132.268 E18.12732
G1 X128.391 Y132.42 E18.13995
G1 X127.5 Y132.5 E18.1578
G1 X107.5 Y132.5 E18.55692
G1 X106.869 Y132.46 E18.56954
G1 X106.248 Y132.341 E18.58216
G1 X105.648 Y132.144 E18.59476
G1 X105.076 Y131.873 E18.60739
G1 X104.544 Y131.533 E18.61999
G1 X104.059 Y131.127 E18.63261
G1 X103.629 Y130.664 E18.64522
G1 X103.26 Y130.15 E18.65785
G1 X102.96 Y129.594 E18.67046
G1 X102.732 Y129.005 E18.68306
G1 X102.58 Y128.391 E18.69568
G1 X102.5 Y127.5 E18.71354
G1 X102.5 Y107.5 E19.11266
G1 X102.54 Y106.869 E19.12528
G1 X102.659 Y106.248 E19.13789
G1 X102.856 Y105.648 E19.1505
G1 X103.127 Y105.076 E19.16313
G1 X103.467 Y104.544 E19.17573
G1 X103.873 Y104.059 E19.18835
G0 F6000 X104.267 Y104.228
G1 F1200 X104.725 Y103.831 E19.20045
G1 X105.232 Y103.498 E19.21255
G1 X105.778 Y103.234 E19.22465
G1 X106.354 Y103.045 E19.23675
G1 X106.95 Y102.933 E19.24885
G1 X107.5 Y102.9 E19.25985
G1 X127.5 Y102.9 E19.65897
G1 X128.105 Y102.94 E19.67107
G1 X128.699 Y103.059 E19.68316
G1 X129.273 Y103.255 E19.69526
G1 X129.816 Y103.526 E19.70737
G1 X130.319 Y103.865 E19.71948
G1 X130.772 Y104.267 E19.73157
G1 X131.169 Y104.725 E19.74366
G1 X131.502 Y105.232 E19.75577
G1 X131.766 Y105.778 E19.76787
G1 X131.955 Y106.354 E19.77997
G1 X132.067 Y106.95 E19.79207
G1 X132.1 Y107.5 E19.80306
G1 X132.1 Y127.5 E20.20219
G1 X132.06 Y128.105 E20.21429
