;FLAVOR:Marlin
;TIME:2000
;Filament used: 1.59566m
;Layer height: 0.16
;MINX:99.7
;MINY:99.7
;MINZ:0.2
;MAXX:135.3
;MAXY:135.3
;MAXZ:20
;Generated with Cura_SteamEngine 4.5.0
M140 S50
M105
M190 S50
M104 S200
M105
M109 S200
M82 ;absolute extrusion mode
; Ender 3 Custom Start G-code
G92 E0 ; Reset Extruder
G28 ; Home all axes
G1 Z2.0 F3000 ; Move Z Axis up little to prevent scratching of Heat Bed
G1 X0.1 Y20 Z0.3 F5000.0 ; Move to start position
G1 X0.1 Y200.0 Z0.3 F1500.0 E15 ; Draw the first line
G1 X0.4 Y200.0 Z0.3 F5000.0 ; Move to side a little
G1 X0.4 Y20 Z0.3 F1500.0 E30 ; Draw the second line
G92 E0 ; Reset Extruder
G1 Z2.0 F3000 ; Move Z Axis up little to prevent scratching of Heat Bed
G1 X5 Y20 Z0.3 F5000.0 ; Move over to prevent blob squish
G92 E0
G92 E0
G1 F2700 E-5
;LAYER_COUNT:101
;LAYER:0
M107
G0 F6000 X102.123 Y101.849 Z0.2
;TYPE:SKIRT
G1 F2700 E0
G1 F1200 X102.722 Y101.334 E0.02627
G1 X103.37 Y100.883 E0.05253
G1 X104.061 Y100.499 E0.07883
G1 X104.786 Y100.187 E0.10508
G1 X105.539 Y99.95 E0.13133
G1 X106.313 Y99.791 E0.15761
G1 X107.098 Y99.71 E0.18386
G1 X107.5 Y99.7 E0.19724
G1 X127.5 Y99.7 E0.86244
G1 X128.289 Y99.74 E0.88872
G1 X129.069 Y99.859 E0.91496
G1 X129.834 Y100.057 E0.94124
G1 X130.574 Y100.331 E0.96749
G1 X131.283 Y100.679 E0.99376
G1 X131.954 Y101.097 E1.02005
G1 X132.578 Y101.58 E1.04629
G1 X133.151 Y102.123 E1.07255
G1 X133.666 Y102.722 E1.09882
G1 X134.117 Y103.37 E1.12508
G1 X134.501 Y104.061 E1.15138
G1 X134.813 Y104.786 E1.17763
G1 X135.05 Y105.539 E1.20388
G1 X135.209 Y106.313 E1.23017
G1 X135.29 Y107.098 E1.25641
G1 X135.3 Y107.5 E1.26979
G1 X135.3 Y127.5 E1.93499
G1 X135.26 Y128.289 E1.96127
G1 X135.141 Y129.069 E1.98751
G1 X134.943 Y129.834 E2.01379
G1 X134.669 Y130.574 E2.04004
G1 X134.321 Y131.283 E2.06631
G1 X133.903 Y131.954 E2.0926
G1 X133.42 Y132.578 E2.11885
G1 X132.877 Y133.151 E2.1451
G1 X132.278 Y133.666 E2.17138
G1 X131.63 Y134.117 E2.19763
G1 X130.939 Y134.501 E2.22393
G1 X130.214 Y134.813 E2.25018
G1 X129.461 Y135.05 E2.27644
G1 X128.687 Y135.209 E2.30272
G1 X127.902 Y135.29 E2.32896
G1 X127.5 Y135.3 E2.34234
G1 X107.5 Y135.3 E3.00754
G1 X106.711 Y135.26 E3.03382
G1 X105.931 Y135.141 E3.06006
G1 X105.166 Y134.943 E3.08634
G1 X104.426 Y134.669 E3.11259
G1 X103.717 Y134.321 E3.13886
G1 X103.046 Y133.903 E3.16515
G1 X102.422 Y133.42 E3.1914
G1 X101.849 Y132.877 E3.21765
G1 X101.334 Y132.278 E3.24393
G1 X100.883 Y131.63 E3.27018
G1 X100.499 Y130.939 E3.29648
G1 X100.187 Y130.214 E3.32273
G1 X99.95 Y129.461 E3.34899
G1 X99.791 Y128.687 E3.37527
G1 X99.71 Y127.902 E3.40151
G1 X99.7 Y127.5 E3.41489
G1 X99.7 Y107.5 E4.08009
G1 X99.74 Y106.711 E4.10637
G1 X99.859 Y105.931 E4.13261
G1 X100.057 Y105.166 E4.15889
G1 X100.331 Y104.426 E4.18514
G1 X100.679 Y103.717 E4.21141
G1 X101.097 Y103.046 E4.2377
G1 X101.58 Y102.422 E4.26395
G1 X102.123 Y101.849 E4.2902
G0 F6000 X102.516 Y102.03
G1 F1200 X103.111 Y101.542 E4.3158
G1 X103.753 Y101.119 E4.34137
G1 X104.436 Y100.764 E4.36697
G1 X105.151 Y100.483 E4.39252
G1 X105.893 Y100.277 E4.41813
G1 X106.651 Y100.149 E4.4437
G1 X107.5 Y100.1 E4.47199
G1 X127.5 Y100.1 E5.13719
G1 X128.268 Y100.14 E5.16277
G1 X129.028 Y100.259 E5.18835
G1 X129.771 Y100.457 E5.21393
G1 X130.49 Y100.731 E5.23952
G1 X131.176 Y101.078 E5.26509
G1 X131.823 Y101.494 E5.29067
G1 X132.423 Y101.975 E5.31625
G1 X132.97 Y102.516 E5.34184
G1 X133.458 Y103.111 E5.36743
G1 X133.881 Y103.753 E5.39301
G1 X134.236 Y104.436 E5.41861
G1 X134.517 Y105.151 E5.44416
G1 X134.723 Y105.893 E5.46977
G1 X134.851 Y106.651 E5.49534
G1 X134.9 Y107.5 E5.52362
G1 X134.9 Y127.5 E6.18883
G1 X134.86 Y128.268 E6.21441
G1 X134.741 Y129.028 E6.23999
G1 X134.543 Y129.771 E6.26557
G1 X134.269 Y130.49 E6.29116
G1 X133.922 Y131.176 E6.31673
G1 X133.506 Y131.823 E6.34231
G1 X133.025 Y132.423 E6.36789
G1 X132.484 Y132.97 E6.39348
G1 X131.889 Y133.458 E6.41907
G1 X131.247 Y133.881 E6.44464
G1 X130.564 Y134.236 E6.47024
G1 X129.849 Y134.517 E6.4958
G1 X129.107 Y134.723 E6.52141
G1 X128.349 Y134.851 E6.54698
G1 X127.5 Y134.9 E6.57526
G1 X107.5 Y134.9 E7.24046
G1 X106.732 Y134.86 E7.26604
G1 X105.972 Y134.741 E7.29163
G1 X105.229 Y134.543 E7.3172
G1 X104.51 Y134.269 E7.34279
G1 X103.824 Y133.922 E7.36836
G1 X103.177 Y133.506 E7.39395
G1 X102.577 Y133.025 E7.41952
G1 X102.03 Y132.484 E7.44511
G1 X101.542 Y131.889 E7.47071
G1 X101.119 Y131.247 E7.49628
G1 X100.764 Y130.564 E7.52188
G1 X100.483 Y129.849 E7.54743
G1 X100.277 Y129.107 E7.57304
G1 X100.149 Y128.349 E7.59861
G1 X100.1 Y127.5 E7.6269
G1 X100.1 Y107.5 E8.2921
G1 X100.14 Y106.732 E8.31768
G1 X100.259 Y105.972 E8.34326
G1 X100.457 Y105.229 E8.36884
G1 X100.731 Y104.51 E8.39443
G1 X101.078 Y103.824 E8.42
G1 X101.494 Y103.177 E8.44558
G1 X101.975 Y102.577 E8.47116
G1 X102.516 Y102.03 E8.49675
G0 F6000 X102.908 Y102.216
G1 F1200 X103.498 Y101.757 E8.52161
G1 X104.134 Y101.362 E8.54651
G1 X104.808 Y101.038 E8.57139
G1 X105.513 Y100.788 E8.59626
G1 X106.241 Y100.614 E8.62116
G1 X106.983 Y100.519 E8.64604
G1 X107.5 Y100.5 E8.66325
G1 X127.5 Y100.5 E9.32845
G1 X128.247 Y100.54 E9.35333
G1 X128.985 Y100.659 E9.37819
G1 X129.707 Y100.857 E9.40309
G1 X130.403 Y101.13 E9.42796
G1 X131.066 Y101.477 E9.45285
G1 X131.689 Y101.892 E9.47775
G1 X132.263 Y102.371 E9.50261
G1 X132.784 Y102.908 E9.5275
G1 X133.243 Y103.498 E9.55236
G1 X133.638 Y104.134 E9.57726
G1 X133.962 Y104.808 E9.60213
G1 X134.212 Y105.513 E9.62701
G1 X134.386 Y106.241 E9.65191
G1 X134.481 Y106.983 E9.67679
G1 X134.5 Y107.5 E9.694
G1 X134.5 Y127.5 E10.3592
G1 X134.46 Y128.247 E10.38408
G1 X134.341 Y128.985 E10.40894
G1 X134.143 Y129.707 E10.43384
G1 X133.87 Y130.403 E10.45871
G1 X133.523 Y131.066 E10.4836
G1 X133.108 Y131.689 E10.5085
G1 X132.629 Y132.263 E10.53336
G1 X132.092 Y132.784 E10.55825
G1 X131.502 Y133.243 E10.58311
G1 X130.866 Y133.638 E10.60801
G1 X130.192 Y133.962 E10.63288
G1 X129.487 Y134.212 E10.65776
G1 X128.759 Y134.386 E10.68266
G1 X128.017 Y134.481 E10.70754
G1 X127.5 Y134.5 E10.72475
G1 X107.5 Y134.5 E11.38995
G1 X106.753 Y134.46 E11.41483
G1 X106.015 Y134.341 E11.43969
G1 X105.293 Y134.143 E11.46459
G1 X104.597 Y133.87 E11.48946
G1 X103.934 Y133.523 E11.51435
G1 X103.311 Y133.108 E11.53925
G1 X102.737 Y132.629 E11.56411
G1 X102.216 Y132.092 E11.589
G1 X101.757 Y131.502 E11.61386
G1 X101.362 Y130.866 E11.63876
G1 X101.038 Y130.192 E11.66363
G1 X100.788 Y129.487 E11.68851
G1 X100.614 Y128.759 E11.71341
G1 X100.519 Y128.017 E11.73829
G1 X100.5 Y127.5 E11.7555
G1 X100.5 Y107.5 E12.4207
G1 X100.54 Y106.753 E12.44558
G1 X100.659 Y106.015 E12.47044
G1 X100.857 Y105.293 E12.49534
G1 X101.13 Y104.597 E12.52021
G1 X101.477 Y103.934 E12.5451
G1 X101.892 Y103.311 E12.57
G1 X102.371 Y102.737 E12.59486
G1 X102.908 Y102.216 E12.61975
G0 F6000 X102.765 Y102.902
G1 F1200 X103.299 Y102.409 E12.64392
G1 X103.884 Y101.979 E12.66807
G1 X104.513 Y101.615 E12.69224
G1 X105.178 Y101.322 E12.71641
G1 X105.871 Y101.104 E12.74057
G1 X106.583 Y100.964 E12.76471
G1 X107.5 Y100.9 E12.79528
G1 X127.5 Y100.9 E13.46048
G1 X128.225 Y100.94 E13.48463
G1 X128.942 Y101.059 E13.50881
G1 X129.641 Y101.257 E13.53297
G1 X130.314 Y101.53 E13.55712
G1 X130.953 Y101.875 E13.58128
G1 X131.55 Y102.289 E13.60544
G1 X132.098 Y102.765 E13.62958
G1 X132.591 Y103.299 E13.65376
G1 X133.021 Y103.884 E13.6779
G1 X133.385 Y104.513 E13.70208
G1 X133.678 Y105.178 E13.72625
G1 X133.896 Y105.871 E13.75041
G1 X134.036 Y106.583 E13.77454
G1 X134.1 Y107.5 E13.80512
G1 X134.1 Y127.5 E14.47032
G1 X134.06 Y128.225 E14.49447
G1 X133.941 Y128.942 E14.51864
G1 X133.743 Y129.641 E14.54281
G1 X133.47 Y130.314 E14.56696
G1 X133.125 Y130.953 E14.59112
G1 X132.711 Y131.55 E14.61528
G1 X132.235 Y132.098 E14.63942
G1 X131.701 Y132.591 E14.66359
G1 X131.116 Y133.021 E14.68774
G1 X130.487 Y133.385 E14.71191
G1 X129.822 Y133.678 E14.73608
G1 X129.129 Y133.896 E14.76025
G1 X128.417 Y134.036 E14.78438
G1 X127.5 Y134.1 E14.81495
G1 X107.5 Y134.1 E15.48016
G1 X106.775 Y134.06 E15.50431
G1 X106.058 Y133.941 E15.52848
G1 X105.359 Y133.743 E15.55264
G1 X104.686 Y133.47 E15.5768
G1 X104.047 Y133.125 E15.60095
G1 X103.45 Y132.711 E15.62512
G1 X102.902 Y132.235 E15.64926
G1 X102.409 Y131.701 E15.67343
G1 X101.979 Y131.116 E15.69758
G1 X101.615 Y130.487 E15.72175
G1 X101.322 Y129.822 E15.74592
G1 X101.104 Y129.129 E15.77008
G1 X100.964 Y128.417 E15.79422
G1 X100.9 Y127.5 E15.82479
G1 X100.9 Y107.5 E16.48999
G1 X100.94 Y106.775 E16.51414
G1 X101.059 Y106.058 E16.53832
G1 X101.257 Y105.359 E16.56248
G1 X101.53 Y104.686 E16.58664
G1 X101.875 Y104.047 E16.61079
G1 X102.289 Y103.45 E16.63495
G1 X102.765 Y102.902 E16.6591
G0 F6000 X103.159 Y103.073
G1 F1200 X103.689 Y102.609 E16.68253
G1 X104.268 Y102.209 E16.70593
G1 X104.889 Y101.877 E16.72935
G1 X105.543 Y101.617 E16.75276
G1 X106.223 Y101.433 E16.77619
G1 X106.919 Y101.327 E16.79961
G1 X107.5 Y101.3 E16.81895
G1 X127.5 Y101.3 E17.48415
G1 X128.203 Y101.34 E17.50757
G1 X128.897 Y101.459 E17.53099
G1 X129.572 Y101.657 E17.55439
G1 X130.221 Y101.929 E17.5778
G1 X130.835 Y102.274 E17.60122
G1 X131.406 Y102.685 E17.62462
G1 X131.927 Y103.159 E17.64805
G1 X132.391 Y103.689 E17.67148
G1 X132.791 Y104.268 E17.69488
G1 X133.123 Y104.889 E17.7183
G1 X133.383 Y105.543 E17.74171
G1 X133.567 Y106.223 E17.76514
G1 X133.673 Y106.919 E17.78856
G1 X133.7 Y107.5 E17.8079
G1 X133.7 Y127.5 E18.4731
G1 X133.66 Y128.203 E18.49652
G1 X133.541 Y128.897 E18.51994
G1 X133.343 Y129.572 E18.54334
G1 X133.071 Y130.221 E18.56675
G1 X132.726 Y130.835 E18.59017
G1 X132.315 Y131.406 E18.61357
G1 X131.841 Y131.927 E18.637
G1 X131.311 Y132.391 E18.66043
G1 X130.732 Y132.791 E18.68383
G1 X130.111 Y133.123 E18.70725
G1 X129.457 Y133.383 E18.73066
G1 X128.777 Y133.567 E18.75409
G1 X128.081 Y133.673 E18.77751
G1 X127.5 Y133.7 E18.79685
G1 X107.5 Y133.7 E19.46205
G1 X106.797 Y133.66 E19.48547
G1 X106.103 Y133.541 E19.50889
G1 X105.428 Y133.343 E19.53229
G1 X104.779 Y133.071 E19.5557
G1 X104.165 Y132.726 E19.57912
G1 X103.594 Y132.315 E19.60252
G1 X103.073 Y131.841 E19.62595
G1 X102.609 Y131.311 E19.64938
G1 X102.209 Y130.732 E19.67278
G1 X101.877 Y130.111 E19.6962
G1 X101.617 Y129.457 E19.71961
G1 X101.433 Y128.777 E19.74304
G1 X101.327 Y128.081 E19.76646
G1 X101.3 Y127.5 E19.7858
G1 X101.3 Y107.5 E20.451
G1 X101.34 Y106.797 E20.47442
G1 X101.459 Y106.103 E20.49784
G1 X101.657 Y105.428 E20.52124
G1 X101.929 Y104.779 E20.54465
G1 X102.274 Y104.165 E20.56807
G1 X102.685 Y103.594 E20.59147
G1 X103.159 Y103.073 E20.6149
G0 F6000 X103.553 Y103.251
G1 F1200 X104.078 Y102.817 E20.63755
G1 X104.65 Y102.448 E20.66019
G1 X105.262 Y102.149 E20.68285
G1 X105.904 Y101.924 E20.70547
G1 X106.569 Y101.775 E20.72814
G1 X107.5 Y101.7 E20.75921
G1 X127.5 Y101.7 E21.42441
G1 X128.18 Y101.74 E21.44706
G1 X128.85 Y101.859 E21.4697
G1 X129.502 Y102.056 E21.49235
G1 X130.126 Y102.328 E21.51499
G1 X130.714 Y102.672 E21.53765
G1 X131.258 Y103.082 E21.56031
G1 X131.749 Y103.553 E21.58294
G1 X132.183 Y104.078 E21.60559
G1 X132.552 Y104.65 E21.62823
G1 X132.851 Y105.262 E21.65089
G1 X133.076 Y105.904 E21.67351
G1 X133.225 Y106.569 E21.69618
G1 X133.3 Y107.5 E21.72724
G1 X133.3 Y127.5 E22.39245
G1 X133.26 Y128.18 E22.4151
G1 X133.141 Y128.85 E22.43774
G1 X132.944 Y129.502 E22.46039
G1 X132.672 Y130.126 E22.48303
G1 X132.328 Y130.714 E22.50569
G1 X131.918 Y131.258 E22.52834
G1 X131.447 Y131.749 E22.55097
G1 X130.922 Y132.183 E22.57363
G1 X130.35 Y132.552 E22.59627
G1 X129.738 Y132.851 E22.61892
G1 X129.096 Y133.076 E22.64155
G1 X128.431 Y133.225 E22.66422
G1 X127.5 Y133.3 E22.69528
G1 X107.5 Y133.3 E23.36049
G1 X106.82 Y133.26 E23.38314
G1 X106.15 Y133.141 E23.40577
G1 X105.498 Y132.944 E23.42843
G1 X104.874 Y132.672 E23.45107
G1 X104.286 Y132.328 E23.47373
G1 X103.742 Y131.918 E23.49638
G1 X103.251 Y131.447 E23.51901
G1 X102.817 Y130.922 E23.54167
G1 X102.448 Y130.35 E23.56431
G1 X102.149 Y129.738 E23.58696
G1 X101.924 Y129.096 E23.60959
G1 X101.775 Y128.431 E23.63226
G1 X101.7 Y127.5 E23.66332
G1 X101.7 Y107.5 E24.32852
G1 X101.74 Y106.82 E24.35118
G1 X101.859 Y106.15 E24.37381
G1 X102.056 Y105.498 E24.39647
G1 X102.328 Y104.874 E24.41911
G1 X102.672 Y104.286 E24.44177
G1 X103.082 Y103.742 E24.46442
G1 X103.553 Y103.251 E24.48705
G0 F6000 X103.945 Y103.435
G1 F1200 X104.465 Y103.034 E24.50889
G1 X105.029 Y102.698 E24.53073
G1 X105.631 Y102.434 E24.55259
G1 X106.26 Y102.244 E24.57445
G1 X106.907 Y102.133 E24.59628
G1 X107.5 Y102.1 E24.61603
G1 X127.5 Y102.1 E25.28124
G1 X128.156 Y102.14 E25.30309
G1 X128.802 Y102.259 E25.32494
G1 X129.429 Y102.456 E25.3468
G1 X130.027 Y102.728 E25.36865
G1 X130.588 Y103.07 E25.3905
G1 X131.103 Y103.478 E25.41236
G1 X131.565 Y103.945 E25.43421
G1 X131.966 Y104.465 E25.45605
G1 X132.302 Y105.029 E25.47788
G1 X132.566 Y105.631 E25.49975
G1 X132.756 Y106.26 E25.5216
G1 X132.867 Y106.907 E25.54343
G1 X132.9 Y107.5 E25.56319
G1 X132.9 Y127.5 E26.22839
G1 X132.86 Y128.156 E26.25025
G1 X132.741 Y128.802 E26.2721
G1 X132.544 Y129.429 E26.29396
G1 X132.272 Y130.027 E26.31581
G1 X131.93 Y130.588 E26.33766
G1 X131.522 Y131.103 E26.35951
G1 X131.055 Y131.565 E26.38136
G1 X130.535 Y131.966 E26.4032
G1 X129.971 Y132.302 E26.42504
G1 X129.369 Y132.566 E26.4469
G1 X128.74 Y132.756 E26.46875
G1 X128.093 Y132.867 E26.49059
G1 X127.5 Y132.9 E26.51034
G1 X107.5 Y132.9 E27.17554
G1 X106.844 Y132.86 E27.1974
G1 X106.198 Y132.741 E27.21925
G1 X105.571 Y132.544 E27.24111
G1 X104.973 Y132.272 E27.26296
G1 X104.412 Y131.93 E27.28481
G1 X103.897 Y131.522 E27.30667
G1 X103.435 Y131.055 E27.32852
G1 X103.034 Y130.535 E27.35036
G1 X102.698 Y129.971 E27.37219
G1 X102.434 Y129.369 E27.39406
G1 X102.244 Y128.74 E27.41591
G1 X102.133 Y128.093 E27.43774
G1 X102.1 Y127.5 E27.4575
G1 X102.1 Y107.5 E28.1227
G1 X102.14 Y106.844 E28.14456
G1 X102.259 Y106.198 E28.16641
G1 X102.456 Y105.571 E28.18827
G1 X102.728 Y104.973 E28.21012
G1 X103.07 Y104.412 E28.23197
G1 X103.478 Y103.897 E28.25382
G1 X103.945 Y103.435 E28.27567
G0 F6000 X103.873 Y104.059
G1 F1200 X104.336 Y103.629 E28.29669
G1 X104.85 Y103.26 E28.31773
G1 X105.406 Y102.96 E28.33874
G1 X105.995 Y102.732 E28.35975
G1 X106.609 Y102.58 E28.38079
G1 X107.5 Y102.5 E28.41054
G1 X127.5 Y102.5 E29.07575
G1 X128.131 Y102.54 E29.09678
G1 X128.752 Y102.659 E29.11781
G1 X129.352 Y102.856 E29.13881
G1 X129.924 Y103.127 E29.15986
G1 X130.456 Y103.467 E29.18086
G1 X130.941 Y103.873 E29.2019
G1 X131.371 Y104.336 E29.22291
G1 X131.74 Y104.85 E29.24396
G1 X132.04 Y105.406 E29.26497
G1 X132.268 Y105.995 E29.28598
G1 X132.42 Y106.609 E29.30702
G1 X132.5 Y107.5 E29.33677
G1 X132.5 Y127.5 E30.00197
G1 X132.46 Y128.131 E30.023
G1 X132.341 Y128.752 E30.04403
G1 X132.144 Y129.352 E30.06504
G1 X131.873 Y129.924 E30.08609
G1 X131.533 Y130.456 E30.10709
G1 X131.127 Y130.941 E30.12813
G1 X130.664 Y131.371 E30.14914
G1 X130.15 Y131.74 E30.17019
G1 X129.594 Y132.04 E30.1912
G1 X129.005 Y132.268 E30.21221
G1 X128.391 Y132.42 E30.23325
G1 X127.5 Y132.5 E30.263
G1 X107.5 Y132.5 E30.9282
G1 X106.869 Y132.46 E30.94923
G1 X106.248 Y132.341 E30.97026
G1 X105.648 Y132.144 E30.99127
G1 X105.076 Y131.873 E31.01232
G1 X104.544 Y131.533 E31.03332
G1 X104.059 Y131.127 E31.05435
G1 X103.629 Y130.664 E31.07537
G1 X103.26 Y130.15 E31.09642
G1 X102.96 Y129.594 E31.11743
G1 X102.732 Y129.005 E31.13844
G1 X102.58 Y128.391 E31.15947
G1 X102.5 Y127.5 E31.18923
G1 X102.5 Y107.5 E31.85443
G1 X102.54 Y106.869 E31.87546
G1 X102.659 Y106.248 E31.89649
G1 X102.856 Y105.648 E31.91749
G1 X103.127 Y105.076 E31.93855
G1 X103.467 Y104.544 E31.95955
G1 X103.873 Y104.059 E31.98058
G0 F6000 X104.267 Y104.228
G1 F1200 X104.725 Y103.831 E32.00074
G1 X105.232 Y103.498 E32.02092
G1 X105.778 Y103.234 E32.04109
G1 X106.354 Y103.045 E32.06125
G1 X106.95 Y102.933 E32.08142
G1 X107.5 Y102.9 E32.09975
G1 X127.5 Y102.9 E32.76495
G1 X128.105 Y102.94 E32.78512
G1 X128.699 Y103.059 E32.80527
G1 X129.273 Y103.255 E32.82544
G1 X129.816 Y103.526 E32.84562
G1 X130.319 Y103.865 E32.8658
G1 X130.772 Y104.267 E32.88594
G1 X131.169 Y104.725 E32.9061
G1 X131.502 Y105.232 E32.92628
G1 X131.766 Y105.778 E32.94645
G1 X131.955 Y106.354 E32.96661
G1 X132.067 Y106.95 E32.98678
