;FLAVOR:Marlin
;TIME:1116
;Filament used: 0.451514m
;Layer height: 0.2
;MINX:103.6
;MINY:104.696
;MINZ:0.2
;MAXX:131.4
;MAXY:130.304
;MAXZ:20
;Generated with Cura_SteamEngine 4.5.0
M140 S50
M105
M190 S50
M104 S200
M105
M109 S200
M82 ;absolute extrusion mode
; Ender 3 Custom Start G-code
G92 E0 ; Reset Extruder
G28 ; Home all axes
G1 Z2.0 F3000 ; Move Z Axis up little to prevent scratching of Heat Bed
G1 X0.1 Y20 Z0.3 F5000.0 ; Move to start position
G1 X0.1 Y200.0 Z0.3 F1500.0 E15 ; Draw the first line
G1 X0.4 Y200.0 Z0.3 F5000.0 ; Move to side a little
G1 X0.4 Y20 Z0.3 F1500.0 E30 ; Draw the second line
G92 E0 ; Reset Extruder
G1 Z2.0 F3000 ; Move Z Axis up little to prevent scratching of Heat Bed
G1 X5 Y20 Z0.3 F5000.0 ; Move over to prevent blob squish
G92 E0
G92 E0
G1 F2700 E-5
;LAYER_COUNT:100
;LAYER:0
M107
G0 F6000 X106.805 Y108.189 Z0.2
;TYPE:SKIRT
G1 F2700 E0
G1 F1200 X107.496 Y107.531 E0.03174
G1 X108.24 Y106.932 E0.0635
G1 X109.032 Y106.398 E0.09528
G1 X109.865 Y105.932 E0.12702
G1 X110.734 Y105.537 E0.15877
G1 X111.633 Y105.216 E0.19052
G1 X112.556 Y104.972 E0.22227
G1 X113.497 Y104.806 E0.25405
G1 X114.689 Y104.709 E0.29383
G1 X115.33 Y104.696 E0.31516
G1 X119.456 Y104.697 E0.45239
G1 X120.154 Y104.707 E0.47561
G1 X121.108 Y104.761 E0.50739
G1 X122.053 Y104.894 E0.53913
G1 X122.984 Y105.106 E0.57088
G1 X123.894 Y105.395 E0.60264
G1 X124.777 Y105.759 E0.63441
G1 X125.626 Y106.196 E0.66617
G1 X126.435 Y106.702 E0.6979
G1 X127.199 Y107.274 E0.72965
G1 X127.913 Y107.908 E0.76141
G1 X128.571 Y108.6 E0.79317
G1 X129.169 Y109.344 E0.82491
G1 X129.703 Y110.136 E0.85668
G1 X130.168 Y110.97 E0.88844
G1 X130.563 Y111.839 E0.92019
G1 X130.882 Y112.739 E0.95195
G1 X131.126 Y113.662 E0.9837
G1 X131.291 Y114.603 E1.01548
G1 X131.386 Y115.786 E1.05495
G1 X131.4 Y116.426 E1.07624
G1 X131.399 Y118.309 E1.13887
G1 X131.39 Y119.036 E1.16306
G1 X131.338 Y119.989 E1.1948
G1 X131.207 Y120.935 E1.22656
G1 X130.997 Y121.867 E1.25834
G1 X130.71 Y122.777 E1.29008
G1 X130.347 Y123.66 E1.32183
G1 X129.912 Y124.51 E1.35359
G1 X129.407 Y125.321 E1.38536
G1 X128.837 Y126.086 E1.41709
G1 X128.204 Y126.801 E1.44886
G1 X127.514 Y127.461 E1.48061
G1 X126.77 Y128.06 E1.51238
G1 X125.98 Y128.595 E1.54412
G1 X125.147 Y129.062 E1.57588
G1 X124.278 Y129.458 E1.60764
G1 X123.379 Y129.78 E1.6394
G1 X122.456 Y130.025 E1.67116
G1 X121.516 Y130.192 E1.70292
G1 X120.311 Y130.291 E1.74313
G1 X119.67 Y130.304 E1.76446
G1 X115.56 Y130.303 E1.90116
G1 X114.862 Y130.294 E1.92437
G1 X113.909 Y130.242 E1.95612
G1 X112.963 Y130.11 E1.98789
G1 X112.032 Y129.899 E2.01964
G1 X111.121 Y129.612 E2.0514
G1 X110.238 Y129.249 E2.08316
G1 X109.389 Y128.813 E2.1149
G1 X108.578 Y128.308 E2.14668
G1 X107.813 Y127.737 E2.17843
G1 X107.099 Y127.104 E2.21016
G1 X106.439 Y126.413 E2.24195
G1 X105.84 Y125.67 E2.27369
G1 X105.306 Y124.879 E2.30543
G1 X104.839 Y124.046 E2.33719
G1 X104.444 Y123.177 E2.36894
G1 X104.122 Y122.278 E2.4007
G1 X103.878 Y121.355 E2.43246
G1 X103.711 Y120.415 E2.46421
G1 X103.613 Y119.203 E2.50465
G1 X103.6 Y118.562 E2.52598
G1 X103.601 Y116.616 E2.5907
G1 X103.61 Y115.951 E2.61282
G1 X103.663 Y114.997 E2.6446
G1 X103.795 Y114.052 E2.67634
G1 X104.007 Y113.121 E2.7081
G1 X104.295 Y112.211 E2.73984
G1 X104.658 Y111.328 E2.7716
G1 X105.094 Y110.478 E2.80337
G1 X105.6 Y109.668 E2.83513
G1 X106.172 Y108.904 E2.86688
G1 X106.805 Y108.189 E2.89864
G0 F6000 X107.198 Y108.36
G1 F1200 X107.886 Y107.723 E2.92982
G1 X108.626 Y107.147 E2.96101
G1 X109.412 Y106.635 E2.99221
G1 X110.239 Y106.193 E3.0234
G1 X111.101 Y105.823 E3.0546
G1 X111.991 Y105.527 E3.0858
G1 X112.903 Y105.309 E3.11699
G1 X113.83 Y105.168 E3.14817
G1 X114.701 Y105.109 E3.17721
G1 X115.33 Y105.096 E3.19813
G1 X119.451 Y105.097 E3.3352
G1 X120.149 Y105.107 E3.35842
G1 X121.085 Y105.161 E3.3896
G1 X122.013 Y105.293 E3.42078
G1 X122.927 Y105.505 E3.45198
G1 X123.819 Y105.794 E3.48317
G1 X124.684 Y106.157 E3.51437
G1 X125.514 Y106.593 E3.54555
G1 X126.305 Y107.098 E3.57677
G1 X127.049 Y107.669 E3.60796
G1 X127.742 Y108.301 E3.63915
G1 X128.379 Y108.989 E3.67034
G1 X128.954 Y109.73 E3.70153
G1 X129.465 Y110.516 E3.73272
G1 X129.907 Y111.344 E3.76393
G1 X130.276 Y112.206 E3.79512
G1 X130.571 Y113.096 E3.82631
G1 X130.789 Y114.008 E3.85749
G1 X130.929 Y114.936 E3.88871
G1 X130.987 Y115.797 E3.91741
G1 X131 Y116.426 E3.93834
G1 X130.999 Y118.304 E4.0008
G1 X130.99 Y119.031 E4.02498
G1 X130.939 Y119.968 E4.05619
G1 X130.807 Y120.896 E4.08737
G1 X130.598 Y121.81 E4.11855
G1 X130.311 Y122.703 E4.14975
G1 X129.949 Y123.569 E4.18097
G1 X129.515 Y124.4 E4.21215
G1 X129.011 Y125.191 E4.24334
G1 X128.442 Y125.936 E4.27452
G1 X127.811 Y126.631 E4.30575
G1 X127.124 Y127.269 E4.33693
G1 X126.385 Y127.846 E4.36811
G1 X125.599 Y128.358 E4.39931
G1 X124.773 Y128.801 E4.43049
G1 X123.911 Y129.173 E4.46171
G1 X123.022 Y129.469 E4.49288
G1 X122.11 Y129.689 E4.52408
G1 X121.183 Y129.83 E4.55527
G1 X120.299 Y129.891 E4.58474
G1 X119.67 Y129.904 E4.60566
G1 X115.565 Y129.903 E4.7422
G1 X114.867 Y129.894 E4.76541
G1 X113.931 Y129.842 E4.79659
G1 X113.002 Y129.71 E4.8278
G1 X112.088 Y129.5 E4.85899
G1 X111.195 Y129.213 E4.89019
G1 X110.33 Y128.85 E4.92139
G1 X109.499 Y128.416 E4.95257
G1 X108.708 Y127.912 E4.98377
G1 X107.963 Y127.342 E5.01497
G1 X107.269 Y126.711 E5.04617
G1 X106.632 Y126.024 E5.07733
G1 X106.055 Y125.284 E5.10854
G1 X105.543 Y124.498 E5.13974
G1 X105.1 Y123.671 E5.17094
G1 X104.729 Y122.81 E5.20212
G1 X104.433 Y121.92 E5.23332
G1 X104.214 Y121.008 E5.26451
G1 X104.073 Y120.081 E5.2957
G1 X104.013 Y119.192 E5.32534
G1 X104 Y118.562 E5.3463
G1 X104.001 Y116.621 E5.41085
G1 X104.01 Y115.956 E5.43297
G1 X104.063 Y115.02 E5.46415
G1 X104.195 Y114.091 E5.49536
G1 X104.406 Y113.177 E5.52656
G1 X104.694 Y112.285 E5.55774
G1 X105.057 Y111.42 E5.58894
G1 X105.492 Y110.589 E5.62014
G1 X105.996 Y109.799 E5.6513
G1 X106.566 Y109.054 E5.6825
G1 X107.198 Y108.36 E5.71372
G0 F6000 X107.589 Y108.535
G1 F1200 X108.274 Y107.919 E5.74436
G1 X109.01 Y107.366 E5.77498
G1 X109.791 Y106.878 E5.80561
G1 X110.611 Y106.46 E5.83623
G1 X111.465 Y106.115 E5.86686
G1 X112.345 Y105.845 E5.89748
G1 X113.245 Y105.653 E5.92808
G1 X114.159 Y105.539 E5.95872
G1 X114.712 Y105.509 E5.97714
G1 X115.33 Y105.496 E5.9977
G1 X119.445 Y105.497 E6.13456
G1 X120.143 Y105.507 E6.15778
G1 X121.062 Y105.56 E6.1884
G1 X121.973 Y105.693 E6.21902
G1 X122.869 Y105.904 E6.24964
G1 X123.743 Y106.192 E6.28024
G1 X124.59 Y106.555 E6.31089
G1 X125.401 Y106.99 E6.3415
G1 X126.171 Y107.494 E6.37211
G1 X126.895 Y108.063 E6.40274
G1 X127.567 Y108.693 E6.43337
G1 X128.182 Y109.378 E6.46399
G1 X128.735 Y110.114 E6.49461
G1 X129.222 Y110.895 E6.52522
G1 X129.639 Y111.716 E6.55585
G1 X129.984 Y112.57 E6.58648
G1 X130.253 Y113.45 E6.61709
G1 X130.445 Y114.351 E6.64773
G1 X130.558 Y115.264 E6.67833
G1 X130.587 Y115.808 E6.69645
G1 X130.6 Y116.426 E6.71701
G1 X130.599 Y118.299 E6.7793
G1 X130.59 Y119.026 E6.80349
G1 X130.539 Y119.945 E6.8341
G1 X130.408 Y120.857 E6.86474
G1 X130.198 Y121.753 E6.89535
G1 X129.912 Y122.628 E6.92597
G1 X129.551 Y123.475 E6.95659
G1 X129.117 Y124.287 E6.98722
G1 X128.615 Y125.059 E7.01784
G1 X128.047 Y125.784 E7.04848
G1 X127.419 Y126.457 E7.07909
G1 X126.735 Y127.073 E7.10971
G1 X126 Y127.627 E7.14032
G1 X125.22 Y128.116 E7.17094
G1 X124.4 Y128.535 E7.20157
G1 X123.547 Y128.881 E7.23218
G1 X122.667 Y129.152 E7.26281
G1 X121.767 Y129.345 E7.29342
G1 X120.853 Y129.46 E7.32406
G1 X120.288 Y129.491 E7.34288
G1 X119.67 Y129.504 E7.36344
G1 X115.57 Y129.503 E7.49981
G1 X114.872 Y129.494 E7.52303
G1 X113.953 Y129.442 E7.55364
G1 X113.042 Y129.311 E7.58425
G1 X112.146 Y129.101 E7.61486
G1 X111.271 Y128.814 E7.64549
G1 X110.424 Y128.452 E7.67613
G1 X109.612 Y128.018 E7.70675
G1 X108.841 Y127.516 E7.73735
G1 X108.116 Y126.948 E7.76798
G1 X107.443 Y126.319 E7.79862
G1 X106.828 Y125.635 E7.82922
G1 X106.274 Y124.9 E7.85983
G1 X105.786 Y124.119 E7.89046
G1 X105.367 Y123.299 E7.92109
G1 X105.021 Y122.446 E7.9517
G1 X104.751 Y121.566 E7.98232
G1 X104.558 Y120.665 E8.01296
G1 X104.444 Y119.752 E8.04357
G1 X104.413 Y119.181 E8.06259
G1 X104.4 Y118.562 E8.08318
G1 X104.401 Y116.627 E8.14754
G1 X104.41 Y115.962 E8.16966
G1 X104.462 Y115.042 E8.20031
G1 X104.594 Y114.131 E8.23092
G1 X104.805 Y113.235 E8.26154
G1 X105.092 Y112.36 E8.29217
G1 X105.455 Y111.514 E8.32278
G1 X105.889 Y110.702 E8.35341
G1 X106.392 Y109.931 E8.38403
G1 X106.961 Y109.207 E8.41465
G1 X107.589 Y108.535 E8.44524
G0 F6000 X107.981 Y108.713
G1 F1200 X108.662 Y108.12 E8.47528
G1 X109.394 Y107.59 E8.50534
G1 X110.169 Y107.127 E8.53536
G1 X110.982 Y106.734 E8.5654
G1 X111.827 Y106.414 E8.59545
G1 X112.696 Y106.171 E8.62546
G1 X113.584 Y106.005 E8.65551
G1 X114.723 Y105.909 E8.69353
G1 X115.33 Y105.896 E8.71372
G1 X119.439 Y105.897 E8.85039
G1 X120.137 Y105.907 E8.8736
G1 X121.039 Y105.96 E8.90366
G1 X121.932 Y106.092 E8.93368
G1 X122.81 Y106.303 E8.96371
G1 X123.666 Y106.591 E8.99375
G1 X124.493 Y106.953 E9.02378
G1 X125.285 Y107.388 E9.05383
G1 X126.036 Y107.89 E9.08388
G1 X126.739 Y108.457 E9.11392
G1 X127.389 Y109.084 E9.14395
G1 X127.981 Y109.766 E9.17399
G1 X128.511 Y110.497 E9.20402
G1 X128.973 Y111.273 E9.23406
G1 X129.366 Y112.086 E9.26409
G1 X129.684 Y112.931 E9.29412
G1 X129.927 Y113.801 E9.32417
G1 X130.092 Y114.689 E9.35421
G1 X130.187 Y115.819 E9.39192
G1 X130.2 Y116.426 E9.41212
G1 X130.199 Y118.294 E9.47425
G1 X130.19 Y119.021 E9.49843
G1 X130.139 Y119.923 E9.52848
G1 X130.008 Y120.817 E9.55853
G1 X129.799 Y121.695 E9.58855
G1 X129.513 Y122.552 E9.6186
G1 X129.152 Y123.38 E9.64864
G1 X128.72 Y124.172 E9.67865
G1 X128.219 Y124.924 E9.7087
G1 X127.653 Y125.628 E9.73875
G1 X127.028 Y126.279 E9.76876
G1 X126.347 Y126.873 E9.79882
G1 X125.616 Y127.404 E9.82887
G1 X124.842 Y127.868 E9.85888
G1 X124.029 Y128.262 E9.88893
G1 X123.185 Y128.582 E9.91895
G1 X122.315 Y128.827 E9.94901
G1 X121.428 Y128.993 E9.97903
G1 X120.277 Y129.091 E10.01745
G1 X119.67 Y129.104 E10.03764
G1 X115.575 Y129.103 E10.17384
G1 X114.877 Y129.094 E10.19706
G1 X113.976 Y129.043 E10.22708
G1 X113.082 Y128.911 E10.25713
G1 X112.204 Y128.702 E10.28715
G1 X111.347 Y128.415 E10.31721
G1 X110.52 Y128.054 E10.34722
G1 X109.727 Y127.621 E10.37727
G1 X108.976 Y127.12 E10.4073
G1 X108.272 Y126.554 E10.43735
G1 X107.621 Y125.928 E10.46738
G1 X107.028 Y125.247 E10.49742
G1 X106.498 Y124.516 E10.52745
G1 X106.034 Y123.741 E10.55749
G1 X105.64 Y122.928 E10.58754
G1 X105.32 Y122.084 E10.61756
G1 X105.076 Y121.214 E10.64762
G1 X104.91 Y120.326 E10.67766
G1 X104.813 Y119.171 E10.71621
G1 X104.8 Y118.562 E10.73647
G1 X104.801 Y116.632 E10.80066
G1 X104.81 Y115.967 E10.82278
G1 X104.862 Y115.065 E10.85284
G1 X104.994 Y114.172 E10.88286
G1 X105.204 Y113.294 E10.91289
G1 X105.491 Y112.437 E10.94294
G1 X105.853 Y111.61 E10.97297
G1 X106.286 Y110.818 E11.00299
G1 X106.788 Y110.067 E11.03304
G1 X107.355 Y109.363 E11.0631
G1 X107.981 Y108.713 E11.09312
G1 F2700 E6.09312
;MESH:cylinder005cmtolerance.stl
G0 F6000 X115.414 Y115.431
G0 X115.414 Y116.51
G0 X118.818 Y117.278
G0 X119 Y117.904
;TYPE:WALL-INNER
G1 F2700 E11.09312
G1 F1200 X116 Y117.904 E11.1929
G1 X116 Y117.096 E11.21977
G1 X119 Y117.096 E11.31955
G1 X119 Y117.904 E11.34643
G0 F6000 X119.4 Y118.304
G1 F1200 X115.6 Y118.304 E11.47282
G1 X115.6 Y116.696 E11.5263
G1 X119.4 Y116.696 E11.65269
G1 X119.4 Y118.304 E11.70617
G0 F6000 X119.8 Y118.704
;TYPE:WALL-OUTER
G1 F1200 X115.2 Y118.704 E11.85916
G1 X115.2 Y116.296 E11.93926
G1 X119.8 Y116.296 E12.09225
G1 X119.8 Y118.704 E12.17234
G0 F6000 X119.53 Y118.434
G0 X118.89 Y117.514
G0 X118.61 Y117.514
;TYPE:SKIN
G1 F1200 X116.39 Y117.514 E12.24618
G1 X116.39 Y117.486 E12.24711
G1 X118.61 Y117.486 E12.32095
G1 X118.61 Y117.514 E12.32188
G0 F6000 X118.61 Y118.094
;MESH:NONMESH
G0 F300 X118.61 Y118.094 Z0.4
G0 F6000 X116 Y118.404
G0 X116 Y118.934
;TIME_ELAPSED:24.741750
;LAYER:1
M140 S50
M106 S85
;TYPE:WALL-INNER
;MESH:cylinder005cmtolerance.stl
G1 F600 X116 Y116.264 E12.41068
G1 X116 Y116.065 E12.4173
G1 X116.199 Y116.065 E12.42159
G1 X119 Y116.066 E12.51475
G1 X119 Y118.736 E12.60355
G1 X119 Y118.935 E12.61017
G1 X118.801 Y118.935 E12.61445
G1 X116 Y118.934 E12.70761
G0 F7500 X115.6 Y119.334
G1 F600 X115.6 Y115.864 E12.82303
G1 X115.6 Y115.665 E12.82965
G1 X115.799 Y115.665 E12.83393
G1 X119.4 Y115.666 E12.9537
G1 X119.4 Y119.171 E13.07027
G1 X119.4 Y119.335 E13.07573
G1 X119.33 Y119.335 E13.07806
G1 X119.166 Y119.335 E13.08193
G1 X115.6 Y119.334 E13.20053
G0 F7500 X115.2 Y119.734
;TYPE:WALL-OUTER
G1 F600 X115.2 Y115.266 E13.34914
G1 X115.669 Y115.265 E13.36474
G1 X119.8 Y115.266 E13.50214
G1 X119.8 Y119.734 E13.65074
G1 X119.331 Y119.735 E13.66634
G1 X115.2 Y119.734 E13.80374
G0 F7500 X115.47 Y119.464
G0 X116.11 Y118.544
G0 X116.39 Y118.544
;TYPE:SKIN
G1 F600 X116.39 Y116.455 E13.87322
G1 X118.61 Y116.456 E13.94706
G1 X118.61 Y118.545 E14.01654
G1 X116.39 Y118.544 E14.09038
G0 F7500 X116.11 Y118.544
G0 X116.11 Y117.077
G0 X116.55 Y117.077
G1 F600 X117.014 Y116.613 E14.1122
G0 F7500 X117.579 Y116.614
G1 F600 X116.55 Y117.643 E14.1606
G0 F7500 X116.55 Y118.209
G1 F600 X118.144 Y116.615 E14.23558
G0 F7500 X118.448 Y116.876
G1 F600 X116.941 Y118.383 E14.30646
G0 F7500 X117.506 Y118.384
G1 F600 X118.448 Y117.441 E14.3508
G0 F7500 X118.448 Y118.007
G1 F600 X118.071 Y118.385 E14.36855
G0 F7500 X118.07 Y119.124
;MESH:NONMESH
G0 F300 X118.07 Y119.124 Z0.6
G0 F7500 X119.001 Y119.435
G0 X119 Y119.623
;TIME_ELAPSED:31.853173
;LAYER:2
M106 S170
;TYPE:WALL-INNER
;MESH:cylinder005cmtolerance.stl
G1 F600 X118.801 Y119.623 E14.37517
G1 X116 Y119.622 E14.46833
G1 X116 Y115.377 E14.60952
G1 X118.407 Y115.377 E14.68958
G1 X119 Y115.378 E14.7093
G1 X119 Y119.424 E14.84387
G1 X119 Y119.623 E14.84816
G0 F9000 X119.4 Y119.824
G1 F600 X119.4 Y120.023 E14.85477
G1 X119.201 Y120.023 E14.85906
G1 X115.6 Y120.022 E14.97883
G1 X115.6 Y114.977 E15.14662
G1 X118.407 Y114.977 E15.23998
G1 X119.4 Y114.978 E15.27301
G1 X119.4 Y119.824 E15.43419
G0 F9000 X119.8 Y120.423
;TYPE:WALL-OUTER
G1 F600 X115.2 Y120.422 E15.58719
G1 X115.2 Y114.577 E15.78159
G1 X118.407 Y114.577 E15.88826
G1 X119.8 Y114.578 E15.93459
G1 X119.8 Y120.423 E16.12899
G0 F9000 X119.53 Y120.153
G0 X118.609 Y119.512
G0 X118.61 Y119.233
;TYPE:SKIN
G1 F600 X116.39 Y119.232 E16.20283
G1 X116.39 Y115.767 E16.31808
G1 X118.407 Y115.767 E16.38516
G1 X118.61 Y115.768 E16.39192
G1 X118.61 Y119.233 E16.50716
G0 F9000 X118.609 Y119.512
G0 X116.807 Y119.512
G0 X116.808 Y119.071
G1 F600 X116.549 Y118.812 E16.51935
G0 F9000 X116.549 Y118.246
G1 F600 X117.374 Y119.071 E16.55815
G0 F9000 X117.94 Y119.071
G1 F600 X116.549 Y117.68 E16.62358
G0 F9000 X116.549 Y117.115
G1 F600 X118.45 Y119.015 E16.71297
G0 F9000 X118.45 Y118.45
G1 F600 X116.549 Y116.549 E16.80239
G0 F9000 X116.549 Y115.983
G1 F600 X118.45 Y117.884 E16.89181
G0 F9000 X118.45 Y117.318
G1 F600 X117.058 Y115.927 E16.95726
G0 F9000 X117.624 Y115.927
G1 F600 X118.45 Y116.753 E16.99611
G0 F9000 X118.45 Y116.187
G1 F600 X118.19 Y115.927 E17.00834
G0 F9000 X118.19 Y115.187
;MESH:NONMESH
G0 F300 X118.19 Y115.187 Z0.8
G0 F9000 X118.818 Y115.56
G0 X119 Y120.123
G0 X119 Y120.175
;TIME_ELAPSED:41.078210
;LAYER:3
M106 S255
;TYPE:WALL-INNER
;MESH:cylinder005cmtolerance.stl
G1 F600 X118.801 Y120.175 E17.01496
G1 X116 Y120.174 E17.10812
G1 X116 Y114.825 E17.28603
G1 X117.401 Y114.825 E17.33263
G1 X119 Y114.826 E17.38581
G1 X119 Y119.976 E17.5571
G1 X119 Y120.175 E17.56138
G0 F9000 X119.4 Y120.376
G1 F600 X119.4 Y120.575 E17.568
G1 X119.201 Y120.575 E17.57228
G1 X115.6 Y120.574 E17.69205
G1 X115.6 Y114.425 E17.89657
G1 X117.401 Y114.425 E17.95647
G1 X119.4 Y114.426 E18.02296
G1 X119.4 Y120.376 E18.22086
G0 F9000 X119.8 Y120.975
;TYPE:WALL-OUTER
G1 F600 X115.2 Y120.974 E18.37385
G1 X115.2 Y114.025 E18.60498
G1 X117.401 Y114.025 E18.67818
G1 X119.8 Y114.026 E18.75797
G1 X119.8 Y120.975 E18.9891
G0 F9000 X119.53 Y120.705
G0 X118.609 Y120.064
G0 X118.61 Y119.785
;TYPE:SKIN
G1 F600 X116.39 Y119.784 E19.06294
G1 X116.39 Y115.215 E19.2149
G1 X117.401 Y115.215 E19.24853
G1 X118.61 Y115.216 E19.28874
G1 X118.61 Y119.785 E19.44071
G0 F9000 X117.963 Y119.624
