;FLAVOR:Marlin
;TIME:1195
;Filament used: 0.625398m
;Layer height: 0.2
;MINX:97.505
;MINY:97.499
;MINZ:0.2
;MAXX:137.533
;MAXY:137.501
;MAXZ:9
;Generated with Cura_SteamEngine 4.5.0
M140 S50
M105
M190 S50
M104 S200
M105
M109 S200
M82 ;absolute extrusion mode
; Ender 3 Custom Start G-code
G92 E0 ; Reset Extruder
G28 ; Home all axes
G1 Z2.0 F3000 ; Move Z Axis up little to prevent scratching of Heat Bed
G1 X0.1 Y20 Z0.3 F5000.0 ; Move to start position
G1 X0.1 Y200.0 Z0.3 F1500.0 E15 ; Draw the first line
G1 X0.4 Y200.0 Z0.3 F5000.0 ; Move to side a little
G1 X0.4 Y20 Z0.3 F1500.0 E30 ; Draw the second line
G92 E0 ; Reset Extruder
G1 Z2.0 F3000 ; Move Z Axis up little to prevent scratching of Heat Bed
G1 X5 Y20 Z0.3 F5000.0 ; Move over to prevent blob squish
G92 E0
G92 E0
G1 F2700 E-5
;LAYER_COUNT:45
;LAYER:0
M107
G0 F6000 X101.576 Y108.389 Z0.2
;TYPE:SKIRT
G1 F2700 E0
G1 F1200 X102.31 Y107.753 E0.0323
G1 X102.932 Y107.267 E0.05856
G1 X103.601 Y106.846 E0.08485
G1 X104.455 Y106.433 E0.1164
G1 X105.925 Y105.833 E0.16921
G1 X106.033 Y105.48 E0.18148
G1 X106.34 Y104.752 E0.20776
G1 X106.673 Y104.134 E0.23111
G1 X107.144 Y103.348 E0.26159
G1 X107.46 Y102.863 E0.28084
G1 X107.589 Y102.68 E0.28829
G1 X107.867 Y102.309 E0.30371
G1 X108.179 Y101.918 E0.32035
G1 X108.599 Y101.434 E0.34166
G1 X108.746 Y101.278 E0.34879
G1 X109.097 Y100.928 E0.36527
G1 X109.311 Y100.728 E0.37502
G1 X109.636 Y100.441 E0.38944
G1 X109.8 Y100.304 E0.39655
G1 X110.314 Y99.91 E0.41809
G1 X111.116 Y99.346 E0.4507
G1 X111.784 Y98.925 E0.47696
G1 X112.491 Y98.573 E0.50323
G1 X113.146 Y98.323 E0.52654
G1 X113.44 Y98.225 E0.53685
G1 X113.82 Y98.077 E0.55042
G1 X114.569 Y97.827 E0.57668
G1 X115.34 Y97.654 E0.60296
G1 X116.266 Y97.552 E0.63395
G1 X117.12 Y97.509 E0.66239
G1 X117.512 Y97.499 E0.67543
G1 X117.796 Y97.499 E0.68487
G1 X118.429 Y97.525 E0.70594
G1 X118.773 Y97.553 E0.71742
G1 X119.303 Y97.614 E0.73517
G1 X119.575 Y97.655 E0.74432
G1 X120.018 Y97.735 E0.75929
G1 X120.384 Y97.812 E0.77173
G1 X121.054 Y97.984 E0.79474
G1 X121.408 Y98.092 E0.80705
G1 X121.93 Y98.272 E0.82541
G1 X122.146 Y98.355 E0.83311
G1 X122.57 Y98.532 E0.84839
G1 X122.753 Y98.615 E0.85507
G1 X123.249 Y98.858 E0.87344
G1 X123.647 Y99.074 E0.8885
G1 X123.828 Y99.179 E0.89546
G1 X124.098 Y99.343 E0.90597
G1 X124.452 Y99.568 E0.91992
G1 X125.068 Y100.003 E0.945
G1 X125.255 Y100.149 E0.9529
G1 X125.713 Y100.535 E0.97282
G1 X126.159 Y100.942 E0.9929
G1 X126.677 Y101.462 E1.01731
G1 X126.844 Y101.646 E1.02558
G1 X127.199 Y102.066 E1.04387
G1 X127.42 Y102.347 E1.05576
G1 X127.691 Y102.713 E1.0709
G1 X127.833 Y102.917 E1.07917
G1 X128.187 Y103.474 E1.10112
G1 X128.333 Y103.727 E1.11084
G1 X128.593 Y104.217 E1.12929
G1 X129.039 Y105.135 E1.16323
G1 X129.348 Y105.862 E1.18951
G1 X129.848 Y106.036 E1.20711
G1 X130.575 Y106.344 E1.23337
G1 X131.268 Y106.724 E1.25966
G1 X132.029 Y107.258 E1.29058
G1 X133.353 Y108.31 E1.34683
G1 X133.946 Y108.832 E1.3731
G1 X134.483 Y109.411 E1.39937
G1 X134.866 Y109.909 E1.42026
G1 X135.849 Y111.297 E1.47683
G1 X136.273 Y111.964 E1.50312
G1 X136.626 Y112.67 E1.52938
G1 X136.907 Y113.408 E1.55564
G1 X137.111 Y114.171 E1.58191
G1 X137.197 Y114.646 E1.59796
G1 X137.455 Y116.363 E1.65571
G1 X137.533 Y117.149 E1.68198
G1 X137.531 Y117.939 E1.70826
G1 X137.479 Y118.51 E1.72733
G1 X137.391 Y119.199 E1.75043
G1 X137.303 Y119.737 E1.76856
G1 X137.224 Y120.133 E1.78199
G1 X137.101 Y120.656 E1.79986
G1 X137.021 Y120.939 E1.80965
G1 X136.826 Y121.725 E1.83658
G1 X136.559 Y122.468 E1.86284
G1 X136.218 Y123.18 E1.8891
G1 X135.703 Y124.001 E1.92133
G1 X134.788 Y125.278 E1.97358
G1 X134.297 Y125.896 E1.99983
G1 X133.745 Y126.461 E2.02611
G1 X133.135 Y126.97 E2.05253
G1 X132.438 Y127.494 E2.08153
G1 X131.747 Y127.958 E2.10922
G1 X131.234 Y128.264 E2.12908
G1 X130.634 Y128.587 E2.15175
G1 X129.873 Y128.955 E2.17986
G1 X129.408 Y129.151 E2.19665
G1 X129.387 Y129.239 E2.19966
G1 X129.13 Y129.985 E2.2259
G1 X128.798 Y130.702 E2.25218
G1 X128.396 Y131.382 E2.27845
G1 X127.974 Y131.96 E2.30226
G1 X126.823 Y133.392 E2.36336
G1 X126.297 Y133.981 E2.38963
G1 X125.715 Y134.515 E2.4159
G1 X125.264 Y134.861 E2.4348
G1 X124.578 Y135.349 E2.46281
G1 X123.933 Y135.762 E2.48828
G1 X123.596 Y135.955 E2.5012
G1 X123.102 Y136.215 E2.51976
G1 X122.757 Y136.381 E2.5325
G1 X121.937 Y136.719 E2.562
G1 X121.474 Y136.88 E2.5783
G1 X120.83 Y137.073 E2.60066
G1 X120.495 Y137.158 E2.61216
G1 X120.184 Y137.231 E2.62278
G1 X119.956 Y137.279 E2.63053
G1 X119.354 Y137.381 E2.65084
G1 X119.1 Y137.414 E2.65936
G1 X118.612 Y137.462 E2.67567
G1 X118.281 Y137.484 E2.6867
G1 X117.764 Y137.501 E2.7039
G1 X117.473 Y137.501 E2.71358
G1 X116.845 Y137.476 E2.73449
G1 X116.548 Y137.452 E2.7444
G1 X116.234 Y137.42 E2.7549
G1 X115.938 Y137.384 E2.76481
G1 X115.251 Y137.269 E2.78798
G1 X114.928 Y137.2 E2.79897
G1 X114.216 Y137.012 E2.82346
G1 X113.218 Y136.698 E2.85826
G1 X112.478 Y136.424 E2.8845
G1 X111.769 Y136.075 E2.91079
G1 X111.017 Y135.599 E2.94039
G1 X109.882 Y134.786 E2.98682
G1 X109.264 Y134.294 E3.0131
G1 X108.699 Y133.743 E3.03934
G1 X108.171 Y133.108 E3.06681
G1 X107.684 Y132.455 E3.09391
G1 X107.274 Y131.847 E3.1183
G1 X106.932 Y131.285 E3.14018
G1 X106.523 Y130.519 E3.16906
G1 X106.31 Y130.05 E3.18619
G1 X106 Y129.307 E3.21297
G1 X105.496 Y129.132 E3.23071
G1 X104.833 Y128.827 E3.25499
G1 X103.986 Y128.388 E3.28672
G1 X103.612 Y128.176 E3.30102
G1 X103.37 Y128.053 E3.31004
G1 X102.686 Y127.659 E3.3363
G1 X102.045 Y127.197 E3.36258
G1 X101.454 Y126.673 E3.38885
G1 X100.964 Y126.145 E3.41281
G1 X100.577 Y125.688 E3.43273
G1 X99.99 Y125.022 E3.46225
G1 X99.498 Y124.404 E3.48853
G1 X99.072 Y123.74 E3.51477
G1 X98.714 Y123.035 E3.54106
G1 X98.469 Y122.413 E3.5633
G1 X98.17 Y121.548 E3.59374
G1 X97.93 Y120.824 E3.61911
G1 X97.72 Y120.063 E3.64536
G1 X97.588 Y119.285 E3.67161
G1 X97.54 Y118.665 E3.69229
G1 X97.505 Y117.741 E3.72305
G1 X97.505 Y117.129 E3.7434
G1 X97.539 Y116.292 E3.77126
G1 X97.611 Y115.506 E3.79752
G1 X97.762 Y114.731 E3.82378
G1 X98.081 Y113.738 E3.85847
G1 X98.636 Y112.336 E3.90862
G1 X98.963 Y111.617 E3.93489
G1 X99.361 Y110.936 E3.96113
G1 X99.847 Y110.273 E3.98847
G1 X100.346 Y109.662 E4.0147
G1 X100.737 Y109.218 E4.03438
G1 X101.034 Y108.906 E4.04871
G1 X101.576 Y108.389 E4.07362
G0 F6000 X101.838 Y108.691
G1 F1200 X102.572 Y108.055 E4.10592
G1 X103.179 Y107.583 E4.1315
G1 X103.831 Y107.175 E4.15708
G1 X104.607 Y106.803 E4.1857
G1 X106.251 Y106.132 E4.24476
G1 X106.416 Y105.597 E4.26338
G1 X106.717 Y104.89 E4.28894
G1 X107.016 Y104.339 E4.30979
G1 X107.487 Y103.553 E4.34027
G1 X107.787 Y103.093 E4.35853
G1 X107.916 Y102.91 E4.36598
G1 X108.18 Y102.558 E4.38062
G1 X108.492 Y102.167 E4.39725
G1 X108.89 Y101.708 E4.41746
G1 X109.037 Y101.552 E4.42459
G1 X109.37 Y101.221 E4.4402
G1 X109.584 Y101.021 E4.44995
G1 X109.893 Y100.748 E4.46366
G1 X110.057 Y100.611 E4.47077
G1 X110.544 Y100.237 E4.49119
G1 X111.346 Y99.673 E4.5238
G1 X111.998 Y99.264 E4.5494
G1 X112.688 Y98.924 E4.57498
G1 X113.272 Y98.703 E4.59575
G1 X113.563 Y98.606 E4.60596
G1 X113.966 Y98.449 E4.62034
G1 X114.696 Y98.207 E4.64592
G1 X115.447 Y98.042 E4.67149
G1 X116.286 Y97.951 E4.69956
G1 X117.14 Y97.908 E4.728
G1 X117.512 Y97.899 E4.74038
G1 X117.796 Y97.899 E4.74983
G1 X118.396 Y97.923 E4.7698
G1 X118.74 Y97.951 E4.78128
G1 X119.243 Y98.01 E4.79812
G1 X119.515 Y98.051 E4.80727
G1 X119.935 Y98.127 E4.82147
G1 X120.301 Y98.204 E4.83391
G1 X120.937 Y98.367 E4.85574
G1 X121.291 Y98.475 E4.86805
G1 X121.786 Y98.645 E4.88546
G1 X122.002 Y98.728 E4.89316
G1 X122.405 Y98.897 E4.90769
G1 X122.588 Y98.98 E4.91437
G1 X122.867 Y99.113 E4.92465
G1 X123.069 Y99.215 E4.93218
G1 X123.446 Y99.42 E4.94645
G1 X123.627 Y99.525 E4.95341
G1 X123.883 Y99.681 E4.96338
G1 X124.237 Y99.906 E4.97734
G1 X124.822 Y100.318 E5.00113
G1 X125.009 Y100.464 E5.00903
G1 X125.443 Y100.831 E5.02793
G1 X125.889 Y101.238 E5.04801
G1 X126.381 Y101.731 E5.07118
G1 X126.548 Y101.915 E5.07944
G1 X126.885 Y102.313 E5.09679
G1 X127.106 Y102.594 E5.10868
G1 X127.362 Y102.941 E5.12302
G1 X127.504 Y103.145 E5.13129
G1 X127.84 Y103.674 E5.15213
G1 X127.986 Y103.927 E5.16185
G1 X128.233 Y104.392 E5.17936
G1 X128.679 Y105.31 E5.2133
G1 X128.979 Y106.019 E5.23891
G1 X129.036 Y106.205 E5.24538
G1 X129.73 Y106.419 E5.26953
G1 X130.437 Y106.722 E5.29512
G1 X131.109 Y107.096 E5.3207
G1 X131.781 Y107.571 E5.34807
G1 X133.105 Y108.623 E5.40431
G1 X133.681 Y109.132 E5.42988
G1 X134.202 Y109.699 E5.45549
G1 X134.54 Y110.14 E5.47397
G1 X135.523 Y111.528 E5.53054
G1 X135.934 Y112.178 E5.55612
G1 X136.276 Y112.867 E5.5817
G1 X136.544 Y113.588 E5.60729
G1 X136.802 Y114.705 E5.64542
G1 X137.06 Y116.422 E5.70316
G1 X137.134 Y117.188 E5.72876
G1 X137.129 Y117.957 E5.75434
G1 X137.082 Y118.46 E5.77114
G1 X136.994 Y119.149 E5.79424
G1 X136.911 Y119.659 E5.81143
G1 X136.832 Y120.055 E5.82486
G1 X136.715 Y120.551 E5.84181
G1 X136.634 Y120.838 E5.85173
G1 X136.438 Y121.628 E5.8788
G1 X136.174 Y122.35 E5.90437
G1 X135.837 Y123.042 E5.92997
G1 X135.378 Y123.768 E5.95854
G1 X134.463 Y125.045 E6.01079
G1 X133.983 Y125.646 E6.03637
G1 X133.444 Y126.194 E6.06194
G1 X132.895 Y126.65 E6.08567
G1 X132.198 Y127.174 E6.11468
G1 X131.542 Y127.614 E6.14095
G1 X131.029 Y127.92 E6.16082
G1 X130.46 Y128.227 E6.18232
G1 X129.699 Y128.595 E6.21043
G1 X129.064 Y128.862 E6.23335
G1 X128.997 Y129.147 E6.24308
G1 X128.744 Y129.873 E6.26865
G1 X128.416 Y130.569 E6.29424
G1 X128.018 Y131.227 E6.31982
G1 X127.662 Y131.709 E6.33975
G1 X126.511 Y133.141 E6.40086
G1 X125.998 Y133.715 E6.42646
G1 X125.429 Y134.232 E6.45203
G1 X125.033 Y134.535 E6.46862
G1 X124.347 Y135.023 E6.49662
G1 X123.735 Y135.414 E6.52077
G1 X123.398 Y135.607 E6.53369
G1 X122.928 Y135.854 E6.55135
G1 X122.583 Y136.02 E6.56408
G1 X121.805 Y136.341 E6.59208
G1 X121.342 Y136.502 E6.60838
G1 X120.732 Y136.686 E6.62957
G1 X120.397 Y136.771 E6.64107
G1 X119.873 Y136.887 E6.65892
G1 X119.302 Y136.984 E6.67818
G1 X119.048 Y137.017 E6.6867
G1 X118.586 Y137.063 E6.70214
G1 X118.255 Y137.085 E6.71318
G1 X117.764 Y137.101 E6.72951
G1 X117.473 Y137.101 E6.73919
G1 X116.877 Y137.077 E6.75903
G1 X116.58 Y137.053 E6.76894
G1 X116.283 Y137.023 E6.77887
G1 X115.987 Y136.987 E6.78879
G1 X115.334 Y136.878 E6.81081
G1 X115.011 Y136.809 E6.82179
G1 X114.336 Y136.631 E6.84501
G1 X113.338 Y136.317 E6.87981
G1 X112.617 Y136.048 E6.9054
G1 X111.928 Y135.706 E6.93099
G1 X111.25 Y135.274 E6.95773
G1 X110.115 Y134.461 E7.00416
G1 X109.514 Y133.981 E7.02975
G1 X108.966 Y133.442 E7.05531
G1 X108.492 Y132.869 E7.08004
G1 X108.005 Y132.216 E7.10714
G1 X107.615 Y131.639 E7.1303
G1 X107.273 Y131.077 E7.15218
G1 X106.885 Y130.351 E7.17956
G1 X106.678 Y129.895 E7.19622
G1 X106.392 Y129.218 E7.22066
G1 X106.31 Y128.992 E7.22866
G1 X105.609 Y128.746 E7.25337
G1 X105.017 Y128.472 E7.27506
G1 X104.17 Y128.033 E7.3068
G1 X103.806 Y127.827 E7.32071
G1 X103.552 Y127.697 E7.3302
G1 X102.886 Y127.312 E7.35578
G1 X102.264 Y126.86 E7.38136
G1 X101.692 Y126.346 E7.40693
G1 X101.269 Y125.887 E7.42769
G1 X100.849 Y125.391 E7.44931
G1 X100.29 Y124.757 E7.47742
G1 X99.812 Y124.155 E7.50299
G1 X99.399 Y123.506 E7.52858
G1 X99.055 Y122.818 E7.55416
G1 X98.847 Y122.282 E7.57328
G1 X98.55 Y121.422 E7.60354
G1 X98.31 Y120.698 E7.62891
G1 X98.106 Y119.957 E7.65448
G1 X97.98 Y119.198 E7.68007
G1 X97.939 Y118.65 E7.69834
G1 X97.904 Y117.726 E7.7291
G1 X97.905 Y117.146 E7.74839
G1 X97.939 Y116.309 E7.77625
G1 X98.01 Y115.543 E7.80184
G1 X98.16 Y114.788 E7.82744
G1 X98.453 Y113.885 E7.85901
G1 X99.008 Y112.483 E7.90917
G1 X99.327 Y111.784 E7.93472
G1 X99.718 Y111.121 E7.96032
G1 X100.157 Y110.526 E7.98492
G1 X100.656 Y109.915 E8.01115
G1 X101.027 Y109.494 E8.02982
G1 X101.324 Y109.182 E8.04414
G1 X101.838 Y108.691 E8.06779
G0 F6000 X102.1 Y108.994
G1 F1200 X102.834 Y108.358 E8.10009
G1 X103.425 Y107.899 E8.12498
G1 X104.061 Y107.505 E8.14986
G1 X104.759 Y107.173 E8.17557
G1 X106.577 Y106.431 E8.24088
G1 X106.798 Y105.716 E8.26577
G1 X107.095 Y105.029 E8.29066
G1 X107.36 Y104.545 E8.30902
G1 X107.831 Y103.759 E8.33949
G1 X108.114 Y103.324 E8.35675
G1 X108.243 Y103.141 E8.3642
G1 X108.492 Y102.808 E8.37803
G1 X108.804 Y102.417 E8.39467
G1 X109.181 Y101.982 E8.41381
G1 X109.328 Y101.826 E8.42094
G1 X109.643 Y101.513 E8.43571
G1 X109.857 Y101.313 E8.44545
G1 X110.149 Y101.055 E8.45841
G1 X110.313 Y100.918 E8.46552
G1 X110.774 Y100.564 E8.48485
G1 X111.576 Y100 E8.51746
G1 X112.21 Y99.603 E8.54234
G1 X112.883 Y99.276 E8.56723
G1 X113.398 Y99.082 E8.58553
G1 X113.714 Y98.977 E8.59661
G1 X114.111 Y98.822 E8.61078
G1 X114.821 Y98.587 E8.63566
G1 X115.553 Y98.43 E8.66056
G1 X116.306 Y98.351 E8.68574
G1 X117.16 Y98.308 E8.71418
G1 X117.512 Y98.299 E8.72589
G1 X117.796 Y98.299 E8.73534
G1 X118.364 Y98.322 E8.75425
G1 X118.708 Y98.35 E8.76573
G1 X119.183 Y98.405 E8.78163
G1 X119.455 Y98.446 E8.79078
G1 X119.853 Y98.518 E8.80423
G1 X120.219 Y98.595 E8.81667
G1 X120.821 Y98.75 E8.83735
G1 X121.175 Y98.858 E8.84966
G1 X121.643 Y99.019 E8.86612
G1 X121.859 Y99.102 E8.87381
G1 X122.239 Y99.261 E8.88751
G1 X122.422 Y99.344 E8.8942
G1 X122.686 Y99.47 E8.90393
G1 X122.888 Y99.572 E8.91145
G1 X123.246 Y99.766 E8.925
G1 X123.427 Y99.871 E8.93196
G1 X123.669 Y100.018 E8.94137
G1 X124.023 Y100.243 E8.95533
G1 X124.576 Y100.633 E8.97783
G1 X124.763 Y100.779 E8.98572
G1 X125.174 Y101.126 E9.00361
G1 X125.62 Y101.533 E9.0237
G1 X126.084 Y101.999 E9.04557
G1 X126.251 Y102.183 E9.05383
G1 X126.57 Y102.561 E9.07028
G1 X126.791 Y102.842 E9.08217
G1 X127.034 Y103.17 E9.09575
G1 X127.176 Y103.374 E9.10402
G1 X127.494 Y103.874 E9.12373
G1 X127.64 Y104.127 E9.13344
G1 X127.873 Y104.567 E9.15
G1 X128.319 Y105.485 E9.18395
G1 X128.61 Y106.174 E9.20882
G1 X128.718 Y106.534 E9.22132
G1 X128.897 Y106.579 E9.22746
G1 X129.611 Y106.802 E9.25234
G1 X130.297 Y107.099 E9.2772
G1 X130.948 Y107.468 E9.30209
G1 X131.532 Y107.884 E9.32594
G1 X132.856 Y108.936 E9.38219
G1 X133.416 Y109.432 E9.40707
G1 X133.92 Y109.985 E9.43195
G1 X134.213 Y110.371 E9.44807
G1 X135.196 Y111.759 E9.50464
G1 X135.596 Y112.392 E9.52955
G1 X135.925 Y113.064 E9.55443
G1 X136.181 Y113.767 E9.57932
G1 X136.406 Y114.765 E9.61334
G1 X136.664 Y116.482 E9.67109
G1 X136.736 Y117.226 E9.69595
G1 X136.727 Y117.975 E9.72087
G1 X136.686 Y118.409 E9.73537
G1 X136.598 Y119.098 E9.75847
G1 X136.519 Y119.58 E9.77471
G1 X136.44 Y119.976 E9.78814
G1 X136.329 Y120.446 E9.80421
G1 X136.244 Y120.744 E9.81451
G1 X136.232 Y120.805 E9.81658
G1 X136.049 Y121.53 E9.84145
G1 X135.79 Y122.232 E9.86634
G1 X135.457 Y122.902 E9.89122
G1 X135.053 Y123.535 E9.9162
G1 X134.138 Y124.812 E9.96845
G1 X133.671 Y125.396 E9.99332
G1 X133.143 Y125.927 E10.01823
G1 X132.654 Y126.33 E10.0393
G1 X131.957 Y126.854 E10.0683
G1 X131.337 Y127.271 E10.09316
G1 X130.824 Y127.577 E10.11302
G1 X130.285 Y127.867 E10.13338
G1 X129.524 Y128.235 E10.1615
G1 X128.835 Y128.524 E10.18635
G1 X128.726 Y128.556 E10.19012
G1 X128.608 Y129.054 E10.20715
G1 X128.358 Y129.76 E10.23206
G1 X128.034 Y130.434 E10.25693
G1 X127.641 Y131.07 E10.2818
G1 X127.35 Y131.458 E10.29793
G1 X126.199 Y132.89 E10.35903
G1 X125.7 Y133.448 E10.38393
G1 X125.144 Y133.948 E10.4088
G1 X124.801 Y134.209 E10.42314
G1 X124.115 Y134.697 E10.45114
G1 X123.536 Y135.067 E10.47399
G1 X123.199 Y135.26 E10.48691
G1 X122.755 Y135.494 E10.5036
G1 X122.41 Y135.66 E10.51634
G1 X121.674 Y135.964 E10.54282
G1 X121.211 Y136.125 E10.55913
G1 X120.634 Y136.298 E10.57916
G1 X120.299 Y136.383 E10.59066
G1 X119.791 Y136.496 E10.60796
G1 X119.251 Y136.588 E10.62618
G1 X118.997 Y136.621 E10.6347
G1 X118.559 Y136.664 E10.64934
G1 X118.228 Y136.686 E10.66037
G1 X117.764 Y136.701 E10.67582
G1 X117.473 Y136.701 E10.68549
G1 X116.909 Y136.678 E10.70427
G1 X116.612 Y136.654 E10.71418
G1 X116.331 Y136.626 E10.72357
G1 X116.035 Y136.59 E10.73349
G1 X115.418 Y136.487 E10.75429
G1 X115.095 Y136.418 E10.76528
G1 X114.456 Y136.249 E10.78726
G1 X113.458 Y135.935 E10.82206
G1 X112.758 Y135.673 E10.84692
G1 X112.089 Y135.337 E10.87182
G1 X111.483 Y134.949 E10.89575
G1 X110.348 Y134.136 E10.94219
G1 X109.764 Y133.668 E10.96708
G1 X109.233 Y133.141 E10.99196
G1 X108.813 Y132.63 E11.01396
