;FLAVOR:Marlin
;TIME:1802
;Filament used: 0.683177m
;Layer height: 0.2
;MINX:97.411
;MINY:97.408
;MINZ:0.2
;MAXX:137.597
;MAXY:137.594
;MAXZ:28.4
;Generated with Cura_SteamEngine 4.5.0
M140 S50
M105
M190 S50
M104 S200
M105
M109 S200
M82 ;absolute extrusion mode
; Ender 3 Custom Start G-code
G92 E0 ; Reset Extruder
G28 ; Home all axes
G1 Z2.0 F3000 ; Move Z Axis up little to prevent scratching of Heat Bed
G1 X0.1 Y20 Z0.3 F5000.0 ; Move to start position
G1 X0.1 Y200.0 Z0.3 F1500.0 E15 ; Draw the first line
G1 X0.4 Y200.0 Z0.3 F5000.0 ; Move to side a little
G1 X0.4 Y20 Z0.3 F1500.0 E30 ; Draw the second line
G92 E0 ; Reset Extruder
G1 Z2.0 F3000 ; Move Z Axis up little to prevent scratching of Heat Bed
G1 X5 Y20 Z0.3 F5000.0 ; Move over to prevent blob squish
G92 E0
G92 E0
G1 F2700 E-5
;LAYER_COUNT:142
;LAYER:0
M107
G0 F6000 X103.523 Y103.066 Z0.2
;TYPE:SKIRT
G1 F2700 E0
G1 F1200 X104.443 Y102.228 E0.04139
G1 X105.059 Y101.721 E0.06793
G1 X106.063 Y100.979 E0.10945
G1 X106.732 Y100.536 E0.13614
G1 X107.812 Y99.898 E0.17786
G1 X108.453 Y99.559 E0.20197
G1 X109.486 Y99.072 E0.23996
G1 X110.188 Y98.782 E0.26522
G1 X111.302 Y98.384 E0.30457
G1 X112.04 Y98.16 E0.33022
G1 X113.22 Y97.866 E0.37067
G1 X113.954 Y97.721 E0.39555
G1 X115.126 Y97.546 E0.43496
G1 X115.898 Y97.469 E0.46077
G1 X117.149 Y97.408 E0.50242
G1 X117.927 Y97.409 E0.5283
G1 X119.122 Y97.47 E0.5681
G1 X119.897 Y97.549 E0.59401
G1 X121.139 Y97.738 E0.63579
G1 X121.856 Y97.881 E0.66011
G1 X122.945 Y98.153 E0.69744
G1 X123.687 Y98.378 E0.72323
G1 X124.856 Y98.797 E0.76454
G1 X125.563 Y99.091 E0.79
G1 X126.661 Y99.611 E0.83041
G1 X127.34 Y99.975 E0.85603
G1 X128.335 Y100.573 E0.89465
G1 X128.982 Y101.006 E0.92054
G1 X130.018 Y101.779 E0.96353
G1 X130.634 Y102.291 E0.99017
G1 X131.559 Y103.142 E1.03198
G1 X132.052 Y103.638 E1.05524
G1 X132.774 Y104.433 E1.09096
G1 X133.295 Y105.071 E1.11835
G1 X134.078 Y106.141 E1.16245
G1 X134.49 Y106.764 E1.18729
G1 X135.069 Y107.739 E1.22501
G1 X135.406 Y108.372 E1.24886
G1 X135.911 Y109.434 E1.28797
G1 X136.21 Y110.154 E1.3139
G1 X136.619 Y111.296 E1.35425
G1 X136.842 Y112.031 E1.3798
G1 X137.135 Y113.201 E1.41991
G1 X137.283 Y113.941 E1.44501
G1 X137.458 Y115.11 E1.48433
G1 X137.534 Y115.877 E1.50996
G1 X137.596 Y117.121 E1.55139
G1 X137.597 Y117.886 E1.57683
G1 X137.541 Y119.042 E1.61533
G1 X137.467 Y119.797 E1.64056
G1 X137.284 Y121.045 E1.68251
G1 X137.131 Y121.817 E1.70869
G1 X136.837 Y122.985 E1.74875
G1 X136.613 Y123.72 E1.7743
G1 X136.201 Y124.866 E1.81481
G1 X135.91 Y125.566 E1.84002
G1 X135.406 Y126.63 E1.87918
G1 X135.052 Y127.293 E1.90418
G1 X134.422 Y128.347 E1.94502
G1 X133.957 Y129.039 E1.97275
G1 X133.19 Y130.057 E2.01514
G1 X132.729 Y130.613 E2.03916
G1 X131.939 Y131.481 E2.0782
G1 X131.369 Y132.046 E2.1049
G1 X130.444 Y132.873 E2.14616
G1 X129.893 Y133.322 E2.1698
G1 X128.994 Y133.989 E2.20704
G1 X128.337 Y134.427 E2.2333
G1 X127.259 Y135.069 E2.27503
G1 X126.596 Y135.421 E2.3
G1 X125.517 Y135.93 E2.33968
G1 X124.812 Y136.222 E2.36506
G1 X123.703 Y136.618 E2.40422
G1 X122.98 Y136.837 E2.42935
G1 X121.837 Y137.124 E2.46855
G1 X121.106 Y137.271 E2.49335
G1 X119.905 Y137.453 E2.53375
G1 X119.126 Y137.531 E2.55979
G1 X117.889 Y137.593 E2.60098
G1 X117.121 Y137.594 E2.62653
G1 X115.945 Y137.537 E2.66569
G1 X115.175 Y137.461 E2.69142
G1 X113.932 Y137.276 E2.73322
G1 X113.18 Y137.126 E2.75872
G1 X112.049 Y136.842 E2.79751
G1 X111.33 Y136.624 E2.8225
G1 X110.18 Y136.214 E2.8631
G1 X109.477 Y135.924 E2.8884
G1 X108.421 Y135.427 E2.92721
G1 X107.742 Y135.065 E2.95281
G1 X106.651 Y134.413 E2.99508
G1 X106.004 Y133.982 E3.02094
G1 X105.066 Y133.286 E3.05979
G1 X104.471 Y132.797 E3.0854
G1 X103.547 Y131.958 E3.12691
G1 X103.007 Y131.417 E3.15234
G1 X102.215 Y130.542 E3.19159
G1 X101.746 Y129.972 E3.21614
G1 X101.056 Y129.047 E3.25452
G1 X100.621 Y128.398 E3.28051
G1 X99.948 Y127.277 E3.324
G1 X99.58 Y126.589 E3.34995
G1 X99.074 Y125.516 E3.3894
G1 X98.784 Y124.813 E3.4147
G1 X98.4 Y123.738 E3.45267
G1 X98.183 Y123.027 E3.47739
G1 X97.881 Y121.833 E3.51835
G1 X97.729 Y121.078 E3.54397
G1 X97.546 Y119.859 E3.58497
G1 X97.47 Y119.089 E3.6107
G1 X97.411 Y117.903 E3.6502
G1 X97.411 Y117.115 E3.67641
G1 X97.475 Y115.869 E3.7179
G1 X97.548 Y115.131 E3.74257
G1 X97.718 Y113.978 E3.78133
G1 X97.866 Y113.232 E3.80663
G1 X98.156 Y112.067 E3.84656
G1 X98.383 Y111.318 E3.87259
G1 X98.809 Y110.13 E3.91457
G1 X99.113 Y109.401 E3.94084
G1 X99.637 Y108.304 E3.98127
G1 X99.982 Y107.661 E4.00554
G1 X100.575 Y106.67 E4.04395
G1 X101.011 Y106.017 E4.07007
G1 X101.748 Y105.027 E4.11112
G1 X102.215 Y104.458 E4.1356
G1 X102.985 Y103.605 E4.17382
G1 X103.523 Y103.066 E4.19915
G0 F6000 X103.792 Y103.361
G1 F1200 X104.712 Y102.523 E4.24054
G1 X105.297 Y102.043 E4.26571
G1 X106.301 Y101.301 E4.30723
G1 X106.935 Y100.881 E4.33253
G1 X108.015 Y100.243 E4.37425
G1 X108.623 Y99.921 E4.39713
G1 X109.656 Y99.434 E4.43511
G1 X110.322 Y99.158 E4.45909
G1 X111.436 Y98.76 E4.49844
G1 X112.137 Y98.549 E4.52279
G1 X113.317 Y98.255 E4.56323
G1 X114.013 Y98.116 E4.58684
G1 X115.185 Y97.941 E4.62625
G1 X115.918 Y97.869 E4.65075
G1 X117.169 Y97.808 E4.69241
G1 X117.906 Y97.809 E4.71692
G1 X119.101 Y97.87 E4.75672
G1 X119.837 Y97.944 E4.78132
G1 X121.079 Y98.133 E4.82311
G1 X121.759 Y98.27 E4.84618
G1 X122.848 Y98.542 E4.88351
G1 X123.552 Y98.755 E4.90797
G1 X124.721 Y99.174 E4.94928
G1 X125.391 Y99.452 E4.9734
G1 X126.489 Y99.972 E5.01381
G1 X127.134 Y100.317 E5.03814
G1 X128.129 Y100.915 E5.07675
G1 X128.742 Y101.327 E5.10132
G1 X129.778 Y102.1 E5.14431
G1 X130.363 Y102.585 E5.16958
G1 X131.288 Y103.436 E5.21139
G1 X131.756 Y103.907 E5.23347
G1 X132.478 Y104.702 E5.26919
G1 X132.972 Y105.307 E5.29517
G1 X133.755 Y106.377 E5.33927
G1 X134.146 Y106.969 E5.36287
G1 X134.725 Y107.944 E5.40058
G1 X135.045 Y108.544 E5.4232
G1 X135.55 Y109.606 E5.46231
G1 X135.834 Y110.289 E5.48691
G1 X136.243 Y111.431 E5.52726
G1 X136.454 Y112.128 E5.55148
G1 X136.747 Y113.298 E5.5916
G1 X136.887 Y114 E5.6154
G1 X137.062 Y115.169 E5.65472
G1 X137.135 Y115.897 E5.67905
G1 X137.197 Y117.141 E5.72048
G1 X137.197 Y117.867 E5.74463
G1 X137.141 Y119.023 E5.78312
G1 X137.072 Y119.739 E5.80705
G1 X136.889 Y120.987 E5.849
G1 X136.743 Y121.719 E5.87382
G1 X136.449 Y122.887 E5.91388
G1 X136.237 Y123.585 E5.93815
G1 X135.825 Y124.731 E5.97865
G1 X135.549 Y125.395 E6.00257
G1 X135.045 Y126.459 E6.04173
G1 X134.709 Y127.088 E6.06544
G1 X134.079 Y128.142 E6.10628
G1 X133.637 Y128.798 E6.13259
G1 X132.87 Y129.816 E6.17499
G1 X132.433 Y130.344 E6.19778
G1 X131.643 Y131.212 E6.23682
G1 X131.102 Y131.748 E6.26215
G1 X130.177 Y132.575 E6.30342
G1 X129.654 Y133.001 E6.32585
G1 X128.755 Y133.668 E6.36309
G1 X128.132 Y134.083 E6.38798
G1 X127.054 Y134.725 E6.42971
G1 X126.425 Y135.06 E6.45342
G1 X125.346 Y135.569 E6.4931
G1 X124.677 Y135.845 E6.51717
G1 X123.568 Y136.241 E6.55633
G1 X122.882 Y136.449 E6.58018
G1 X121.739 Y136.736 E6.61937
G1 X121.046 Y136.875 E6.64288
G1 X119.845 Y137.057 E6.68328
G1 X119.106 Y137.132 E6.70799
G1 X117.869 Y137.194 E6.74918
G1 X117.141 Y137.194 E6.7734
G1 X115.965 Y137.137 E6.81256
G1 X115.234 Y137.065 E6.83699
G1 X113.991 Y136.88 E6.87878
G1 X113.278 Y136.738 E6.90296
G1 X112.147 Y136.454 E6.94175
G1 X111.464 Y136.247 E6.96549
G1 X110.314 Y135.837 E7.00609
G1 X109.648 Y135.563 E7.03005
G1 X108.592 Y135.066 E7.06887
G1 X107.947 Y134.722 E7.09318
G1 X106.856 Y134.07 E7.13545
G1 X106.242 Y133.661 E7.15999
G1 X105.304 Y132.965 E7.19884
G1 X104.739 Y132.501 E7.22315
G1 X103.815 Y131.662 E7.26467
G1 X103.304 Y131.149 E7.28875
G1 X102.512 Y130.274 E7.328
G1 X102.066 Y129.733 E7.35132
G1 X101.376 Y128.808 E7.3897
G1 X100.964 Y128.192 E7.41435
G1 X100.291 Y127.071 E7.45784
G1 X99.942 Y126.418 E7.48247
G1 X99.436 Y125.345 E7.52192
G1 X99.16 Y124.678 E7.54593
G1 X98.776 Y123.603 E7.5839
G1 X98.571 Y122.929 E7.60733
G1 X98.269 Y121.735 E7.64829
G1 X98.125 Y121.019 E7.67259
G1 X97.942 Y119.8 E7.71358
G1 X97.869 Y119.069 E7.73802
G1 X97.81 Y117.883 E7.77751
G1 X97.811 Y117.135 E7.80239
G1 X97.875 Y115.889 E7.84389
G1 X97.944 Y115.19 E7.86725
G1 X98.114 Y114.037 E7.90601
G1 X98.254 Y113.328 E7.93005
G1 X98.544 Y112.163 E7.96998
G1 X98.759 Y111.453 E7.99466
G1 X99.185 Y110.265 E8.03663
G1 X99.474 Y109.573 E8.06157
G1 X99.998 Y108.476 E8.10201
G1 X100.325 Y107.866 E8.12503
G1 X100.918 Y106.875 E8.16344
G1 X101.332 Y106.256 E8.18821
G1 X102.069 Y105.266 E8.22926
G1 X102.512 Y104.726 E8.25249
G1 X103.282 Y103.873 E8.29071
G1 X103.792 Y103.361 E8.31475
G0 F6000 X104.061 Y103.657
G1 F1200 X104.981 Y102.819 E8.35614
G1 X105.535 Y102.365 E8.37996
G1 X106.539 Y101.623 E8.42148
G1 X107.139 Y101.225 E8.44543
G1 X108.219 Y100.587 E8.48715
G1 X108.794 Y100.282 E8.5088
G1 X109.827 Y99.795 E8.54678
G1 X110.457 Y99.535 E8.56945
G1 X111.571 Y99.137 E8.6088
G1 X112.234 Y98.937 E8.63183
G1 X113.414 Y98.643 E8.67228
G1 X114.072 Y98.512 E8.69459
G1 X115.244 Y98.337 E8.734
G1 X115.937 Y98.268 E8.75717
G1 X117.188 Y98.207 E8.79883
G1 X117.886 Y98.208 E8.82204
G1 X119.081 Y98.269 E8.86184
G1 X119.777 Y98.34 E8.88511
G1 X121.019 Y98.529 E8.92689
G1 X121.662 Y98.658 E8.94871
G1 X122.751 Y98.93 E8.98604
G1 X123.417 Y99.131 E9.00918
G1 X124.586 Y99.55 E9.05048
G1 X125.22 Y99.814 E9.07332
G1 X126.318 Y100.334 E9.11373
G1 X126.928 Y100.66 E9.13673
G1 X127.923 Y101.258 E9.17534
G1 X128.503 Y101.648 E9.19859
G1 X129.539 Y102.421 E9.24158
G1 X130.092 Y102.879 E9.26547
G1 X131.017 Y103.73 E9.30727
G1 X131.46 Y104.176 E9.32818
G1 X132.182 Y104.971 E9.3639
G1 X132.649 Y105.543 E9.38846
G1 X133.432 Y106.613 E9.43256
G1 X133.802 Y107.173 E9.45488
G1 X134.381 Y108.148 E9.4926
G1 X134.684 Y108.716 E9.51401
G1 X135.189 Y109.778 E9.55312
G1 X135.457 Y110.424 E9.57638
G1 X135.866 Y111.566 E9.61673
G1 X136.066 Y112.226 E9.63967
G1 X136.359 Y113.396 E9.67978
G1 X136.492 Y114.06 E9.7023
G1 X136.667 Y115.229 E9.74162
G1 X136.735 Y115.917 E9.76461
G1 X136.797 Y117.161 E9.80604
G1 X136.798 Y117.848 E9.82889
G1 X136.742 Y119.004 E9.86738
G1 X136.676 Y119.681 E9.89001
G1 X136.493 Y120.929 E9.93196
G1 X136.355 Y121.622 E9.95546
G1 X136.061 Y122.79 E9.99552
G1 X135.86 Y123.449 E10.01844
G1 X135.448 Y124.595 E10.05894
G1 X135.187 Y125.224 E10.08159
G1 X134.683 Y126.288 E10.12075
G1 X134.365 Y126.882 E10.14316
G1 X133.735 Y127.936 E10.184
G1 X133.318 Y128.557 E10.20888
G1 X132.551 Y129.575 E10.25127
G1 X132.137 Y130.075 E10.27286
G1 X131.347 Y130.943 E10.3119
G1 X130.836 Y131.449 E10.33582
G1 X129.911 Y132.276 E10.37709
G1 X129.416 Y132.68 E10.39834
G1 X128.517 Y133.347 E10.43557
G1 X127.928 Y133.739 E10.4591
G1 X126.85 Y134.381 E10.50083
G1 X126.255 Y134.698 E10.52326
G1 X125.176 Y135.207 E10.56294
G1 X124.543 Y135.468 E10.58571
G1 X123.434 Y135.864 E10.62488
G1 X122.785 Y136.061 E10.64744
G1 X121.642 Y136.348 E10.68663
G1 X120.986 Y136.48 E10.70889
G1 X119.785 Y136.662 E10.74929
G1 X119.086 Y136.732 E10.77266
G1 X117.849 Y136.794 E10.81385
G1 X117.16 Y136.795 E10.83677
G1 X115.984 Y136.738 E10.87593
G1 X115.293 Y136.67 E10.89902
G1 X114.05 Y136.485 E10.94082
G1 X113.375 Y136.35 E10.96371
G1 X112.244 Y136.066 E11.0025
G1 X111.598 Y135.87 E11.02495
G1 X110.448 Y135.46 E11.06556
G1 X109.818 Y135.201 E11.08821
G1 X108.762 Y134.704 E11.12703
G1 X108.152 Y134.379 E11.15002
G1 X107.061 Y133.727 E11.19229
G1 X106.481 Y133.34 E11.21548
G1 X105.543 Y132.644 E11.25433
G1 X105.008 Y132.204 E11.27737
G1 X104.084 Y131.365 E11.31888
G1 X103.6 Y130.88 E11.34167
G1 X102.808 Y130.005 E11.38093
G1 X102.387 Y129.493 E11.40297
G1 X101.697 Y128.568 E11.44136
G1 X101.306 Y127.986 E11.46468
G1 X100.633 Y126.865 E11.50816
G1 X100.304 Y126.248 E11.53142
G1 X99.798 Y125.175 E11.57088
G1 X99.537 Y124.544 E11.59359
G1 X99.153 Y123.469 E11.63156
G1 X98.959 Y122.83 E11.65377
G1 X98.657 Y121.636 E11.69473
G1 X98.521 Y120.959 E11.7177
G1 X98.338 Y119.74 E11.7587
G1 X98.269 Y119.049 E11.78179
G1 X98.21 Y117.863 E11.82129
G1 X98.21 Y117.156 E11.8448
G1 X98.274 Y115.91 E11.8863
G1 X98.34 Y115.248 E11.90843
G1 X98.51 Y114.095 E11.94719
G1 X98.642 Y113.425 E11.9699
G1 X98.932 Y112.26 E12.00983
G1 X99.136 Y111.588 E12.03319
G1 X99.562 Y110.4 E12.07517
G1 X99.835 Y109.746 E12.09874
G1 X100.359 Y108.649 E12.13917
G1 X100.668 Y108.072 E12.16094
G1 X101.261 Y107.081 E12.19936
G1 X101.653 Y106.495 E12.22281
G1 X102.39 Y105.505 E12.26385
G1 X102.809 Y104.995 E12.28581
G1 X103.579 Y104.142 E12.32403
G1 X104.061 Y103.657 E12.34677
G0 F6000 X104.331 Y103.953
G1 F1200 X105.251 Y103.115 E12.38816
G1 X105.772 Y102.686 E12.41061
G1 X106.776 Y101.944 E12.45213
G1 X107.342 Y101.569 E12.47471
G1 X108.422 Y100.931 E12.51643
G1 X108.965 Y100.644 E12.53686
G1 X109.998 Y100.157 E12.57485
G1 X110.591 Y99.912 E12.59619
G1 X111.705 Y99.514 E12.63553
G1 X112.33 Y99.325 E12.65725
G1 X113.51 Y99.031 E12.6977
G1 X114.131 Y98.907 E12.71876
G1 X115.303 Y98.732 E12.75817
G1 X115.957 Y98.668 E12.78003
G1 X117.208 Y98.607 E12.82169
G1 X117.865 Y98.608 E12.84354
G1 X119.06 Y98.669 E12.88333
G1 X119.717 Y98.735 E12.9053
G1 X120.959 Y98.924 E12.94708
G1 X121.565 Y99.046 E12.96764
G1 X122.654 Y99.318 E13.00497
G1 X123.282 Y99.508 E13.0268
G1 X124.451 Y99.927 E13.0681
G1 X125.049 Y100.175 E13.08963
G1 X126.147 Y100.695 E13.13004
G1 X126.722 Y101.003 E13.15174
G1 X127.717 Y101.601 E13.19035
G1 X128.264 Y101.968 E13.21226
G1 X129.3 Y102.741 E13.25525
G1 X129.822 Y103.174 E13.2778
G1 X130.747 Y104.025 E13.31961
G1 X131.164 Y104.445 E13.3393
G1 X131.886 Y105.24 E13.37501
G1 X132.326 Y105.779 E13.39816
G1 X133.109 Y106.849 E13.44226
G1 X133.458 Y107.377 E13.46331
G1 X134.037 Y108.352 E13.50102
G1 X134.322 Y108.888 E13.52121
G1 X134.827 Y109.95 E13.56033
G1 X135.081 Y110.559 E13.58227
G1 X135.49 Y111.701 E13.62262
G1 X135.678 Y112.323 E13.64423
G1 X135.971 Y113.493 E13.68435
G1 X136.096 Y114.119 E13.70558
G1 X136.271 Y115.288 E13.74489
G1 X136.336 Y115.936 E13.76655
G1 X136.398 Y117.18 E13.80798
G1 X136.398 Y117.828 E13.82953
G1 X136.342 Y118.984 E13.86803
G1 X136.28 Y119.623 E13.88938
G1 X136.097 Y120.871 E13.93133
G1 X135.967 Y121.524 E13.95348
G1 X135.673 Y122.692 E13.99354
G1 X135.484 Y123.314 E14.01516
G1 X135.072 Y124.46 E14.05566
G1 X134.826 Y125.052 E14.07698
G1 X134.322 Y126.116 E14.11614
G1 X134.022 Y126.677 E14.1373
G1 X133.392 Y127.731 E14.17814
G1 X132.998 Y128.317 E14.20163
G1 X132.231 Y129.335 E14.24402
G1 X131.841 Y129.805 E14.26434
G1 X131.051 Y130.673 E14.30337
G1 X130.569 Y131.151 E14.32595
G1 X129.644 Y131.978 E14.36722
G1 X129.178 Y132.358 E14.38722
G1 X128.279 Y133.025 E14.42445
G1 X127.723 Y133.396 E14.44668
G1 X126.645 Y134.038 E14.48841
G1 X126.084 Y134.336 E14.50954
G1 X125.005 Y134.845 E14.54922
G1 X124.408 Y135.092 E14.57071
G1 X123.299 Y135.488 E14.60988
G1 X122.687 Y135.673 E14.63114
G1 X121.544 Y135.96 E14.67034
G1 X120.926 Y136.084 E14.6913
G1 X119.725 Y136.266 E14.7317
G1 X119.066 Y136.333 E14.75374
G1 X117.829 Y136.395 E14.79493
G1 X117.179 Y136.395 E14.81655
G1 X116.003 Y136.338 E14.85571
G1 X115.351 Y136.274 E14.8775
G1 X114.108 Y136.089 E14.9193
G1 X113.473 Y135.962 E14.94084
G1 X112.342 Y135.678 E14.97962
G1 X111.733 Y135.494 E15.00078
G1 X110.583 Y135.084 E15.04139
G1 X109.988 Y134.839 E15.06279
G1 X108.932 Y134.342 E15.10161
G1 X108.357 Y134.035 E15.12329
G1 X107.266 Y133.383 E15.16556
G1 X106.719 Y133.018 E15.18743
G1 X105.781 Y132.322 E15.22628
G1 X105.277 Y131.908 E15.24797
G1 X104.353 Y131.069 E15.28948
G1 X103.897 Y130.612 E15.31096
G1 X103.105 Y129.737 E15.35021
G1 X102.708 Y129.254 E15.37101
G1 X102.018 Y128.329 E15.40939
G1 X101.649 Y127.78 E15.43139
G1 X100.976 Y126.659 E15.47488
G1 X100.665 Y126.077 E15.49682
G1 X100.159 Y125.004 E15.53628
G1 X99.914 Y124.409 E15.55768
G1 X99.53 Y123.334 E15.59565
G1 X99.346 Y122.732 E15.61659
G1 X99.044 Y121.538 E15.65755
G1 X98.916 Y120.9 E15.67919
G1 X98.733 Y119.681 E15.72019
G1 X98.668 Y119.029 E15.74199
G1 X98.609 Y117.843 E15.78148
G1 X98.61 Y117.176 E15.80367
G1 X98.674 Y115.93 E15.84516
G1 X98.736 Y115.306 E15.86602
G1 X98.906 Y114.153 E15.90478
G1 X99.03 Y113.522 E15.92617
G1 X99.32 Y112.357 E15.9661
G1 X99.512 Y111.723 E15.98813
G1 X99.938 Y110.535 E16.03011
G1 X100.196 Y109.918 E16.05235
