;FLAVOR:Marlin
;TIME:2438
;Filament used: 1.4201m
;Layer height: 0.2
;MINX:99.91
;MINY:89.953
;MINZ:0.2
;MAXX:143.332
;MAXY:133.449
;MAXZ:12.6
;Generated with Cura_SteamEngine 4.5.0
M140 S50
M105
M190 S50
M104 S200
M105
M109 S200
M82 ;absolute extrusion mode
; Ender 3 Custom Start G-code
G92 E0 ; Reset Extruder
G28 ; Home all axes
G1 Z2.0 F3000 ; Move Z Axis up little to prevent scratching of Heat Bed
G1 X0.1 Y20 Z0.3 F5000.0 ; Move to start position
G1 X0.1 Y200.0 Z0.3 F1500.0 E15 ; Draw the first line
G1 X0.4 Y200.0 Z0.3 F5000.0 ; Move to side a little
G1 X0.4 Y20 Z0.3 F1500.0 E30 ; Draw the second line
G92 E0 ; Reset Extruder
G1 Z2.0 F3000 ; Move Z Axis up little to prevent scratching of Heat Bed
G1 X5 Y20 Z0.3 F5000.0 ; Move over to prevent blob squish
G92 E0
G92 E0
G1 F2700 E-5
;LAYER_COUNT:63
;LAYER:0
M107
G0 F6000 X104.22 Y93.861 Z0.2
;TYPE:SKIRT
G1 F2700 E0
G1 F1200 X104.806 Y93.331 E0.02628
G1 X105.275 Y92.976 E0.04584
G1 X106.127 Y92.381 E0.08041
G1 X107.529 Y91.491 E0.13564
G1 X108.216 Y91.102 E0.1619
G1 X108.939 Y90.785 E0.18816
G1 X109.691 Y90.542 E0.21444
G1 X110.502 Y90.37 E0.24201
G1 X111.714 Y90.18 E0.28282
G1 X112.124 Y90.127 E0.29657
G1 X113.417 Y89.994 E0.3398
G1 X114.206 Y89.953 E0.36608
G1 X114.994 Y89.992 E0.39232
G1 X115.513 Y90.062 E0.40974
G1 X116.479 Y90.225 E0.44232
G1 X117.073 Y90.349 E0.4625
G1 X118.085 Y90.602 E0.4972
G1 X118.84 Y90.832 E0.52345
G1 X119.607 Y91.156 E0.55114
G1 X120.636 Y91.657 E0.58921
G1 X121.356 Y92.056 E0.61659
G1 X121.443 Y92.11 E0.61999
G1 X121.804 Y91.851 E0.63477
G1 X122.489 Y91.458 E0.66104
G1 X123.21 Y91.136 E0.6873
G1 X123.818 Y90.929 E0.70866
G1 X124.236 Y90.806 E0.72315
G1 X124.611 Y90.66 E0.73654
G1 X125.511 Y90.421 E0.76751
G1 X126.614 Y90.197 E0.80495
G1 X127.394 Y90.079 E0.83118
G1 X128.166 Y90.041 E0.85689
G1 X129.349 Y90.041 E0.89624
G1 X129.975 Y90.066 E0.91708
G1 X130.484 Y90.107 E0.93406
G1 X130.843 Y90.144 E0.94606
G1 X131.778 Y90.263 E0.97741
G1 X132.555 Y90.403 E1.00367
G1 X133.314 Y90.62 E1.02993
G1 X133.907 Y90.85 E1.05108
G1 X134.736 Y91.211 E1.08116
G1 X135.013 Y91.338 E1.09129
G1 X135.593 Y91.618 E1.11271
G1 X136.286 Y91.997 E1.13898
G1 X136.916 Y92.428 E1.16437
G1 X137.771 Y93.079 E1.20011
G1 X137.946 Y93.219 E1.20757
G1 X138.213 Y93.443 E1.21916
G1 X138.431 Y93.634 E1.2288
G1 X138.938 Y94.121 E1.25218
G1 X139.683 Y94.903 E1.2881
G1 X140.407 Y95.783 E1.32601
G1 X140.621 Y96.086 E1.33834
G1 X140.857 Y96.441 E1.35252
G1 X141.66 Y97.721 E1.40278
G1 X142.046 Y98.41 E1.42905
G1 X142.359 Y99.135 E1.45531
G1 X142.598 Y99.888 E1.48159
G1 X142.78 Y100.798 E1.51245
G1 X142.963 Y102.122 E1.55691
G1 X143.015 Y102.612 E1.5733
G1 X143.145 Y104.362 E1.63166
G1 X143.163 Y105.152 E1.65795
G1 X143.102 Y105.939 E1.6842
G1 X142.961 Y106.716 E1.71047
G1 X142.796 Y107.314 E1.7311
G1 X142.325 Y108.788 E1.78257
G1 X142.047 Y109.527 E1.80883
G1 X141.874 Y109.898 E1.82244
G1 X141.535 Y110.577 E1.84768
G1 X141.367 Y110.894 E1.85962
G1 X141.133 Y111.313 E1.87558
G1 X141.199 Y111.414 E1.87959
G1 X141.595 Y112.184 E1.90839
G1 X141.66 Y112.33 E1.91371
G1 X141.91 Y112.809 E1.93168
G1 X142.289 Y113.655 E1.96251
G1 X142.761 Y114.902 E2.00686
G1 X143.003 Y115.654 E2.03313
G1 X143.167 Y116.426 E2.05938
G1 X143.253 Y117.211 E2.08565
G1 X143.265 Y117.637 E2.09982
G1 X143.291 Y117.964 E2.11073
G1 X143.316 Y118.373 E2.12436
G1 X143.331 Y118.827 E2.13947
G1 X143.332 Y119.174 E2.15101
G1 X143.323 Y119.563 E2.16395
G1 X143.3 Y120.014 E2.17897
G1 X143.283 Y120.249 E2.18681
G1 X143.237 Y120.697 E2.20179
G1 X143.101 Y121.737 E2.23667
G1 X142.959 Y122.514 E2.26294
G1 X142.677 Y123.448 E2.29539
G1 X142.426 Y124.122 E2.31931
G1 X142.298 Y124.443 E2.33081
G1 X142.012 Y125.118 E2.35519
G1 X141.667 Y125.829 E2.38148
G1 X141.087 Y126.733 E2.4172
G1 X139.977 Y128.224 E2.47902
G1 X139.474 Y128.833 E2.50529
G1 X138.912 Y129.387 E2.53154
G1 X138.52 Y129.714 E2.54852
G1 X137.708 Y130.348 E2.58278
G1 X137.151 Y130.745 E2.60553
G1 X136.969 Y130.863 E2.61275
G1 X136.527 Y131.129 E2.62991
G1 X135.398 Y131.759 E2.67291
G1 X134.69 Y132.109 E2.69918
G1 X133.578 Y132.492 E2.73829
G1 X132.588 Y132.752 E2.77234
G1 X132.134 Y132.857 E2.78784
G1 X130.726 Y133.138 E2.83559
G1 X129.944 Y133.253 E2.86188
G1 X129.155 Y133.289 E2.88815
G1 X128.367 Y133.245 E2.9144
G1 X127.503 Y133.102 E2.94353
G1 X125.954 Y132.757 E2.99631
G1 X125.281 Y132.575 E3.0195
G1 X124.776 Y132.414 E3.03713
G1 X124.415 Y132.29 E3.04982
G1 X124.043 Y132.151 E3.06303
G1 X123.302 Y131.829 E3.0899
G1 X122.485 Y131.423 E3.12025
G1 X122.055 Y131.192 E3.13648
G1 X121.9 Y131.103 E3.14243
G1 X121.38 Y131.426 E3.16279
G1 X120.491 Y131.897 E3.19625
G1 X120.005 Y132.136 E3.21426
G1 X119.716 Y132.267 E3.22482
G1 X119.437 Y132.386 E3.2349
G1 X119.006 Y132.555 E3.2503
G1 X118.654 Y132.681 E3.26274
G1 X118.289 Y132.801 E3.27552
G1 X118.012 Y132.885 E3.28514
G1 X117.634 Y132.989 E3.29818
G1 X117.139 Y133.111 E3.31514
G1 X116.899 Y133.165 E3.32332
G1 X116.215 Y133.287 E3.34643
G1 X115.809 Y133.341 E3.36005
G1 X115.413 Y133.383 E3.3733
G1 X114.933 Y133.422 E3.38931
G1 X114.318 Y133.448 E3.40979
G1 X113.865 Y133.449 E3.42485
G1 X113.423 Y133.437 E3.43956
G1 X112.378 Y133.38 E3.47437
G1 X111.593 Y133.298 E3.50062
G1 X110.82 Y133.136 E3.52689
G1 X110.41 Y133.016 E3.5411
G1 X109.318 Y132.664 E3.57926
G1 X108.324 Y132.266 E3.61487
G1 X107.878 Y132.051 E3.63134
G1 X107.513 Y131.864 E3.64498
G1 X106 Y131.034 E3.70238
G1 X105.328 Y130.619 E3.72865
G1 X104.701 Y130.139 E3.75491
G1 X104.126 Y129.598 E3.78117
G1 X103.609 Y129.001 E3.80744
G1 X103.364 Y128.671 E3.82111
G1 X102.371 Y127.254 E3.87866
G1 X102.171 Y126.954 E3.89065
G1 X101.451 Y125.818 E3.93538
G1 X101.062 Y125.13 E3.96167
G1 X100.745 Y124.407 E3.98793
G1 X100.503 Y123.655 E4.0142
G1 X100.326 Y122.806 E4.04304
G1 X100.174 Y121.796 E4.07702
G1 X100.115 Y121.476 E4.08784
G1 X100.013 Y120.693 E4.1141
G1 X99.989 Y120.188 E4.13092
G1 X99.962 Y118.36 E4.19172
G1 X99.99 Y117.571 E4.21798
G1 X100.098 Y116.789 E4.24424
G1 X100.285 Y116.021 E4.27053
G1 X100.47 Y115.472 E4.2898
G1 X101.142 Y113.705 E4.35267
G1 X101.604 Y112.709 E4.38919
G1 X101.737 Y112.468 E4.39835
G1 X102.083 Y111.901 E4.42044
G1 X102.166 Y111.777 E4.4254
G1 X102.044 Y111.584 E4.433
G1 X101.57 Y110.73 E4.46548
G1 X101.294 Y110.184 E4.48583
G1 X101.147 Y109.862 E4.4976
G1 X101.032 Y109.597 E4.50721
G1 X100.886 Y109.243 E4.51995
G1 X100.753 Y108.897 E4.53228
G1 X100.68 Y108.693 E4.53948
G1 X100.537 Y108.253 E4.55487
G1 X100.454 Y107.969 E4.56471
G1 X100.374 Y107.673 E4.57491
G1 X100.293 Y107.349 E4.58602
G1 X100.154 Y106.662 E4.60933
G1 X100.025 Y105.837 E4.6371
G1 X99.94 Y105.006 E4.66489
G1 X99.922 Y104.631 E4.67737
G1 X99.914 Y104.354 E4.68659
G1 X99.91 Y104.031 E4.69733
G1 X99.919 Y103.542 E4.7136
G1 X99.936 Y103.204 E4.72486
G1 X99.974 Y102.731 E4.74064
G1 X100.025 Y102.274 E4.75594
G1 X100.106 Y101.727 E4.77433
G1 X100.152 Y101.477 E4.78278
G1 X100.224 Y101.128 E4.79463
G1 X100.356 Y100.576 E4.81351
G1 X100.426 Y100.31 E4.82266
G1 X100.586 Y99.78 E4.84107
G1 X100.695 Y99.46 E4.85232
G1 X100.899 Y98.925 E4.87136
G1 X101.173 Y98.28 E4.89467
G1 X101.39 Y97.813 E4.9118
G1 X101.487 Y97.621 E4.91895
G1 X101.709 Y97.212 E4.93443
G1 X101.923 Y96.849 E4.94844
G1 X102.111 Y96.543 E4.96039
G1 X102.367 Y96.153 E4.97591
G1 X102.493 Y95.973 E4.98321
G1 X102.654 Y95.752 E4.99231
G1 X102.865 Y95.472 E5.00397
G1 X103.044 Y95.243 E5.01364
G1 X103.691 Y94.448 E5.04773
G1 X104.22 Y93.861 E5.07401
G0 F6000 X104.517 Y94.129
G1 F1200 X105.09 Y93.616 E5.09959
G1 X105.504 Y93.304 E5.11683
G1 X106.356 Y92.709 E5.1514
G1 X107.743 Y91.829 E5.20603
G1 X108.413 Y91.451 E5.23162
G1 X109.119 Y91.145 E5.25721
G1 X109.852 Y90.913 E5.28278
G1 X110.564 Y90.765 E5.30697
G1 X111.776 Y90.575 E5.34777
G1 X112.165 Y90.525 E5.36082
G1 X113.458 Y90.392 E5.40405
G1 X114.226 Y90.353 E5.42962
G1 X114.994 Y90.394 E5.4552
G1 X115.446 Y90.456 E5.47038
G1 X116.412 Y90.619 E5.50296
G1 X116.976 Y90.737 E5.52213
G1 X117.988 Y90.99 E5.55682
G1 X118.723 Y91.215 E5.58239
G1 X119.432 Y91.516 E5.60801
G1 X120.461 Y92.017 E5.64607
G1 X121.144 Y92.395 E5.67204
G1 X121.453 Y92.594 E5.68426
G1 X122.037 Y92.177 E5.70813
G1 X122.706 Y91.797 E5.73372
G1 X123.41 Y91.488 E5.75929
G1 X123.931 Y91.313 E5.77757
G1 X124.363 Y91.186 E5.79255
G1 X124.756 Y91.034 E5.80656
G1 X125.59 Y90.813 E5.83526
G1 X126.693 Y90.589 E5.87269
G1 X127.454 Y90.475 E5.89828
G1 X128.166 Y90.441 E5.92199
G1 X129.349 Y90.441 E5.96134
G1 X129.943 Y90.465 E5.98111
G1 X130.452 Y90.506 E5.9981
G1 X130.792 Y90.541 E6.00946
G1 X131.727 Y90.66 E6.04081
G1 X132.484 Y90.797 E6.0664
G1 X133.223 Y91.011 E6.09199
G1 X133.747 Y91.216 E6.1107
G1 X134.576 Y91.577 E6.14078
G1 X134.839 Y91.698 E6.15041
G1 X135.419 Y91.978 E6.17183
G1 X136.093 Y92.348 E6.1974
G1 X136.674 Y92.746 E6.22082
G1 X137.521 Y93.392 E6.25625
G1 X137.696 Y93.532 E6.26371
G1 X137.95 Y93.744 E6.27471
G1 X138.168 Y93.935 E6.28435
G1 X138.649 Y94.397 E6.30653
G1 X139.394 Y95.179 E6.34246
G1 X140.08 Y96.014 E6.3784
G1 X140.294 Y96.317 E6.39074
G1 X140.519 Y96.653 E6.40419
G1 X141.322 Y97.933 E6.45445
G1 X141.696 Y98.605 E6.48002
G1 X141.998 Y99.313 E6.50563
G1 X142.226 Y100.047 E6.53119
G1 X142.383 Y100.853 E6.5585
G1 X142.566 Y102.177 E6.60296
G1 X142.616 Y102.642 E6.61851
G1 X142.746 Y104.392 E6.67688
G1 X142.763 Y105.161 E6.70246
G1 X142.7 Y105.927 E6.72802
G1 X142.558 Y106.683 E6.75361
G1 X142.415 Y107.192 E6.77119
G1 X141.944 Y108.666 E6.82266
G1 X141.516 Y109.719 E6.86046
G1 X141.177 Y110.398 E6.88571
G1 X141.018 Y110.699 E6.89703
G1 X140.665 Y111.331 E6.92111
G1 X140.874 Y111.651 E6.93382
G1 X141.229 Y112.347 E6.9598
G1 X141.297 Y112.499 E6.96534
G1 X141.555 Y112.994 E6.98391
G1 X141.915 Y113.796 E7.01315
G1 X142.387 Y115.043 E7.05749
G1 X142.621 Y115.776 E7.08309
G1 X142.779 Y116.529 E7.10868
G1 X142.892 Y117.989 E7.15738
G1 X142.917 Y118.398 E7.17101
G1 X142.931 Y118.828 E7.18532
G1 X142.932 Y119.175 E7.19686
G1 X142.924 Y119.544 E7.20914
G1 X142.884 Y120.22 E7.23166
G1 X142.841 Y120.646 E7.2459
G1 X142.705 Y121.686 E7.28079
G1 X142.565 Y122.442 E7.30636
G1 X142.302 Y123.309 E7.33649
G1 X142.051 Y123.983 E7.36041
G1 X141.93 Y124.287 E7.3713
G1 X141.644 Y124.962 E7.39568
G1 X141.307 Y125.654 E7.42128
G1 X140.766 Y126.494 E7.45451
G1 X139.656 Y127.985 E7.51634
G1 X139.165 Y128.577 E7.54192
G1 X138.615 Y129.115 E7.56751
G1 X138.274 Y129.399 E7.58227
G1 X137.462 Y130.033 E7.61653
G1 X136.934 Y130.409 E7.63809
G1 X136.752 Y130.527 E7.6453
G1 X136.332 Y130.78 E7.66161
G1 X135.203 Y131.41 E7.70461
G1 X134.513 Y131.749 E7.73018
G1 X133.477 Y132.105 E7.76662
G1 X132.487 Y132.365 E7.80066
G1 X132.055 Y132.465 E7.81541
G1 X130.647 Y132.746 E7.86316
G1 X129.886 Y132.857 E7.88874
G1 X129.118 Y132.889 E7.91431
G1 X128.35 Y132.84 E7.9399
G1 X127.59 Y132.712 E7.96554
G1 X126.041 Y132.367 E8.01832
G1 X125.402 Y132.194 E8.04034
G1 X124.897 Y132.033 E8.05797
G1 X124.555 Y131.915 E8.07
G1 X124.183 Y131.776 E8.08321
G1 X123.48 Y131.471 E8.1087
G1 X122.663 Y131.065 E8.13904
G1 X122.255 Y130.846 E8.15444
G1 X122.023 Y130.712 E8.16335
G1 X121.905 Y130.631 E8.16811
G1 X121.192 Y131.073 E8.19602
G1 X120.303 Y131.544 E8.22948
G1 X119.833 Y131.775 E8.2469
G1 X119.559 Y131.899 E8.2569
G1 X119.28 Y132.018 E8.26699
G1 X118.871 Y132.178 E8.28159
G1 X118.519 Y132.304 E8.29403
G1 X118.172 Y132.419 E8.30619
G1 X117.895 Y132.503 E8.31582
G1 X117.537 Y132.601 E8.32816
G1 X117.051 Y132.721 E8.34481
G1 X116.811 Y132.775 E8.35299
G1 X116.163 Y132.89 E8.37488
G1 X115.757 Y132.944 E8.3885
G1 X115.38 Y132.985 E8.40112
G1 X114.9 Y133.024 E8.41713
G1 X114.317 Y133.048 E8.43654
G1 X113.864 Y133.049 E8.45161
G1 X113.445 Y133.038 E8.46555
G1 X112.4 Y132.981 E8.50036
G1 X111.635 Y132.899 E8.52595
G1 X110.533 Y132.635 E8.56364
G1 X109.441 Y132.283 E8.6018
G1 X108.498 Y131.906 E8.63558
G1 X108.052 Y131.691 E8.65204
G1 X107.706 Y131.513 E8.66498
G1 X106.193 Y130.683 E8.72238
G1 X105.539 Y130.278 E8.74797
G1 X104.93 Y129.808 E8.77355
G1 X104.373 Y129.277 E8.79915
G1 X103.692 Y128.442 E8.83499
G1 X102.699 Y127.025 E8.89254
G1 X102.509 Y126.739 E8.90396
G1 X101.789 Y125.603 E8.94869
G1 X101.411 Y124.933 E8.97428
G1 X101.105 Y124.228 E8.99984
G1 X100.874 Y123.494 E9.02543
G1 X100.722 Y122.747 E9.05079
G1 X100.565 Y121.708 E9.08574
G1 X100.509 Y121.404 E9.09602
G1 X100.41 Y120.641 E9.12161
G1 X100.389 Y120.182 E9.13689
G1 X100.362 Y118.354 E9.1977
G1 X100.39 Y117.586 E9.22326
G1 X100.499 Y116.824 E9.24886
G1 X100.685 Y116.078 E9.27443
G1 X100.844 Y115.615 E9.29071
G1 X101.516 Y113.848 E9.35359
G1 X101.954 Y112.903 E9.38823
G1 X102.087 Y112.662 E9.39739
G1 X102.415 Y112.123 E9.41837
G1 X102.642 Y111.783 E9.43197
G1 X102.394 Y111.39 E9.44743
G1 X101.92 Y110.536 E9.47991
G1 X101.658 Y110.018 E9.49922
G1 X101.511 Y109.696 E9.51099
G1 X101.402 Y109.444 E9.52012
G1 X101.256 Y109.09 E9.53286
G1 X101.13 Y108.762 E9.54455
G1 X101.057 Y108.558 E9.55175
G1 X100.921 Y108.141 E9.56634
G1 X100.838 Y107.857 E9.57618
G1 X100.762 Y107.576 E9.58587
G1 X100.681 Y107.252 E9.59697
G1 X100.549 Y106.6 E9.6191
G1 X100.42 Y105.775 E9.64687
G1 X100.34 Y104.987 E9.67322
G1 X100.314 Y104.349 E9.69445
G1 X100.31 Y104.026 E9.7052
G1 X100.318 Y103.562 E9.72063
G1 X100.335 Y103.224 E9.73189
G1 X100.372 Y102.775 E9.74687
G1 X100.423 Y102.318 E9.76217
G1 X100.499 Y101.8 E9.77958
G1 X100.545 Y101.55 E9.78803
G1 X100.614 Y101.219 E9.79928
G1 X100.743 Y100.678 E9.81778
G1 X100.813 Y100.412 E9.82693
G1 X100.964 Y99.909 E9.84439
G1 X101.073 Y99.589 E9.85564
G1 X101.267 Y99.082 E9.87369
G1 X101.541 Y98.437 E9.897
G1 X101.747 Y97.993 E9.91328
G1 X101.844 Y97.801 E9.92044
G1 X102.055 Y97.413 E9.93513
G1 X102.264 Y97.058 E9.94883
G1 X102.452 Y96.752 E9.96077
G1 X102.695 Y96.382 E9.9755
G1 X102.973 Y95.993 E9.9914
G1 X103.184 Y95.713 E10.00306
G1 X103.355 Y95.495 E10.01227
G1 X104.002 Y94.7 E10.04637
G1 X104.517 Y94.129 E10.07194
G0 F6000 X104.814 Y94.398
G1 F1200 X105.373 Y93.901 E10.09682
G1 X105.733 Y93.632 E10.11177
G1 X106.585 Y93.037 E10.14633
G1 X107.029 Y92.751 E10.1639
G1 X107.164 Y92.671 E10.16912
G1 X107.958 Y92.167 E10.20039
G1 X108.61 Y91.8 E10.22528
G1 X109.297 Y91.505 E10.25015
G1 X110.012 Y91.285 E10.27503
G1 X110.626 Y91.16 E10.29587
G1 X111.838 Y90.97 E10.33667
G1 X112.206 Y90.923 E10.34901
G1 X113.499 Y90.79 E10.39224
G1 X114.246 Y90.753 E10.41712
G1 X114.993 Y90.796 E10.44201
G1 X115.38 Y90.851 E10.45501
G1 X116.346 Y91.014 E10.48759
G1 X116.879 Y91.125 E10.5057
G1 X117.891 Y91.378 E10.54039
G1 X118.606 Y91.598 E10.56528
G1 X119.257 Y91.875 E10.58881
G1 X120.286 Y92.376 E10.62687
G1 X120.932 Y92.734 E10.65144
G1 X121.148 Y92.869 E10.65991
G1 X121.47 Y93.089 E10.67288
G1 X121.661 Y92.937 E10.681
G1 X122.27 Y92.503 E10.70587
G1 X122.922 Y92.136 E10.73076
G1 X123.609 Y91.841 E10.75562
G1 X124.044 Y91.697 E10.77086
G1 X124.489 Y91.566 E10.78629
G1 X124.9 Y91.408 E10.80094
G1 X125.67 Y91.205 E10.82742
G1 X126.773 Y90.981 E10.86486
G1 X127.513 Y90.872 E10.88974
G1 X128.166 Y90.841 E10.91148
G1 X129.349 Y90.841 E10.95083
G1 X129.911 Y90.864 E10.96953
G1 X130.42 Y90.905 E10.98652
G1 X130.742 Y90.938 E10.99728
G1 X131.677 Y91.057 E11.02863
G1 X132.413 Y91.191 E11.05351
G1 X133.13 Y91.403 E11.07838
G1 X133.588 Y91.583 E11.09475
G1 X134.417 Y91.944 E11.12482
G1 X134.665 Y92.058 E11.1339
G1 X135.245 Y92.338 E11.15532
G1 X135.901 Y92.699 E11.18023
G1 X136.433 Y93.065 E11.2017
G1 X137.271 Y93.704 E11.23676
G1 X137.446 Y93.844 E11.24421
G1 X137.686 Y94.045 E11.25462
G1 X137.904 Y94.236 E11.26426
G1 X138.359 Y94.673 E11.28524
G1 X139.104 Y95.455 E11.32117
G1 X139.754 Y96.245 E11.35519
G1 X139.968 Y96.548 E11.36753
G1 X140.18 Y96.866 E11.38024
G1 X140.983 Y98.146 E11.4305
G1 X141.346 Y98.8 E11.45538
G1 X141.637 Y99.489 E11.48025
G1 X141.853 Y100.205 E11.50513
G1 X141.987 Y100.908 E11.52893
G1 X142.17 Y102.232 E11.57339
G1 X142.217 Y102.671 E11.58807
G1 X142.347 Y104.421 E11.64644
G1 X142.362 Y105.169 E11.67132
G1 X142.298 Y105.915 E11.69622
G1 X142.154 Y106.649 E11.7211
G1 X142.034 Y107.071 E11.73569
G1 X141.563 Y108.545 E11.78716
G1 X141.158 Y109.541 E11.82292
G1 X140.819 Y110.22 E11.84816
G1 X140.669 Y110.504 E11.85885
