;FLAVOR:Marlin
;TIME:1431
;Filament used: 0.75782m
;Layer height: 0.2
;MINX:96.527
;MINY:96.452
;MINZ:0.2
;MAXX:138.657
;MAXY:138.603
;MAXZ:9.8
;Generated with Cura_SteamEngine 4.5.0
M140 S50
M105
M190 S50
M104 S200
M105
M109 S200
M82 ;absolute extrusion mode
; Ender 3 Custom Start G-code
G92 E0 ; Reset Extruder
G28 ; Home all axes
G1 Z2.0 F3000 ; Move Z Axis up little to prevent scratching of Heat Bed
G1 X0.1 Y20 Z0.3 F5000.0 ; Move to start position
G1 X0.1 Y200.0 Z0.3 F1500.0 E15 ; Draw the first line
G1 X0.4 Y200.0 Z0.3 F5000.0 ; Move to side a little
G1 X0.4 Y20 Z0.3 F1500.0 E30 ; Draw the second line
G92 E0 ; Reset Extruder
G1 Z2.0 F3000 ; Move Z Axis up little to prevent scratching of Heat Bed
G1 X5 Y20 Z0.3 F5000.0 ; Move over to prevent blob squish
G92 E0
G92 E0
G1 F2700 E-5
;LAYER_COUNT:49
;LAYER:0
M107
G0 F6000 X101.892 Y107.959 Z0.2
;TYPE:SKIRT
G1 F2700 E0
G1 F1200 X102.48 Y107.496 E0.02489
G1 X103.114 Y107.099 E0.04977
G1 X103.787 Y106.772 E0.07466
G1 X104.653 Y106.47 E0.10516
G1 X105.101 Y106.255 E0.12169
G1 X105.805 Y106.004 E0.14655
G1 X106.203 Y105.909 E0.16016
G1 X106.253 Y105.737 E0.16612
G1 X106.906 Y103.919 E0.23037
G1 X107.196 Y103.229 E0.25526
G1 X107.558 Y102.575 E0.28012
G1 X107.988 Y101.962 E0.30503
G1 X108.481 Y101.399 E0.32992
G1 X108.943 Y100.967 E0.35095
G1 X109.872 Y100.172 E0.39162
G1 X110.465 Y99.716 E0.4165
G1 X111.097 Y99.331 E0.44112
G1 X111.397 Y99.06 E0.45456
G1 X112.002 Y98.62 E0.47944
G1 X112.65 Y98.247 E0.50431
G1 X113.334 Y97.945 E0.52918
G1 X114.047 Y97.718 E0.55407
G1 X114.897 Y97.552 E0.58287
G1 X116.255 Y97.373 E0.62843
G1 X116.618 Y97.335 E0.64057
G1 X117.415 Y97.272 E0.66716
G1 X118.163 Y97.253 E0.69205
G1 X118.909 Y97.314 E0.71694
G1 X119.456 Y97.41 E0.73541
G1 X120.384 Y97.612 E0.767
G1 X120.926 Y97.753 E0.78563
G1 X122.341 Y98.182 E0.83481
G1 X123.044 Y98.437 E0.85968
G1 X123.389 Y98.606 E0.87246
G1 X123.548 Y98.669 E0.87815
G1 X124.21 Y99.018 E0.90304
G1 X124.831 Y99.435 E0.92792
G1 X125.404 Y99.916 E0.9528
G1 X125.922 Y100.455 E0.97766
G1 X126.183 Y100.776 E0.99142
G1 X127.172 Y102.069 E1.04557
G1 X127.422 Y102.418 E1.05984
G1 X128.235 Y103.628 E1.10833
G1 X128.619 Y104.27 E1.13321
G1 X128.931 Y104.95 E1.1581
G1 X129.17 Y105.659 E1.18298
G1 X129.283 Y106.173 E1.20048
G1 X129.553 Y106.253 E1.20985
G1 X130.083 Y106.439 E1.22853
G1 X130.966 Y106.819 E1.26051
G1 X131.816 Y107.256 E1.29229
G1 X132.462 Y107.633 E1.31717
G1 X133.307 Y108.287 E1.35271
G1 X134.704 Y109.549 E1.41533
G1 X135.232 Y110.079 E1.44021
G1 X135.7 Y110.663 E1.4651
G1 X136.103 Y111.293 E1.48997
G1 X136.436 Y111.963 E1.51486
G1 X136.61 Y112.405 E1.53066
G1 X137.129 Y113.87 E1.58235
G1 X137.38 Y114.762 E1.61317
G1 X137.706 Y116.306 E1.66566
G1 X137.821 Y117.045 E1.69053
G1 X137.857 Y117.792 E1.71541
G1 X137.813 Y118.539 E1.7403
G1 X137.689 Y119.277 E1.76519
G1 X137.565 Y119.751 E1.78148
G1 X137.177 Y121.053 E1.82667
G1 X137.041 Y121.464 E1.84107
G1 X136.476 Y123.005 E1.89566
G1 X136.182 Y123.692 E1.92051
G1 X135.815 Y124.344 E1.9454
G1 X135.381 Y124.954 E1.9703
G1 X134.885 Y125.513 E1.99515
G1 X134.141 Y126.167 E2.0281
G1 X133.068 Y126.983 E2.07293
G1 X132.776 Y127.194 E2.08492
G1 X131.508 Y128.059 E2.13597
G1 X130.976 Y128.401 E2.157
G1 X130.309 Y128.739 E2.18187
G1 X129.609 Y129.004 E2.20677
G1 X129.053 Y129.149 E2.22588
G1 X128.805 Y129.963 E2.25418
G1 X128.548 Y130.666 E2.27908
G1 X128.219 Y131.337 E2.30393
G1 X127.937 Y131.799 E2.32194
G1 X127.406 Y132.597 E2.35382
G1 X127.124 Y132.99 E2.36991
G1 X127 Y133.151 E2.37666
G1 X126.812 Y133.384 E2.38662
G1 X126.005 Y134.344 E2.42833
G1 X125.494 Y134.89 E2.45321
G1 X124.927 Y135.379 E2.47811
G1 X124.312 Y135.804 E2.50297
G1 X123.38 Y136.285 E2.53786
G1 X122.005 Y136.868 E2.58753
G1 X121.596 Y137.026 E2.60211
G1 X121.417 Y137.089 E2.60843
G1 X120.871 Y137.256 E2.62742
G1 X119.63 Y137.582 E2.67009
G1 X118.898 Y137.733 E2.69495
G1 X118.153 Y137.806 E2.71985
G1 X117.405 Y137.798 E2.74473
G1 X116.726 Y137.721 E2.76746
G1 X115.444 Y137.512 E2.81066
G1 X114.515 Y137.295 E2.84239
G1 X113.74 Y137.057 E2.86936
G1 X113.038 Y136.799 E2.89423
G1 X112.673 Y136.63 E2.90761
G1 X112.049 Y136.319 E2.9308
G1 X111.304 Y135.889 E2.95941
G1 X110.361 Y135.264 E2.99704
G1 X109.76 Y134.818 E3.02193
G1 X109.211 Y134.31 E3.04681
G1 X108.623 Y133.622 E3.07691
G1 X108.026 Y132.824 E3.11005
G1 X107.751 Y132.429 E3.12606
G1 X107.253 Y131.658 E3.15659
G1 X106.881 Y131.009 E3.18147
G1 X106.581 Y130.324 E3.20634
G1 X106.538 Y130.196 E3.21083
G1 X106.504 Y130.126 E3.21342
G1 X106.213 Y129.437 E3.2383
G1 X106.101 Y129.066 E3.25119
G1 X105.648 Y128.979 E3.26653
G1 X104.933 Y128.761 E3.29139
G1 X104.244 Y128.468 E3.31629
G1 X104.112 Y128.393 E3.32134
G1 X103.638 Y128.21 E3.33824
G1 X102.973 Y127.868 E3.36312
G1 X102.348 Y127.457 E3.38799
G1 X101.77 Y126.982 E3.41288
G1 X101.246 Y126.448 E3.43776
G1 X101.141 Y126.315 E3.4434
G1 X100.515 Y125.784 E3.4707
G1 X99.972 Y125.27 E3.49557
G1 X99.486 Y124.701 E3.52046
G1 X99.064 Y124.084 E3.54532
G1 X98.709 Y123.425 E3.57022
G1 X98.483 Y122.885 E3.58969
G1 X97.986 Y121.548 E3.63713
G1 X97.795 Y120.957 E3.65779
G1 X97.714 Y120.661 E3.66799
G1 X97.56 Y119.955 E3.69203
G1 X97.442 Y119.218 E3.71685
G1 X97.402 Y118.912 E3.72712
G1 X97.348 Y118.264 E3.74874
G1 X97.331 Y117.805 E3.76402
G1 X97.327 Y117.437 E3.77626
G1 X97.332 Y117.115 E3.78697
G1 X97.364 Y116.54 E3.80613
G1 X97.391 Y116.265 E3.81532
G1 X97.429 Y115.952 E3.8258
G1 X97.468 Y115.681 E3.83491
G1 X97.543 Y115.258 E3.8492
G1 X97.664 Y114.674 E3.86903
G1 X97.835 Y114.011 E3.89181
G1 X98.018 Y113.424 E3.91226
G1 X98.279 Y112.722 E3.93717
G1 X98.689 Y111.921 E3.9671
G1 X99.06 Y111.299 E3.99118
G1 X99.326 Y110.887 E4.0075
G1 X99.525 Y110.601 E4.01908
G1 X99.874 Y110.142 E4.03826
G1 X100.13 Y109.832 E4.05163
G1 X100.374 Y109.551 E4.06401
G1 X101.357 Y108.482 E4.11231
G1 X101.892 Y107.959 E4.1372
G0 F6000 X101.612 Y107.673
G1 F1200 X102.214 Y107.194 E4.16279
G1 X102.863 Y106.781 E4.18837
G1 X103.551 Y106.437 E4.21396
G1 X104.481 Y106.104 E4.24681
G1 X104.927 Y105.894 E4.26321
G1 X105.65 Y105.633 E4.28877
G1 X105.886 Y105.575 E4.29686
G1 X106.53 Y103.783 E4.36019
G1 X106.827 Y103.074 E4.38576
G1 X107.196 Y102.399 E4.41134
G1 X107.634 Y101.767 E4.43692
G1 X108.134 Y101.183 E4.46249
G1 X108.683 Y100.663 E4.48764
G1 X109.612 Y99.868 E4.52831
G1 X110.221 Y99.399 E4.55387
G1 X110.866 Y99.001 E4.57908
G1 X111.128 Y98.763 E4.59085
G1 X111.747 Y98.308 E4.61641
G1 X112.411 Y97.92 E4.64198
G1 X113.112 Y97.602 E4.66759
G1 X113.842 Y97.359 E4.69318
G1 X114.845 Y97.155 E4.72722
G1 X116.203 Y96.976 E4.77278
G1 X116.587 Y96.936 E4.78562
G1 X117.384 Y96.873 E4.81221
G1 X118.153 Y96.852 E4.8378
G1 X118.92 Y96.912 E4.86338
G1 X119.541 Y97.019 E4.88434
G1 X120.469 Y97.221 E4.91593
G1 X121.042 Y97.37 E4.93562
G1 X122.457 Y97.799 E4.9848
G1 X123.181 Y98.06 E5.0104
G1 X123.561 Y98.244 E5.02444
G1 X123.695 Y98.297 E5.02923
G1 X124.377 Y98.652 E5.05481
G1 X125.019 Y99.076 E5.0804
G1 X125.613 Y99.565 E5.10599
G1 X126.153 Y100.112 E5.13155
G1 X126.501 Y100.533 E5.14972
G1 X127.49 Y101.826 E5.20386
G1 X127.754 Y102.195 E5.21895
G1 X128.567 Y103.405 E5.26744
G1 X128.962 Y104.065 E5.29302
G1 X129.287 Y104.762 E5.3186
G1 X129.538 Y105.489 E5.34418
G1 X129.623 Y105.858 E5.35677
G1 X129.685 Y105.876 E5.35892
G1 X130.215 Y106.062 E5.3776
G1 X131.149 Y106.463 E5.41141
G1 X131.999 Y106.9 E5.4432
G1 X132.663 Y107.287 E5.46876
G1 X133.576 Y107.99 E5.50709
G1 X134.973 Y109.252 E5.5697
G1 X135.516 Y109.796 E5.59527
G1 X135.999 Y110.394 E5.62083
G1 X136.418 Y111.039 E5.64642
G1 X136.768 Y111.724 E5.672
G1 X136.987 Y112.272 E5.69163
G1 X137.506 Y113.737 E5.74332
G1 X137.771 Y114.679 E5.77587
G1 X138.097 Y116.223 E5.82836
G1 X138.217 Y116.983 E5.85395
G1 X138.257 Y117.751 E5.87952
G1 X138.217 Y118.519 E5.9051
G1 X138.098 Y119.279 E5.93069
G1 X137.949 Y119.865 E5.9508
G1 X137.561 Y121.167 E5.99599
G1 X137.417 Y121.601 E6.01119
G1 X136.852 Y123.142 E6.06578
G1 X136.55 Y123.85 E6.09139
G1 X136.176 Y124.522 E6.11697
G1 X135.735 Y125.152 E6.14254
G1 X135.23 Y125.732 E6.16812
G1 X134.383 Y126.485 E6.20582
G1 X133.31 Y127.301 E6.25065
G1 X133.001 Y127.524 E6.26333
G1 X131.733 Y128.389 E6.31438
G1 X131.194 Y128.736 E6.3357
G1 X130.51 Y129.087 E6.36127
G1 X129.793 Y129.365 E6.38685
G1 X129.37 Y129.48 E6.40143
G1 X129.187 Y130.08 E6.42229
G1 X128.925 Y130.803 E6.44787
G1 X128.589 Y131.495 E6.47345
G1 X128.27 Y132.02 E6.49389
G1 X127.739 Y132.818 E6.52577
G1 X127.441 Y133.234 E6.54279
G1 X127.317 Y133.395 E6.54954
G1 X127.118 Y133.642 E6.56009
G1 X126.311 Y134.602 E6.60181
G1 X125.787 Y135.164 E6.62736
G1 X125.206 Y135.669 E6.65297
G1 X124.577 Y136.11 E6.67852
G1 X123.904 Y136.484 E6.70413
G1 X123.536 Y136.653 E6.71759
G1 X122.161 Y137.236 E6.76727
G1 X121.729 Y137.403 E6.78267
G1 X121.55 Y137.466 E6.78898
G1 X120.973 Y137.643 E6.80906
G1 X119.732 Y137.969 E6.85173
G1 X118.979 Y138.126 E6.87732
G1 X118.214 Y138.203 E6.90289
G1 X117.445 Y138.201 E6.92847
G1 X116.661 Y138.116 E6.9547
G1 X115.379 Y137.907 E6.9979
G1 X114.398 Y137.677 E7.03141
G1 X113.623 Y137.439 E7.05838
G1 X112.9 Y137.175 E7.08398
G1 X112.494 Y136.988 E7.09884
G1 X111.87 Y136.677 E7.12203
G1 X111.083 Y136.222 E7.15227
G1 X110.14 Y135.597 E7.1899
G1 X109.522 Y135.14 E7.21546
G1 X108.954 Y134.62 E7.24107
G1 X108.303 Y133.862 E7.27431
G1 X107.706 Y133.064 E7.30745
G1 X107.415 Y132.646 E7.32439
G1 X106.917 Y131.875 E7.35492
G1 X106.534 Y131.208 E7.3805
G1 X106.222 Y130.505 E7.40608
G1 X106.174 Y130.362 E7.4111
G1 X106.144 Y130.301 E7.41336
G1 X105.844 Y129.593 E7.43894
G1 X105.789 Y129.414 E7.44517
G1 X105.573 Y129.373 E7.45248
G1 X104.837 Y129.152 E7.47804
G1 X104.127 Y128.856 E7.50362
G1 X103.963 Y128.763 E7.50989
G1 X103.495 Y128.584 E7.52656
G1 X102.809 Y128.235 E7.55216
G1 X102.163 Y127.818 E7.57773
G1 X101.564 Y127.335 E7.60332
G1 X101.018 Y126.793 E7.62891
G1 X100.872 Y126.61 E7.6367
G1 X100.257 Y126.089 E7.66351
G1 X99.697 Y125.561 E7.68911
G1 X99.195 Y124.979 E7.71467
G1 X98.756 Y124.347 E7.74026
G1 X98.385 Y123.673 E7.76585
G1 X98.108 Y123.024 E7.78932
G1 X97.611 Y121.687 E7.83676
G1 X97.409 Y121.062 E7.85861
G1 X97.328 Y120.766 E7.86882
G1 X97.165 Y120.02 E7.89421
G1 X97.045 Y119.27 E7.91948
G1 X97.005 Y118.964 E7.92974
G1 X96.948 Y118.279 E7.9526
G1 X96.931 Y117.82 E7.96788
G1 X96.927 Y117.431 E7.98082
G1 X96.932 Y117.109 E7.99153
G1 X96.966 Y116.501 E8.01178
G1 X96.993 Y116.226 E8.02097
G1 X97.033 Y115.895 E8.03206
G1 X97.072 Y115.624 E8.04117
G1 X97.151 Y115.177 E8.05627
G1 X97.272 Y114.593 E8.0761
G1 X97.453 Y113.892 E8.10018
G1 X97.636 Y113.305 E8.12063
G1 X97.903 Y112.583 E8.14624
G1 X98.346 Y111.716 E8.17862
G1 X98.717 Y111.094 E8.20271
G1 X98.998 Y110.659 E8.21993
G1 X99.197 Y110.373 E8.23152
G1 X99.565 Y109.887 E8.2518
G1 X99.821 Y109.577 E8.26517
G1 X100.08 Y109.28 E8.27828
G1 X101.063 Y108.211 E8.32658
G1 X101.612 Y107.673 E8.35214
G0 F6000 X101.332 Y107.387
G1 F1200 X101.948 Y106.893 E8.37841
G1 X102.611 Y106.464 E8.40467
G1 X103.314 Y106.105 E8.43093
G1 X104.368 Y105.72 E8.46825
G1 X104.752 Y105.534 E8.48244
G1 X105.494 Y105.263 E8.50871
G1 X105.581 Y105.241 E8.5117
G1 X106.153 Y103.648 E8.56799
G1 X106.457 Y102.92 E8.59423
G1 X106.834 Y102.225 E8.62053
G1 X107.278 Y101.573 E8.64677
G1 X107.787 Y100.968 E8.67306
G1 X108.423 Y100.359 E8.70235
G1 X109.352 Y99.564 E8.74302
G1 X109.977 Y99.081 E8.76929
G1 X110.625 Y98.679 E8.79465
G1 X110.858 Y98.467 E8.80513
G1 X111.493 Y97.997 E8.83141
G1 X112.171 Y97.594 E8.85764
G1 X112.888 Y97.261 E8.88393
G1 X113.634 Y97.002 E8.9102
G1 X114.402 Y96.82 E8.93645
G1 X114.793 Y96.759 E8.94961
G1 X116.151 Y96.58 E8.99517
G1 X116.555 Y96.537 E9.00868
G1 X117.352 Y96.474 E9.03527
G1 X118.142 Y96.452 E9.06156
G1 X118.929 Y96.51 E9.08781
G1 X119.626 Y96.628 E9.11132
G1 X120.554 Y96.83 E9.14291
G1 X121.158 Y96.988 E9.16367
G1 X122.573 Y97.417 E9.21285
G1 X123.316 Y97.684 E9.23911
G1 X123.713 Y97.873 E9.25373
G1 X123.842 Y97.924 E9.25835
G1 X124.544 Y98.286 E9.28462
G1 X125.206 Y98.717 E9.31089
G1 X125.82 Y99.213 E9.33714
G1 X126.382 Y99.768 E9.36341
G1 X126.818 Y100.29 E9.38604
G1 X127.807 Y101.583 E9.44018
G1 X128.086 Y101.972 E9.4561
G1 X128.899 Y103.182 E9.50459
G1 X129.306 Y103.859 E9.53086
G1 X129.642 Y104.573 E9.55711
G1 X129.904 Y105.318 E9.58337
G1 X129.96 Y105.548 E9.59124
G1 X130.348 Y105.684 E9.60492
G1 X131.331 Y106.107 E9.64051
G1 X132.181 Y106.544 E9.6723
G1 X132.865 Y106.94 E9.69859
G1 X133.504 Y107.403 E9.72483
G1 X133.844 Y107.693 E9.7397
G1 X135.241 Y108.955 E9.80231
G1 X135.799 Y109.513 E9.82856
G1 X136.298 Y110.125 E9.85482
G1 X136.733 Y110.785 E9.88112
G1 X137.099 Y111.484 E9.90736
G1 X137.364 Y112.138 E9.93083
G1 X137.883 Y113.603 E9.98252
G1 X138.163 Y114.597 E10.01687
G1 X138.489 Y116.141 E10.06935
G1 X138.613 Y116.921 E10.09562
G1 X138.657 Y117.709 E10.12187
G1 X138.621 Y118.498 E10.14814
G1 X138.506 Y119.279 E10.1744
G1 X138.332 Y119.98 E10.19842
G1 X137.944 Y121.282 E10.24361
G1 X137.792 Y121.739 E10.25963
G1 X137.227 Y123.28 E10.31422
G1 X136.918 Y124.007 E10.34049
G1 X136.537 Y124.698 E10.36674
G1 X136.088 Y125.348 E10.39301
G1 X135.576 Y125.949 E10.41927
G1 X135.006 Y126.495 E10.44552
G1 X134.626 Y126.804 E10.46181
G1 X133.553 Y127.62 E10.50665
G1 X133.227 Y127.854 E10.52
G1 X131.959 Y128.719 E10.57105
G1 X131.413 Y129.072 E10.59267
G1 X130.712 Y129.435 E10.61893
G1 X129.978 Y129.725 E10.64518
G1 X129.689 Y129.806 E10.65516
G1 X129.57 Y130.196 E10.66872
G1 X129.301 Y130.939 E10.69501
G1 X128.959 Y131.651 E10.72128
G1 X128.603 Y132.242 E10.74422
G1 X128.072 Y133.04 E10.7761
G1 X127.758 Y133.478 E10.79403
G1 X127.634 Y133.639 E10.80079
G1 X127.425 Y133.899 E10.81188
G1 X126.618 Y134.859 E10.8536
G1 X126.08 Y135.437 E10.87986
G1 X125.486 Y135.958 E10.90614
G1 X124.842 Y136.416 E10.93242
G1 X124.156 Y136.806 E10.95867
G1 X123.692 Y137.021 E10.97568
G1 X122.317 Y137.604 E11.02535
G1 X121.862 Y137.781 E11.04159
G1 X121.683 Y137.844 E11.0479
G1 X121.075 Y138.03 E11.06905
G1 X119.834 Y138.356 E11.11172
G1 X119.061 Y138.518 E11.13799
G1 X118.275 Y138.6 E11.16428
G1 X117.486 Y138.603 E11.19052
G1 X116.597 Y138.51 E11.22025
G1 X115.315 Y138.301 E11.26345
G1 X114.28 Y138.059 E11.2988
G1 X113.505 Y137.821 E11.32577
G1 X112.763 Y137.552 E11.35202
G1 X112.316 Y137.346 E11.36839
G1 X111.692 Y137.035 E11.39158
G1 X110.862 Y136.556 E11.42345
G1 X109.919 Y135.931 E11.46108
G1 X109.284 Y135.462 E11.48734
G1 X108.699 Y134.931 E11.51361
G1 X107.982 Y134.101 E11.55009
G1 X107.385 Y133.303 E11.58324
G1 X107.079 Y132.863 E11.60107
G1 X106.581 Y132.092 E11.63159
G1 X106.187 Y131.408 E11.65785
G1 X105.863 Y130.687 E11.68414
G1 X105.808 Y130.525 E11.68983
G1 X105.784 Y130.476 E11.69164
G1 X105.48 Y129.761 E11.71749
G1 X104.742 Y129.543 E11.74308
G1 X104.011 Y129.243 E11.76936
G1 X103.822 Y129.137 E11.77657
G1 X103.352 Y128.958 E11.7933
G1 X102.646 Y128.603 E11.81958
G1 X101.98 Y128.179 E11.84584
G1 X101.36 Y127.689 E11.87212
G1 X100.793 Y127.14 E11.89837
G1 X100.606 Y126.91 E11.90823
G1 X99.998 Y126.394 E11.93475
G1 X99.422 Y125.853 E11.96104
G1 X98.904 Y125.257 E11.9873
G1 X98.449 Y124.612 E12.01355
G1 X98.062 Y123.923 E12.03984
G1 X97.733 Y123.164 E12.06735
G1 X97.236 Y121.827 E12.11479
G1 X97.024 Y121.168 E12.13782
G1 X96.943 Y120.872 E12.14803
G1 X96.77 Y120.085 E12.17483
G1 X96.687 Y119.583 E12.19175
G1 X96.609 Y119.016 E12.21079
G1 X96.548 Y118.294 E12.23489
G1 X96.531 Y117.835 E12.25016
G1 X96.527 Y117.425 E12.2638
G1 X96.532 Y117.103 E12.27451
G1 X96.568 Y116.462 E12.29586
G1 X96.595 Y116.187 E12.30505
G1 X96.638 Y115.838 E12.31675
G1 X96.677 Y115.567 E12.32586
G1 X96.759 Y115.096 E12.34176
G1 X96.88 Y114.512 E12.36159
G1 X97.071 Y113.773 E12.38698
G1 X97.254 Y113.186 E12.40743
G1 X97.527 Y112.444 E12.43373
G1 X98.002 Y111.511 E12.46855
G1 X98.373 Y110.889 E12.49264
G1 X98.669 Y110.43 E12.5108
G1 X98.868 Y110.144 E12.52239
G1 X99.257 Y109.632 E12.54378
G1 X99.513 Y109.322 E12.55715
G1 X99.785 Y109.009 E12.57094
G1 X100.768 Y107.94 E12.61925
G1 X101.332 Y107.387 E12.64552
G0 F6000 X102.172 Y108.246
G1 F1200 X102.745 Y107.799 E12.66969
G1 X103.363 Y107.418 E12.69383
G1 X104.02 Y107.108 E12.718
