;FLAVOR:Marlin
;TIME:3442
;Filament used: 1.56925m
;Layer height: 0.2
;MINX:94.72
;MINY:95.324
;MINZ:0.2
;MAXX:140.264
;MAXY:139.683
;MAXZ:17.6
;Generated with Cura_SteamEngine 4.5.0
M140 S50
M105
M190 S50
M104 S200
M105
M109 S200
M82 ;absolute extrusion mode
; Ender 3 Custom Start G-code
G92 E0 ; Reset Extruder
G28 ; Home all axes
G1 Z2.0 F3000 ; Move Z Axis up little to prevent scratching of Heat Bed
G1 X0.1 Y20 Z0.3 F5000.0 ; Move to start position
G1 X0.1 Y200.0 Z0.3 F1500.0 E15 ; Draw the first line
G1 X0.4 Y200.0 Z0.3 F5000.0 ; Move to side a little
G1 X0.4 Y20 Z0.3 F1500.0 E30 ; Draw the second line
G92 E0 ; Reset Extruder
G1 Z2.0 F3000 ; Move Z Axis up little to prevent scratching of Heat Bed
G1 X5 Y20 Z0.3 F5000.0 ; Move over to prevent blob squish
G92 E0
G92 E0
G1 F2700 E-5
;LAYER_COUNT:88
;LAYER:0
M107
G0 F6000 X100.645 Y99.924 Z0.2
;TYPE:SKIRT
G1 F2700 E0
G1 F1200 X100.736 Y99.848 E0.00394
G1 X101.154 Y99.424 E0.02375
G1 X101.342 Y99.268 E0.03187
G1 X101.401 Y99.205 E0.03474
G1 X101.756 Y98.881 E0.05073
G1 X101.918 Y98.742 E0.05783
G1 X102.252 Y98.472 E0.07211
G1 X102.599 Y98.206 E0.08665
G1 X102.858 Y98.015 E0.09736
G1 X103.316 Y97.693 E0.11598
G1 X103.57 Y97.522 E0.12616
G1 X103.81 Y97.367 E0.13567
G1 X104.23 Y97.114 E0.15197
G1 X104.633 Y96.89 E0.16731
G1 X104.905 Y96.746 E0.17755
G1 X105.175 Y96.61 E0.1876
G1 X105.591 Y96.41 E0.20295
G1 X106.121 Y96.179 E0.22218
G1 X106.335 Y96.095 E0.22983
G1 X107.084 Y95.844 E0.2561
G1 X107.269 Y95.801 E0.26242
G1 X107.663 Y95.67 E0.27623
G1 X107.889 Y95.619 E0.28393
G1 X108.252 Y95.517 E0.29648
G1 X109.03 Y95.381 E0.32274
G1 X109.817 Y95.324 E0.34899
G1 X110.766 Y95.361 E0.38058
G1 X111.442 Y95.429 E0.40317
G1 X112.603 Y95.636 E0.4424
G1 X113.031 Y95.746 E0.4571
G1 X113.784 Y95.981 E0.48333
G1 X114.583 Y96.329 E0.51232
G1 X116.138 Y96.881 E0.5672
G1 X116.868 Y97.183 E0.59348
G1 X117.272 Y97.4 E0.60873
G1 X118.175 Y96.88 E0.64339
G1 X118.879 Y96.521 E0.66967
G1 X119.615 Y96.235 E0.69593
G1 X120.39 Y96.022 E0.72266
G1 X122.288 Y95.604 E0.78731
G1 X123.067 Y95.473 E0.81358
G1 X123.498 Y95.435 E0.82797
G1 X124.347 Y95.384 E0.85626
G1 X125.137 Y95.377 E0.88253
G1 X125.923 Y95.449 E0.90879
G1 X127.072 Y95.704 E0.94793
G1 X127.287 Y95.769 E0.9554
G1 X127.746 Y95.923 E0.97151
G1 X128.384 Y96.16 E0.99414
G1 X128.907 Y96.376 E1.01296
G1 X129.574 Y96.684 E1.0374
G1 X129.773 Y96.782 E1.04478
G1 X130.234 Y97.029 E1.06217
G1 X130.895 Y97.42 E1.08771
G1 X131.285 Y97.673 E1.10318
G1 X131.804 Y98.032 E1.12417
G1 X132.349 Y98.446 E1.14693
G1 X132.885 Y98.891 E1.1701
G1 X133.774 Y99.7 E1.21008
G1 X134.056 Y100.008 E1.22397
G1 X134.635 Y100.592 E1.25132
G1 X135.126 Y101.204 E1.27742
G1 X135.228 Y101.346 E1.28323
G1 X135.509 Y101.664 E1.29735
G1 X135.675 Y101.863 E1.30597
G1 X136.003 Y102.285 E1.32374
G1 X136.273 Y102.658 E1.33906
G1 X136.703 Y103.321 E1.36534
G1 X137.064 Y104.023 E1.3916
G1 X137.352 Y104.758 E1.41785
G1 X137.425 Y105.018 E1.42683
G1 X137.591 Y105.212 E1.43533
G1 X138.042 Y105.86 E1.46158
G1 X138.425 Y106.55 E1.48783
G1 X138.754 Y107.323 E1.51577
G1 X138.823 Y107.513 E1.5225
G1 X138.946 Y107.881 E1.5354
G1 X139.124 Y108.47 E1.55587
G1 X139.233 Y108.864 E1.56947
G1 X139.328 Y109.228 E1.58198
G1 X139.455 Y109.801 E1.6015
G1 X139.514 Y110.125 E1.61245
G1 X139.59 Y110.72 E1.6324
G1 X139.682 Y111.384 E1.6547
G1 X139.701 Y111.614 E1.66237
G1 X139.714 Y112.129 E1.67951
G1 X139.742 Y112.464 E1.69069
G1 X139.721 Y113.351 E1.7202
G1 X139.696 Y113.663 E1.73061
G1 X139.563 Y114.6 E1.76209
G1 X139.513 Y114.845 E1.7704
G1 X139.332 Y115.559 E1.7949
G1 X139.25 Y115.828 E1.80426
G1 X138.982 Y116.571 E1.83053
G1 X138.819 Y116.919 E1.84331
G1 X139.329 Y117.905 E1.88023
G1 X139.656 Y118.623 E1.90647
G1 X139.908 Y119.372 E1.93275
G1 X140.084 Y120.141 E1.95899
G1 X140.109 Y120.368 E1.96659
G1 X140.131 Y120.458 E1.96967
G1 X140.24 Y121.24 E1.99593
G1 X140.251 Y121.985 E2.02071
G1 X140.264 Y122.493 E2.03761
G1 X140.26 Y122.946 E2.05268
G1 X140.213 Y123.734 E2.07894
G1 X140.151 Y124.176 E2.09378
G1 X140.099 Y124.484 E2.10417
G1 X140.023 Y125.009 E2.12181
G1 X139.899 Y125.595 E2.14174
G1 X139.808 Y125.978 E2.15483
G1 X139.698 Y126.393 E2.16911
G1 X139.597 Y126.742 E2.18119
G1 X139.479 Y127.116 E2.19424
G1 X139.303 Y127.588 E2.21099
G1 X139.227 Y127.842 E2.21981
G1 X138.926 Y128.572 E2.24607
G1 X138.688 Y129.128 E2.26619
G1 X138.308 Y129.82 E2.29245
G1 X138.026 Y130.244 E2.30938
G1 X137.828 Y130.522 E2.32073
G1 X137.338 Y131.141 E2.34699
G1 X137.144 Y131.341 E2.35626
G1 X137.082 Y131.517 E2.36247
G1 X136.747 Y132.232 E2.38873
G1 X136.341 Y132.909 E2.41498
G1 X135.868 Y133.542 E2.44127
G1 X135.708 Y133.724 E2.44933
G1 X135.198 Y134.369 E2.47667
G1 X134.707 Y134.872 E2.50005
G1 X134.191 Y135.418 E2.52504
G1 X133.912 Y135.658 E2.53728
G1 X133.277 Y136.228 E2.56566
G1 X133.04 Y136.417 E2.57574
G1 X132.482 Y136.855 E2.59934
G1 X132.056 Y137.166 E2.61688
G1 X131.567 Y137.499 E2.63656
G1 X131.12 Y137.782 E2.65415
G1 X130.617 Y138.071 E2.67345
G1 X130.182 Y138.302 E2.68983
G1 X129.939 Y138.425 E2.69889
G1 X129.217 Y138.746 E2.72517
G1 X128.679 Y138.923 E2.74401
G1 X128.612 Y138.954 E2.74646
G1 X127.867 Y139.215 E2.77272
G1 X127.492 Y139.305 E2.78554
G1 X127.237 Y139.384 E2.79442
G1 X127.108 Y139.41 E2.7988
G1 X126.902 Y139.471 E2.80595
G1 X126.125 Y139.617 E2.83224
G1 X125.339 Y139.683 E2.85848
G1 X124.549 Y139.67 E2.88475
G1 X123.866 Y139.594 E2.90761
G1 X122.551 Y139.388 E2.95188
G1 X121.778 Y139.226 E2.97815
G1 X121.025 Y138.988 E3.00442
G1 X120.49 Y138.764 E3.02371
G1 X119.486 Y138.301 E3.06048
G1 X118.114 Y137.684 E3.11052
G1 X117.411 Y137.324 E3.13679
G1 X117.246 Y137.217 E3.14333
G1 X116.75 Y137.5 E3.16232
G1 X115.924 Y137.859 E3.19227
G1 X113.749 Y138.657 E3.26933
G1 X112.994 Y138.891 E3.29562
G1 X112.221 Y139.047 E3.32185
G1 X111.562 Y139.118 E3.34389
G1 X110.193 Y139.206 E3.38952
G1 X109.404 Y139.217 E3.41577
G1 X108.617 Y139.147 E3.44205
G1 X107.745 Y138.975 E3.47161
G1 X107.493 Y138.91 E3.48026
G1 X106.96 Y138.743 E3.49884
G1 X106.386 Y138.57 E3.51878
G1 X106.189 Y138.501 E3.52572
G1 X105.737 Y138.326 E3.54184
G1 X105.533 Y138.24 E3.54921
G1 X104.961 Y137.972 E3.57022
G1 X104.377 Y137.668 E3.59211
G1 X103.872 Y137.38 E3.61145
G1 X103.562 Y137.188 E3.62358
G1 X103.266 Y136.995 E3.63533
G1 X102.918 Y136.757 E3.64935
G1 X102.559 Y136.497 E3.6641
G1 X101.712 Y135.833 E3.69989
G1 X101.19 Y135.355 E3.72343
G1 X100.845 Y135.054 E3.73866
G1 X100.623 Y134.817 E3.74946
G1 X100.044 Y134.243 E3.77658
G1 X99.62 Y133.726 E3.79882
G1 X98.827 Y132.807 E3.83919
G1 X98.226 Y131.989 E3.87295
G1 X97.791 Y131.33 E3.89921
G1 X97.426 Y130.63 E3.92547
G1 X97.132 Y129.897 E3.95174
G1 X97.058 Y129.638 E3.9607
G1 X96.853 Y129.394 E3.9713
G1 X96.407 Y128.742 E3.99757
G1 X96.03 Y128.048 E4.02384
G1 X95.702 Y127.255 E4.05238
G1 X95.518 Y126.73 E4.07089
G1 X95.372 Y126.267 E4.08703
G1 X95.254 Y125.845 E4.10161
G1 X95.127 Y125.358 E4.11835
G1 X95.016 Y124.865 E4.13515
G1 X94.944 Y124.491 E4.14782
G1 X94.887 Y124.157 E4.15909
G1 X94.841 Y123.846 E4.16955
G1 X94.774 Y122.974 E4.19864
G1 X94.736 Y122.684 E4.20836
G1 X94.73 Y122.062 E4.22905
G1 X94.72 Y121.781 E4.2384
G1 X94.738 Y120.991 E4.26469
G1 X94.835 Y120.208 E4.29093
G1 X94.941 Y119.703 E4.30809
G1 X94.99 Y119.503 E4.31494
G1 X95.068 Y119.242 E4.324
G1 X95.183 Y118.789 E4.33954
G1 X95.459 Y118.035 E4.36625
G1 X95.867 Y117.078 E4.40085
G1 X95.742 Y116.818 E4.41045
G1 X95.436 Y116.09 E4.43671
G1 X95.206 Y115.335 E4.46296
G1 X95.053 Y114.56 E4.48924
G1 X95.014 Y114.216 E4.50075
G1 X94.945 Y113.795 E4.51494
G1 X94.896 Y113.007 E4.5412
G1 X94.904 Y112.657 E4.55285
G1 X94.888 Y112.391 E4.56171
G1 X94.92 Y111.602 E4.58797
G1 X95.123 Y110.112 E4.63799
G1 X95.258 Y109.447 E4.66056
G1 X95.351 Y109.043 E4.67435
G1 X95.527 Y108.393 E4.69674
G1 X95.684 Y107.885 E4.71443
G1 X95.8 Y107.546 E4.72634
G1 X96.039 Y106.91 E4.74894
G1 X96.238 Y106.422 E4.76647
G1 X96.573 Y105.707 E4.79273
G1 X97.111 Y104.838 E4.82673
G1 X97.389 Y104.448 E4.84266
G1 X97.882 Y103.832 E4.8689
G1 X97.963 Y103.749 E4.87276
G1 X98.025 Y103.565 E4.87921
G1 X98.35 Y102.846 E4.90546
G1 X98.747 Y102.163 E4.93173
G1 X99.211 Y101.524 E4.958
G1 X99.697 Y101 E4.98177
G1 X100.096 Y100.492 E5.00325
G1 X100.645 Y99.924 E5.02953
G0 F6000 X100.947 Y100.189
G1 F1200 X101.021 Y100.128 E5.03272
G1 X101.454 Y99.692 E5.05315
G1 X101.63 Y99.548 E5.06072
G1 X101.708 Y99.465 E5.06451
G1 X102.016 Y99.185 E5.07835
G1 X102.178 Y99.046 E5.08545
G1 X102.495 Y98.789 E5.09902
G1 X102.842 Y98.523 E5.11357
G1 X103.088 Y98.342 E5.12372
G1 X103.546 Y98.02 E5.14234
G1 X103.787 Y97.858 E5.152
G1 X104.027 Y97.703 E5.16151
G1 X104.426 Y97.463 E5.17699
G1 X104.821 Y97.244 E5.19201
G1 X105.093 Y97.1 E5.20225
G1 X105.349 Y96.971 E5.21179
G1 X105.765 Y96.771 E5.22714
G1 X106.267 Y96.552 E5.24535
G1 X106.481 Y96.468 E5.253
G1 X107.211 Y96.224 E5.2786
G1 X107.388 Y96.183 E5.28464
G1 X107.789 Y96.05 E5.29869
G1 X108 Y96.004 E5.30588
G1 X108.38 Y95.898 E5.319
G1 X109.138 Y95.771 E5.34456
G1 X109.906 Y95.722 E5.37016
G1 X110.726 Y95.759 E5.39746
G1 X111.402 Y95.827 E5.42006
G1 X112.503 Y96.023 E5.45725
G1 X112.931 Y96.133 E5.47195
G1 X113.665 Y96.363 E5.49753
G1 X114.435 Y96.7 E5.52549
G1 X116.004 Y97.258 E5.58088
G1 X116.714 Y97.553 E5.60645
G1 X117.28 Y97.86 E5.62786
G1 X117.328 Y97.829 E5.62976
G1 X118.375 Y97.226 E5.66995
G1 X119.06 Y96.878 E5.6955
G1 X119.778 Y96.602 E5.72109
G1 X120.476 Y96.412 E5.74515
G1 X122.374 Y95.994 E5.80979
G1 X123.133 Y95.868 E5.83538
G1 X123.522 Y95.834 E5.84837
G1 X124.371 Y95.783 E5.87666
G1 X125.14 Y95.777 E5.90223
G1 X125.906 Y95.851 E5.92783
G1 X126.956 Y96.087 E5.96362
G1 X127.171 Y96.152 E5.97109
G1 X127.607 Y96.298 E5.98639
G1 X128.245 Y96.535 E6.00902
G1 X128.741 Y96.74 E6.02687
G1 X129.397 Y97.043 E6.05091
G1 X129.596 Y97.141 E6.05829
G1 X130.034 Y97.375 E6.0748
G1 X130.688 Y97.762 E6.10008
G1 X131.058 Y98.002 E6.11475
G1 X131.577 Y98.361 E6.13574
G1 X132.094 Y98.753 E6.15731
G1 X132.63 Y99.198 E6.18049
G1 X133.165 Y99.692 E6.20471
G1 X133.507 Y99.998 E6.21997
G1 X133.777 Y100.296 E6.23334
G1 X133.826 Y100.336 E6.23545
G1 X134.362 Y100.887 E6.26101
G1 X134.801 Y101.438 E6.28445
G1 X134.914 Y101.595 E6.29088
G1 X134.964 Y101.649 E6.29333
G1 X135.201 Y101.92 E6.3053
G1 X135.367 Y102.119 E6.31392
G1 X135.679 Y102.52 E6.33082
G1 X135.949 Y102.893 E6.34613
G1 X136.367 Y103.539 E6.37173
G1 X136.716 Y104.224 E6.3973
G1 X136.992 Y104.942 E6.42288
G1 X137.064 Y105.212 E6.43217
G1 X137.323 Y105.52 E6.44556
G1 X137.755 Y106.157 E6.47116
G1 X138.118 Y106.835 E6.49674
G1 X138.378 Y107.459 E6.51922
G1 X138.447 Y107.649 E6.52594
G1 X138.564 Y107.999 E6.53822
G1 X138.739 Y108.578 E6.55834
G1 X138.846 Y108.965 E6.57169
G1 X138.941 Y109.329 E6.5842
G1 X139.061 Y109.872 E6.6027
G1 X139.12 Y110.196 E6.61365
G1 X139.195 Y110.777 E6.63314
G1 X139.283 Y111.417 E6.65462
G1 X139.302 Y111.647 E6.6623
G1 X139.314 Y112.154 E6.67917
G1 X139.342 Y112.498 E6.69065
G1 X139.322 Y113.319 E6.71796
G1 X139.297 Y113.631 E6.72837
G1 X139.172 Y114.52 E6.75823
G1 X139.122 Y114.765 E6.76655
G1 X138.949 Y115.443 E6.78982
G1 X138.867 Y115.712 E6.79917
G1 X138.605 Y116.435 E6.82475
G1 X138.373 Y116.929 E6.8429
G1 X138.973 Y118.088 E6.88631
G1 X139.291 Y118.789 E6.91191
G1 X139.534 Y119.519 E6.9375
G1 X139.7 Y120.27 E6.96309
G1 X139.72 Y120.465 E6.96961
G1 X139.742 Y120.553 E6.97262
G1 X139.845 Y121.315 E6.9982
G1 X139.864 Y122.489 E7.03725
G1 X139.86 Y122.942 E7.05232
G1 X139.813 Y123.71 E7.07791
G1 X139.757 Y124.109 E7.09131
G1 X139.705 Y124.417 E7.1017
G1 X139.632 Y124.926 E7.1188
G1 X139.508 Y125.512 E7.13872
G1 X139.421 Y125.876 E7.15117
G1 X139.311 Y126.291 E7.16545
G1 X139.215 Y126.622 E7.17691
G1 X139.097 Y126.996 E7.18996
G1 X138.926 Y127.453 E7.20619
G1 X138.844 Y127.727 E7.2157
G1 X138.62 Y128.262 E7.23499
G1 X138.302 Y129.007 E7.26193
G1 X137.925 Y129.678 E7.28753
G1 X137.7 Y130.012 E7.30092
G1 X137.502 Y130.29 E7.31228
G1 X137.024 Y130.892 E7.33784
G1 X136.794 Y131.127 E7.34878
G1 X136.673 Y131.458 E7.3605
G1 X136.336 Y132.149 E7.38607
G1 X135.93 Y132.802 E7.41165
G1 X135.477 Y133.36 E7.43555
G1 X135.364 Y133.518 E7.44201
G1 X134.884 Y134.119 E7.46759
G1 X134.501 Y134.49 E7.48533
G1 X134.416 Y134.6 E7.48995
G1 X133.885 Y135.157 E7.51555
G1 X133.62 Y135.382 E7.52711
G1 X133.579 Y135.427 E7.52914
G1 X133.027 Y135.915 E7.55364
G1 X132.793 Y136.102 E7.5636
G1 X132.235 Y136.54 E7.5872
G1 X131.831 Y136.835 E7.60384
G1 X131.342 Y137.168 E7.62351
G1 X130.918 Y137.437 E7.64021
G1 X130.662 Y137.587 E7.65008
G1 X130.001 Y137.945 E7.67508
G1 X129.758 Y138.068 E7.68414
G1 X129.055 Y138.38 E7.70972
G1 X128.525 Y138.553 E7.72827
G1 X128.443 Y138.591 E7.73127
G1 X127.716 Y138.842 E7.75685
G1 X127.391 Y138.918 E7.76796
G1 X127.119 Y139.001 E7.77741
G1 X126.992 Y139.026 E7.78172
G1 X126.769 Y139.091 E7.78945
G1 X126.012 Y139.228 E7.81503
G1 X125.245 Y139.286 E7.84062
G1 X124.476 Y139.264 E7.8662
G1 X123.928 Y139.199 E7.88456
G1 X122.613 Y138.993 E7.92883
G1 X121.86 Y138.834 E7.95442
G1 X121.128 Y138.599 E7.98
G1 X120.658 Y138.401 E7.99696
G1 X119.637 Y137.93 E8.03436
G1 X118.278 Y137.319 E8.08391
G1 X117.594 Y136.968 E8.10948
G1 X117.255 Y136.747 E8.12294
G1 X117.204 Y136.783 E8.12502
G1 X116.534 Y137.161 E8.15061
G1 X115.786 Y137.483 E8.17769
G1 X113.611 Y138.281 E8.25475
G1 X112.876 Y138.508 E8.28033
G1 X112.122 Y138.658 E8.3059
G1 X111.537 Y138.719 E8.32547
G1 X110.168 Y138.807 E8.37109
G1 X109.399 Y138.816 E8.39667
G1 X108.633 Y138.746 E8.42226
G1 X107.845 Y138.587 E8.44899
G1 X107.593 Y138.522 E8.45765
G1 X107.126 Y138.376 E8.47392
G1 X106.518 Y138.192 E8.49505
G1 X106.321 Y138.123 E8.50199
G1 X105.892 Y137.958 E8.51728
G1 X105.688 Y137.872 E8.52464
G1 X105.146 Y137.617 E8.54457
G1 X104.562 Y137.313 E8.56646
G1 X104.083 Y137.04 E8.5848
G1 X103.773 Y136.848 E8.59693
G1 X103.492 Y136.665 E8.60808
G1 X103.144 Y136.427 E8.62211
G1 X102.803 Y136.18 E8.63611
G1 X101.967 Y135.524 E8.67145
G1 X101.488 Y135.085 E8.69307
G1 X101.08 Y134.725 E8.71116
G1 X100.888 Y134.516 E8.7206
G1 X100.313 Y133.945 E8.74755
G1 X99.917 Y133.459 E8.76841
G1 X99.88 Y133.422 E8.77015
G1 X99.15 Y132.57 E8.80746
G1 X98.549 Y131.752 E8.84122
G1 X98.126 Y131.11 E8.86679
G1 X97.772 Y130.427 E8.89238
G1 X97.492 Y129.711 E8.91795
G1 X97.419 Y129.446 E8.92709
G1 X97.123 Y129.088 E8.94254
G1 X96.697 Y128.448 E8.96811
G1 X96.34 Y127.767 E8.99369
G1 X96.079 Y127.123 E9.0168
G1 X95.895 Y126.598 E9.0353
G1 X95.757 Y126.159 E9.05061
G1 X95.641 Y125.744 E9.06494
G1 X95.514 Y125.257 E9.08168
G1 X95.408 Y124.789 E9.09764
G1 X95.336 Y124.415 E9.11031
G1 X95.283 Y124.099 E9.12096
G1 X95.237 Y123.788 E9.13142
G1 X95.172 Y122.927 E9.16014
G1 X95.134 Y122.632 E9.17003
G1 X95.128 Y122.051 E9.18936
G1 X95.12 Y121.77 E9.19871
G1 X95.138 Y121.001 E9.22429
G1 X95.236 Y120.238 E9.24988
G1 X95.33 Y119.798 E9.26484
G1 X95.379 Y119.598 E9.27169
G1 X95.432 Y119.42 E9.27787
G1 X95.595 Y118.812 E9.2988
G1 X95.827 Y118.192 E9.32082
G1 X96.294 Y117.097 E9.36042
G1 X96.102 Y116.645 E9.37675
G1 X95.806 Y115.935 E9.40233
G1 X95.584 Y115.199 E9.4279
G1 X95.44 Y114.443 E9.4535
G1 X95.409 Y114.153 E9.4632
G1 X95.34 Y113.731 E9.47742
G1 X95.296 Y112.963 E9.50301
G1 X95.304 Y112.635 E9.51392
G1 X95.288 Y112.367 E9.52285
G1 X95.322 Y111.598 E9.54845
G1 X95.515 Y110.192 E9.59565
G1 X95.65 Y109.527 E9.61822
G1 X95.739 Y109.143 E9.63133
G1 X95.912 Y108.501 E9.65345
G1 X96.065 Y108.006 E9.67068
G1 X96.176 Y107.684 E9.68201
G1 X96.41 Y107.061 E9.70414
G1 X96.609 Y106.573 E9.72167
G1 X96.936 Y105.877 E9.74725
G1 X97.437 Y105.07 E9.77884
G1 X97.714 Y104.682 E9.7947
G1 X98.195 Y104.082 E9.82027
G1 X98.315 Y103.961 E9.82594
G1 X98.434 Y103.619 E9.83799
G1 X98.762 Y102.923 E9.86358
G1 X99.16 Y102.265 E9.88915
G1 X99.624 Y101.651 E9.91475
G1 X100.029 Y101.224 E9.93433
G1 X100.411 Y100.74 E9.95483
G1 X100.947 Y100.189 E9.9804
G0 F6000 X101.249 Y100.455
G1 F1200 X101.3 Y100.413 E9.9826
G1 X101.754 Y99.961 E10.00391
G1 X102.022 Y99.745 E10.01535
G1 X102.277 Y99.489 E10.02737
G1 X102.439 Y99.35 E10.03447
G1 X102.738 Y99.106 E10.04731
G1 X103.085 Y98.84 E10.06185
G1 X103.318 Y98.67 E10.07144
G1 X103.776 Y98.348 E10.09006
