;FLAVOR:Marlin
;TIME:1611
;Filament used: 0.870969m
;Layer height: 0.2
;MINX:95.748
;MINY:95.73
;MINZ:0.2
;MAXX:139.329
;MAXY:139.233
;MAXZ:10.4
;Generated with Cura_SteamEngine 4.5.0
M140 S50
M105
M190 S50
M104 S200
M105
M109 S200
M82 ;absolute extrusion mode
; Ender 3 Custom Start G-code
G92 E0 ; Reset Extruder
G28 ; Home all axes
G1 Z2.0 F3000 ; Move Z Axis up little to prevent scratching of Heat Bed
G1 X0.1 Y20 Z0.3 F5000.0 ; Move to start position
G1 X0.1 Y200.0 Z0.3 F1500.0 E15 ; Draw the first line
G1 X0.4 Y200.0 Z0.3 F5000.0 ; Move to side a little
G1 X0.4 Y20 Z0.3 F1500.0 E30 ; Draw the second line
G92 E0 ; Reset Extruder
G1 Z2.0 F3000 ; Move Z Axis up little to prevent scratching of Heat Bed
G1 X5 Y20 Z0.3 F5000.0 ; Move over to prevent blob squish
G92 E0
G92 E0
G1 F2700 E-5
;LAYER_COUNT:52
;LAYER:0
M107
G0 F6000 X99.294 Y108.437 Z0.2
;TYPE:SKIRT
G1 F2700 E0
G1 F1200 X99.883 Y107.911 E0.02626
G1 X100.341 Y107.569 E0.04528
G1 X101.487 Y106.777 E0.09161
G1 X101.768 Y106.592 E0.1028
G1 X102.391 Y106.2 E0.12728
G1 X103.08 Y105.814 E0.15355
G1 X103.804 Y105.499 E0.17981
G1 X104.322 Y105.326 E0.19797
G1 X105.125 Y105.083 E0.22588
G1 X105.285 Y104.655 E0.24107
G1 X105.854 Y103.318 E0.2894
G1 X106.249 Y102.52 E0.31902
G1 X106.487 Y102.101 E0.33505
G1 X106.696 Y101.778 E0.34784
G1 X106.795 Y101.567 E0.35559
G1 X107.2 Y100.889 E0.38186
G1 X107.672 Y100.256 E0.40812
G1 X108.134 Y99.747 E0.43099
G1 X108.647 Y99.228 E0.45526
G1 X109.229 Y98.695 E0.48151
G1 X109.863 Y98.224 E0.50778
G1 X110.48 Y97.852 E0.53174
G1 X110.848 Y97.653 E0.54565
G1 X111.2 Y97.41 E0.55988
G1 X111.872 Y96.995 E0.58615
G1 X112.583 Y96.65 E0.61243
G1 X113.324 Y96.379 E0.63868
G1 X114.208 Y96.161 E0.66896
G1 X115.639 Y95.896 E0.71736
G1 X116.421 Y95.792 E0.7436
G1 X116.889 Y95.768 E0.75919
G1 X118.629 Y95.73 E0.81707
G1 X119.418 Y95.753 E0.84333
G1 X120.201 Y95.855 E0.86959
G1 X120.97 Y96.036 E0.89587
G1 X121.716 Y96.294 E0.92212
G1 X122.216 Y96.516 E0.94032
G1 X122.576 Y96.691 E0.95363
G1 X122.957 Y96.817 E0.96698
G1 X123.694 Y97.102 E0.99326
G1 X124.398 Y97.46 E1.01953
G1 X125.062 Y97.887 E1.04578
G1 X125.68 Y98.379 E1.07206
G1 X125.951 Y98.643 E1.08464
G1 X126.154 Y98.783 E1.09284
G1 X126.755 Y99.295 E1.1191
G1 X127.301 Y99.865 E1.14535
G1 X127.787 Y100.487 E1.17161
G1 X128.035 Y100.862 E1.18656
G1 X128.863 Y102.198 E1.23884
G1 X129.389 Y103.204 E1.2766
G1 X129.496 Y103.451 E1.28555
G1 X129.729 Y103.901 E1.3024
G1 X130.048 Y104.623 E1.32866
G1 X130.183 Y105.038 E1.34317
G1 X130.935 Y105.27 E1.36935
G1 X131.662 Y105.579 E1.39562
G1 X132.354 Y105.96 E1.42189
G1 X132.843 Y106.288 E1.44148
G1 X134.833 Y107.736 E1.52333
G1 X135.447 Y108.232 E1.54959
G1 X136.008 Y108.788 E1.57586
G1 X136.51 Y109.398 E1.60213
G1 X137.054 Y110.24 E1.63547
G1 X137.319 Y110.714 E1.65354
G1 X137.745 Y111.338 E1.67867
G1 X138.156 Y112.012 E1.70492
G1 X138.498 Y112.724 E1.73119
G1 X138.766 Y113.467 E1.75746
G1 X138.949 Y114.202 E1.78266
G1 X139.035 Y114.48 E1.79234
G1 X139.192 Y115.254 E1.8186
G1 X139.269 Y116.04 E1.84487
G1 X139.275 Y116.628 E1.86443
G1 X139.258 Y117.228 E1.88439
G1 X139.314 Y118.031 E1.91117
G1 X139.329 Y118.82 E1.93741
G1 X139.264 Y119.607 E1.96368
G1 X139.119 Y120.384 E1.98997
G1 X138.897 Y121.141 E2.0162
G1 X138.585 Y121.903 E2.04359
G1 X138.314 Y122.465 E2.06434
G1 X138.156 Y122.933 E2.08077
G1 X137.866 Y123.667 E2.10702
G1 X137.503 Y124.369 E2.13331
G1 X137.071 Y125.03 E2.15957
G1 X136.575 Y125.644 E2.18582
G1 X136.292 Y125.932 E2.19925
G1 X136.16 Y126.12 E2.20689
G1 X135.643 Y126.717 E2.23316
G1 X135.068 Y127.258 E2.25942
G1 X134.116 Y127.952 E2.2986
G1 X132.9 Y128.704 E2.34616
G1 X132.285 Y129.047 E2.36958
G1 X131.847 Y129.266 E2.38586
G1 X131.076 Y129.6 E2.41381
G1 X130.652 Y129.81 E2.42955
G1 X130.035 Y130.046 E2.45152
G1 X129.691 Y131.167 E2.49052
G1 X129.422 Y131.909 E2.51677
G1 X129.078 Y132.62 E2.54304
G1 X128.665 Y133.293 E2.5693
G1 X128.134 Y133.981 E2.59821
G1 X127.929 Y134.218 E2.60863
G1 X127.623 Y134.659 E2.62649
G1 X127.14 Y135.284 E2.65276
G1 X126.597 Y135.858 E2.67904
G1 X125.999 Y136.373 E2.70529
G1 X125.351 Y136.825 E2.73156
G1 X124.988 Y137.039 E2.74558
G1 X124.479 Y137.321 E2.76493
G1 X124.112 Y137.574 E2.77976
G1 X123.44 Y137.99 E2.80605
G1 X122.73 Y138.335 E2.8323
G1 X121.989 Y138.607 E2.85855
G1 X121.726 Y138.673 E2.86757
G1 X121.487 Y138.77 E2.87615
G1 X120.729 Y138.992 E2.90242
G1 X119.953 Y139.135 E2.92867
G1 X119.087 Y139.201 E2.95755
G1 X117.536 Y139.233 E3.00915
G1 X116.59 Y139.195 E3.04064
G1 X114.672 Y139.001 E3.10476
G1 X113.891 Y138.882 E3.13103
G1 X113.127 Y138.685 E3.15728
G1 X112.386 Y138.411 E3.18355
G1 X111.677 Y138.064 E3.20981
G1 X111.006 Y137.647 E3.23608
G1 X110.789 Y137.48 E3.24519
G1 X110.195 Y137.095 E3.26873
G1 X109.579 Y136.601 E3.295
G1 X109.336 Y136.364 E3.30629
G1 X109.17 Y136.25 E3.31298
G1 X108.567 Y135.741 E3.33923
G1 X108.018 Y135.174 E3.36548
G1 X107.529 Y134.554 E3.39174
G1 X107.284 Y134.186 E3.40645
G1 X106.943 Y133.643 E3.42777
G1 X106.765 Y133.41 E3.43753
G1 X106.318 Y132.76 E3.46376
G1 X105.938 Y132.067 E3.49005
G1 X105.631 Y131.34 E3.5163
G1 X105.47 Y130.85 E3.53345
G1 X105.316 Y130.32 E3.55181
G1 X105.196 Y130.028 E3.56231
G1 X104.175 Y129.751 E3.5975
G1 X103.425 Y129.506 E3.62374
G1 X102.703 Y129.186 E3.65001
G1 X102.017 Y128.795 E3.67627
G1 X101.073 Y128.085 E3.71556
G1 X99.92 Y127.073 E3.76658
G1 X99.144 Y126.289 E3.80327
G1 X98.114 Y125.088 E3.85589
G1 X97.631 Y124.463 E3.88217
G1 X97.214 Y123.793 E3.90841
G1 X96.866 Y123.084 E3.93468
G1 X96.514 Y122.076 E3.97019
G1 X96.053 Y120.398 E4.02807
G1 X95.882 Y119.627 E4.05434
G1 X95.776 Y118.509 E4.09169
G1 X95.748 Y117.272 E4.13284
G1 X95.77 Y116.482 E4.15913
G1 X95.876 Y115.678 E4.1861
G1 X96.092 Y114.509 E4.22564
G1 X96.274 Y113.74 E4.25192
G1 X96.534 Y112.995 E4.27817
G1 X96.749 Y112.512 E4.29575
G1 X97.038 Y111.928 E4.31743
G1 X97.885 Y110.331 E4.37755
G1 X98.29 Y109.653 E4.40382
G1 X98.761 Y109.02 E4.43006
G1 X99.294 Y108.437 E4.45633
G0 F6000 X99.618 Y108.68
G1 F1200 X100.197 Y108.173 E4.48193
G1 X100.569 Y107.898 E4.49732
G1 X101.715 Y107.106 E4.54365
G1 X101.981 Y106.931 E4.55424
G1 X102.604 Y106.539 E4.57872
G1 X103.275 Y106.163 E4.6043
G1 X103.982 Y105.86 E4.62989
G1 X104.436 Y105.709 E4.6458
G1 X105.027 Y105.533 E4.66631
G1 X105.431 Y105.409 E4.68037
G1 X105.653 Y104.811 E4.70158
G1 X106.222 Y103.474 E4.74991
G1 X106.597 Y102.717 E4.77801
G1 X106.835 Y102.298 E4.79404
G1 X107.048 Y101.969 E4.80707
G1 X107.157 Y101.737 E4.8156
G1 X107.555 Y101.079 E4.84117
G1 X108.019 Y100.465 E4.86677
G1 X108.418 Y100.028 E4.88645
G1 X108.931 Y99.509 E4.91072
G1 X109.499 Y98.991 E4.93629
G1 X110.119 Y98.534 E4.96191
G1 X110.67 Y98.204 E4.98327
G1 X111.055 Y97.996 E4.99783
G1 X111.427 Y97.739 E5.01287
G1 X112.082 Y97.336 E5.03844
G1 X112.776 Y97.003 E5.06405
G1 X113.5 Y96.744 E5.08962
G1 X114.281 Y96.555 E5.11635
G1 X115.712 Y96.29 E5.16475
G1 X116.474 Y96.189 E5.19032
G1 X116.897 Y96.168 E5.2044
G1 X118.637 Y96.13 E5.26229
G1 X119.406 Y96.153 E5.28788
G1 X120.168 Y96.256 E5.31345
G1 X120.916 Y96.437 E5.33905
G1 X121.641 Y96.695 E5.36464
G1 X122.041 Y96.876 E5.37925
G1 X122.423 Y97.062 E5.39338
G1 X122.832 Y97.197 E5.4077
G1 X123.549 Y97.475 E5.43328
G1 X124.234 Y97.827 E5.4589
G1 X124.878 Y98.247 E5.48447
G1 X125.475 Y98.732 E5.51005
G1 X125.711 Y98.964 E5.52106
G1 X125.926 Y99.113 E5.52976
G1 X126.51 Y99.613 E5.55533
G1 X127.038 Y100.172 E5.5809
G1 X127.695 Y101.073 E5.61799
G1 X128.523 Y102.409 E5.67027
G1 X129.022 Y103.363 E5.70608
G1 X129.136 Y103.625 E5.71558
G1 X129.372 Y104.08 E5.73263
G1 X129.681 Y104.785 E5.75823
G1 X129.873 Y105.382 E5.77909
G1 X130.102 Y105.429 E5.78687
G1 X130.835 Y105.66 E5.81243
G1 X131.541 Y105.965 E5.83801
G1 X132.212 Y106.342 E5.86361
G1 X132.608 Y106.611 E5.87953
G1 X134.598 Y108.059 E5.96138
G1 X135.195 Y108.544 E5.98697
G1 X135.74 Y109.087 E6.01255
G1 X136.224 Y109.685 E6.03814
G1 X136.705 Y110.435 E6.06778
G1 X136.982 Y110.931 E6.08667
G1 X137.414 Y111.564 E6.11216
G1 X137.815 Y112.22 E6.13773
G1 X138.144 Y112.915 E6.16331
G1 X138.401 Y113.641 E6.18892
G1 X138.556 Y114.287 E6.21102
G1 X138.657 Y114.618 E6.22253
G1 X138.805 Y115.373 E6.24812
G1 X138.873 Y116.139 E6.2737
G1 X138.875 Y116.617 E6.28959
G1 X138.858 Y117.234 E6.31012
G1 X138.915 Y118.058 E6.3376
G1 X138.929 Y118.827 E6.36318
G1 X138.862 Y119.594 E6.38878
G1 X138.716 Y120.349 E6.41436
G1 X138.493 Y121.085 E6.43994
G1 X138.223 Y121.732 E6.46326
G1 X137.943 Y122.313 E6.48471
G1 X137.777 Y122.805 E6.50198
G1 X137.494 Y123.52 E6.52755
G1 X137.138 Y124.201 E6.55311
G1 X136.712 Y124.842 E6.57871
G1 X136.223 Y125.436 E6.6043
G1 X135.976 Y125.685 E6.61597
G1 X135.832 Y125.89 E6.6243
G1 X135.326 Y126.469 E6.64987
G1 X134.763 Y126.993 E6.67546
G1 X133.905 Y127.612 E6.71064
G1 X132.689 Y128.364 E6.7582
G1 X132.106 Y128.689 E6.7804
G1 X131.668 Y128.908 E6.79669
G1 X130.887 Y129.244 E6.82496
G1 X130.472 Y129.452 E6.8404
G1 X129.752 Y129.724 E6.866
G1 X129.713 Y129.734 E6.86734
G1 X129.309 Y131.05 E6.91313
G1 X129.045 Y131.772 E6.9387
G1 X128.708 Y132.463 E6.96427
G1 X128.301 Y133.116 E6.98986
G1 X127.831 Y133.719 E7.01529
G1 X127.614 Y133.97 E7.02632
G1 X127.294 Y134.431 E7.04499
G1 X126.823 Y135.039 E7.07057
G1 X126.292 Y135.596 E7.09616
G1 X125.706 Y136.094 E7.12174
G1 X124.795 Y136.689 E7.15793
G1 X124.268 Y136.981 E7.17797
G1 X123.885 Y137.245 E7.19344
G1 X123.23 Y137.649 E7.21904
G1 X122.537 Y137.982 E7.24461
G1 X121.813 Y138.242 E7.2702
G1 X121.586 Y138.298 E7.27797
G1 X121.337 Y138.399 E7.28691
G1 X120.598 Y138.612 E7.31249
G1 X119.841 Y138.746 E7.33806
G1 X119.079 Y138.801 E7.36347
G1 X117.528 Y138.833 E7.41507
G1 X116.63 Y138.797 E7.44496
G1 X114.712 Y138.603 E7.50908
G1 X113.952 Y138.486 E7.53465
G1 X113.208 Y138.291 E7.56023
G1 X112.489 Y138.02 E7.58579
G1 X111.801 Y137.675 E7.61139
G1 X111.153 Y137.261 E7.63696
G1 X111.021 Y137.155 E7.64259
G1 X110.38 Y136.735 E7.66808
G1 X109.785 Y136.248 E7.69366
G1 X109.579 Y136.045 E7.70328
G1 X109.397 Y135.92 E7.71062
G1 X108.811 Y135.422 E7.7362
G1 X108.28 Y134.865 E7.76179
G1 X107.622 Y133.974 E7.79863
G1 X107.264 Y133.404 E7.82102
G1 X107.083 Y133.167 E7.83094
G1 X106.648 Y132.533 E7.85651
G1 X106.281 Y131.857 E7.8821
G1 X105.986 Y131.146 E7.9077
G1 X105.854 Y130.738 E7.92196
G1 X105.694 Y130.19 E7.94095
G1 X105.493 Y129.694 E7.95875
G1 X104.28 Y129.365 E8.00055
G1 X103.549 Y129.125 E8.02614
G1 X102.847 Y128.811 E8.05172
G1 X102.182 Y128.425 E8.07729
G1 X101.337 Y127.785 E8.11255
G1 X100.184 Y126.773 E8.16357
G1 X99.448 Y126.028 E8.19841
G1 X98.418 Y124.827 E8.25103
G1 X97.948 Y124.218 E8.27662
G1 X97.544 Y123.564 E8.30218
G1 X97.21 Y122.871 E8.32777
G1 X96.899 Y121.97 E8.35947
G1 X96.438 Y120.292 E8.41735
G1 X96.273 Y119.541 E8.44292
G1 X96.176 Y118.499 E8.47773
G1 X96.148 Y117.262 E8.51889
G1 X96.17 Y116.494 E8.54444
G1 X96.269 Y115.75 E8.5694
G1 X96.485 Y114.581 E8.60894
G1 X96.664 Y113.833 E8.63452
G1 X96.92 Y113.108 E8.6601
G1 X97.109 Y112.687 E8.67544
G1 X97.392 Y112.116 E8.69664
G1 X98.239 Y110.519 E8.75677
G1 X98.634 Y109.859 E8.78235
G1 X99.095 Y109.244 E8.80791
G1 X99.618 Y108.68 E8.83349
G0 F6000 X99.941 Y108.924
G1 F1200 X100.796 Y108.227 E8.87018
G1 X101.942 Y107.435 E8.91652
G1 X102.194 Y107.269 E8.92655
G1 X102.817 Y106.877 E8.95104
G1 X103.471 Y106.513 E8.97593
G1 X104.159 Y106.221 E9.00079
G1 X104.55 Y106.092 E9.01448
G1 X105.432 Y105.825 E9.04513
G1 X105.757 Y105.733 E9.05637
G1 X105.841 Y105.436 E9.06663
G1 X106.021 Y104.968 E9.08331
G1 X106.59 Y103.631 E9.13164
G1 X106.944 Y102.915 E9.1582
G1 X107.182 Y102.496 E9.17423
G1 X107.402 Y102.157 E9.18767
G1 X107.52 Y101.908 E9.19684
G1 X107.909 Y101.269 E9.22172
G1 X108.365 Y100.676 E9.2466
G1 X108.703 Y100.309 E9.26319
G1 X109.216 Y99.79 E9.28747
G1 X109.769 Y99.287 E9.31233
G1 X110.373 Y98.846 E9.3372
G1 X110.861 Y98.556 E9.35608
G1 X111.258 Y98.341 E9.3711
G1 X111.654 Y98.068 E9.3871
G1 X112.292 Y97.677 E9.41199
G1 X112.968 Y97.356 E9.43688
G1 X113.674 Y97.109 E9.46175
G1 X114.353 Y96.948 E9.48496
G1 X115.784 Y96.683 E9.53337
G1 X116.526 Y96.586 E9.55826
G1 X116.906 Y96.568 E9.57091
G1 X118.646 Y96.53 E9.6288
G1 X119.394 Y96.553 E9.65369
G1 X120.135 Y96.657 E9.67857
G1 X120.86 Y96.838 E9.70343
G1 X121.866 Y97.236 E9.73941
G1 X122.271 Y97.433 E9.75439
G1 X122.707 Y97.577 E9.76966
G1 X123.404 Y97.849 E9.79455
G1 X124.068 Y98.193 E9.81942
G1 X124.691 Y98.607 E9.8443
G1 X125.267 Y99.084 E9.86917
G1 X125.461 Y99.277 E9.87827
G1 X125.698 Y99.442 E9.88788
G1 X126.263 Y99.931 E9.91273
G1 X126.773 Y100.479 E9.93763
G1 X127.355 Y101.283 E9.97064
G1 X128.183 Y102.619 E10.02292
G1 X128.655 Y103.522 E10.05681
G1 X128.773 Y103.794 E10.06667
G1 X129.014 Y104.26 E10.08412
G1 X129.314 Y104.945 E10.10899
G1 X129.539 Y105.659 E10.13389
G1 X129.553 Y105.726 E10.13617
G1 X130.022 Y105.822 E10.15209
G1 X130.734 Y106.049 E10.17695
G1 X131.419 Y106.351 E10.20184
G1 X132.373 Y106.935 E10.23905
G1 X134.363 Y108.383 E10.3209
G1 X134.943 Y108.855 E10.34577
G1 X135.47 Y109.386 E10.37066
G1 X135.937 Y109.97 E10.39553
G1 X136.355 Y110.63 E10.42151
G1 X136.636 Y111.134 E10.4407
G1 X137.084 Y111.789 E10.4671
G1 X137.472 Y112.429 E10.49199
G1 X137.79 Y113.106 E10.51687
G1 X138.034 Y113.813 E10.54174
G1 X138.157 Y114.35 E10.56007
G1 X138.279 Y114.755 E10.57414
G1 X138.417 Y115.49 E10.59901
G1 X138.475 Y116.606 E10.63618
G1 X138.457 Y117.241 E10.65731
G1 X138.516 Y118.086 E10.68548
G1 X138.528 Y118.834 E10.71036
G1 X138.46 Y119.579 E10.73524
G1 X138.313 Y120.312 E10.76011
G1 X138.088 Y121.026 E10.78501
G1 X137.862 Y121.561 E10.80432
G1 X137.57 Y122.166 E10.82667
G1 X137.398 Y122.677 E10.8446
G1 X137.122 Y123.372 E10.86947
G1 X136.772 Y124.033 E10.89435
G1 X136.354 Y124.654 E10.91925
G1 X135.872 Y125.226 E10.94413
G1 X135.666 Y125.432 E10.95381
G1 X135.505 Y125.659 E10.96307
G1 X135.01 Y126.22 E10.98795
G1 X134.459 Y126.725 E11.01281
G1 X133.695 Y127.272 E11.04407
G1 X132.479 Y128.024 E11.09162
G1 X131.927 Y128.331 E11.11263
G1 X131.489 Y128.55 E11.12892
G1 X130.718 Y128.881 E11.15682
G1 X130.292 Y129.094 E11.17266
G1 X129.592 Y129.356 E11.19752
G1 X129.396 Y129.406 E11.20425
G1 X128.927 Y130.932 E11.25735
G1 X128.669 Y131.634 E11.28222
G1 X128.338 Y132.305 E11.30711
G1 X127.937 Y132.937 E11.332
G1 X127.529 Y133.457 E11.35399
G1 X127.295 Y133.728 E11.3659
G1 X126.965 Y134.203 E11.38513
G1 X126.507 Y134.794 E11.41
G1 X125.988 Y135.333 E11.43489
G1 X125.414 Y135.813 E11.45978
G1 X124.601 Y136.339 E11.49198
G1 X124.056 Y136.641 E11.51271
G1 X123.657 Y136.916 E11.52882
G1 X123.02 Y137.308 E11.5537
G1 X122.344 Y137.629 E11.57859
G1 X121.639 Y137.877 E11.60345
G1 X121.445 Y137.924 E11.61009
G1 X121.187 Y138.028 E11.61934
G1 X120.468 Y138.231 E11.64419
G1 X119.73 Y138.357 E11.66909
G1 X119.07 Y138.402 E11.69109
G1 X117.519 Y138.434 E11.74269
G1 X116.671 Y138.399 E11.77092
G1 X114.753 Y138.205 E11.83504
G1 X114.013 Y138.091 E11.85994
G1 X113.291 Y137.897 E11.8848
G1 X112.593 Y137.628 E11.90968
G1 X111.927 Y137.286 E11.93458
G1 X111.303 Y136.875 E11.95944
G1 X111.23 Y136.812 E11.96264
G1 X110.567 Y136.376 E11.98904
G1 X109.993 Y135.897 E12.0139
G1 X109.823 Y135.727 E12.0219
G1 X109.623 Y135.59 E12.02996
G1 X109.056 Y135.102 E12.05484
G1 X108.543 Y134.558 E12.07971
G1 X107.961 Y133.761 E12.11254
G1 X107.594 Y133.177 E12.13548
G1 X107.401 Y132.924 E12.14606
G1 X106.978 Y132.306 E12.17097
G1 X106.624 Y131.648 E12.19582
G1 X106.238 Y130.626 E12.23216
G1 X106.074 Y130.062 E12.25169
G1 X105.887 Y129.61 E12.26796
G1 X105.799 Y129.363 E12.27668
G1 X104.385 Y128.979 E12.32542
G1 X103.675 Y128.745 E12.35028
G1 X102.993 Y128.436 E12.37518
G1 X102.349 Y128.056 E12.40005
G1 X101.6 Y127.484 E12.4314
G1 X100.447 Y126.472 E12.48242
G1 X99.751 Y125.768 E12.51535
G1 X98.721 Y124.567 E12.56797
G1 X98.266 Y123.974 E12.59283
G1 X97.875 Y123.336 E12.61772
G1 X97.556 Y122.659 E12.64261
G1 X97.285 Y121.864 E12.67055
G1 X96.824 Y120.186 E12.72843
G1 X96.665 Y119.456 E12.75328
G1 X96.576 Y118.49 E12.78554
G1 X96.548 Y117.253 E12.8267
G1 X96.571 Y116.506 E12.85155
G1 X96.663 Y115.823 E12.87447
G1 X96.879 Y114.654 E12.91401
G1 X97.054 Y113.927 E12.93888
G1 X97.305 Y113.222 E12.96377
