;FLAVOR:Marlin
;TIME:3072
;Filament used: 1.37348m
;Layer height: 0.2
;MINX:95.474
;MINY:96.095
;MINZ:0.2
;MAXX:139.523
;MAXY:138.921
;MAXZ:16.6
;Generated with Cura_SteamEngine 4.5.0
M140 S50
M105
M190 S50
M104 S200
M105
M109 S200
M82 ;absolute extrusion mode
; Ender 3 Custom Start G-code
G92 E0 ; Reset Extruder
G28 ; Home all axes
G1 Z2.0 F3000 ; Move Z Axis up little to prevent scratching of Heat Bed
G1 X0.1 Y20 Z0.3 F5000.0 ; Move to start position
G1 X0.1 Y200.0 Z0.3 F1500.0 E15 ; Draw the first line
G1 X0.4 Y200.0 Z0.3 F5000.0 ; Move to side a little
G1 X0.4 Y20 Z0.3 F1500.0 E30 ; Draw the second line
G92 E0 ; Reset Extruder
G1 Z2.0 F3000 ; Move Z Axis up little to prevent scratching of Heat Bed
G1 X5 Y20 Z0.3 F5000.0 ; Move over to prevent blob squish
G92 E0
G92 E0
G1 F2700 E-5
;LAYER_COUNT:83
;LAYER:0
M107
G0 F6000 X101.237 Y100.501 Z0.2
;TYPE:SKIRT
G1 F2700 E0
G1 F1200 X101.338 Y100.418 E0.00435
G1 X101.854 Y99.9 E0.02867
G1 X102.152 Y99.636 E0.04191
G1 X102.412 Y99.415 E0.05326
G1 X102.856 Y99.055 E0.07227
G1 X103.207 Y98.787 E0.08696
G1 X103.703 Y98.435 E0.10719
G1 X104.411 Y97.972 E0.13532
G1 X104.796 Y97.744 E0.1502
G1 X105.313 Y97.461 E0.16981
G1 X105.499 Y97.365 E0.17677
G1 X106.052 Y97.106 E0.19708
G1 X106.675 Y96.844 E0.21956
G1 X107.418 Y96.575 E0.24584
G1 X108.027 Y96.431 E0.26665
G1 X108.649 Y96.269 E0.28803
G1 X109.793 Y96.118 E0.32641
G1 X110.108 Y96.1 E0.33691
G1 X110.898 Y96.095 E0.36318
G1 X111.352 Y96.128 E0.37832
G1 X112.056 Y96.211 E0.4019
G1 X112.62 Y96.304 E0.42091
G1 X112.909 Y96.36 E0.4307
G1 X113.317 Y96.451 E0.44461
G1 X113.83 Y96.582 E0.46222
G1 X114.268 Y96.704 E0.47734
G1 X115.017 Y96.954 E0.5036
G1 X115.519 Y97.171 E0.52179
G1 X117.175 Y97.957 E0.58276
G1 X117.385 Y97.818 E0.59114
G1 X118.084 Y97.452 E0.61738
G1 X119.02 Y97.092 E0.65073
G1 X120.803 Y96.535 E0.71286
G1 X121.568 Y96.338 E0.73914
G1 X122.669 Y96.194 E0.77607
G1 X124.006 Y96.115 E0.82061
G1 X124.796 Y96.108 E0.84689
G1 X125.582 Y96.181 E0.87315
G1 X126.358 Y96.334 E0.89945
G1 X126.83 Y96.452 E0.91563
G1 X127.585 Y96.682 E0.94189
G1 X128.15 Y96.911 E0.96216
G1 X129.024 Y97.306 E0.99406
G1 X129.969 Y97.814 E1.02975
G1 X130.337 Y98.046 E1.04422
G1 X130.551 Y98.173 E1.05249
G1 X131.208 Y98.611 E1.07876
G1 X131.582 Y98.918 E1.09485
G1 X132.024 Y99.238 E1.113
G1 X132.27 Y99.44 E1.12358
G1 X132.555 Y99.699 E1.13639
G1 X133.163 Y100.237 E1.1634
G1 X133.42 Y100.516 E1.17601
G1 X133.976 Y101.076 E1.20226
G1 X134.489 Y101.719 E1.22962
G1 X134.609 Y101.845 E1.23541
G1 X134.803 Y102.066 E1.24519
G1 X134.996 Y102.295 E1.25515
G1 X135.199 Y102.545 E1.26586
G1 X135.435 Y102.85 E1.27868
G1 X135.63 Y103.116 E1.28965
G1 X136.064 Y103.776 E1.31593
G1 X136.429 Y104.476 E1.34218
G1 X136.721 Y105.21 E1.36846
G1 X136.786 Y105.438 E1.37634
G1 X136.883 Y105.551 E1.3813
G1 X137.335 Y106.199 E1.40757
G1 X137.719 Y106.889 E1.43384
G1 X138.106 Y107.825 E1.46753
G1 X138.224 Y108.173 E1.47975
G1 X138.32 Y108.477 E1.49035
G1 X138.454 Y108.943 E1.50648
G1 X138.563 Y109.356 E1.52068
G1 X138.643 Y109.689 E1.53208
G1 X138.79 Y110.397 E1.55613
G1 X138.867 Y110.868 E1.572
G1 X138.937 Y111.397 E1.58975
G1 X139 Y112.184 E1.61601
G1 X138.997 Y112.333 E1.62096
G1 X139.011 Y113.056 E1.64502
G1 X139.003 Y113.152 E1.64822
G1 X138.962 Y114.085 E1.67928
G1 X138.865 Y114.869 E1.70556
G1 X138.689 Y115.638 E1.73179
G1 X138.489 Y116.249 E1.75318
G1 X138.22 Y116.955 E1.77831
G1 X138.589 Y117.696 E1.80584
G1 X138.905 Y118.42 E1.83211
G1 X139.146 Y119.172 E1.85838
G1 X139.175 Y119.311 E1.8631
G1 X139.223 Y119.457 E1.86821
G1 X139.389 Y120.229 E1.89447
G1 X139.428 Y120.655 E1.9087
G1 X139.514 Y121.487 E1.93652
G1 X139.513 Y122.01 E1.95392
G1 X139.523 Y122.173 E1.95935
G1 X139.51 Y122.825 E1.98104
G1 X139.404 Y124.004 E2.02041
G1 X139.286 Y124.685 E2.0434
G1 X139.177 Y125.224 E2.06169
G1 X139.105 Y125.543 E2.07257
G1 X138.983 Y126.012 E2.08868
G1 X138.856 Y126.447 E2.10376
G1 X138.728 Y126.848 E2.11776
G1 X138.593 Y127.232 E2.13129
G1 X138.333 Y127.865 E2.15406
G1 X138.215 Y128.182 E2.16531
G1 X137.582 Y129.42 E2.21155
G1 X137.153 Y130.083 E2.23782
G1 X136.659 Y130.699 E2.26408
G1 X136.562 Y130.798 E2.26869
G1 X136.41 Y131.196 E2.28286
G1 X136.056 Y131.902 E2.30913
G1 X135.632 Y132.569 E2.33542
G1 X135.143 Y133.189 E2.36168
G1 X134.618 Y133.733 E2.38682
G1 X134.418 Y133.986 E2.39755
G1 X133.868 Y134.553 E2.42382
G1 X133.757 Y134.643 E2.42858
G1 X133.506 Y134.91 E2.44076
G1 X133.195 Y135.192 E2.45473
G1 X132.595 Y135.705 E2.48098
G1 X132.052 Y136.14 E2.50412
G1 X131.667 Y136.421 E2.51998
G1 X131.189 Y136.749 E2.53926
G1 X130.724 Y137.045 E2.55759
G1 X130.276 Y137.303 E2.57479
G1 X129.9 Y137.505 E2.58898
G1 X129.572 Y137.673 E2.60124
G1 X128.897 Y137.979 E2.62589
G1 X128.658 Y138.074 E2.63444
G1 X128.162 Y138.256 E2.65202
G1 X127.847 Y138.348 E2.66293
G1 X127.295 Y138.542 E2.68239
G1 X126.527 Y138.728 E2.70867
G1 X126.327 Y138.758 E2.7154
G1 X125.836 Y138.852 E2.73203
G1 X125.05 Y138.921 E2.75827
G1 X124.102 Y138.9 E2.78981
G1 X123.757 Y138.871 E2.80132
G1 X123.333 Y138.823 E2.81552
G1 X122.953 Y138.77 E2.82828
G1 X122.296 Y138.65 E2.85049
G1 X121.66 Y138.505 E2.87219
G1 X121.147 Y138.369 E2.88984
G1 X120.911 Y138.298 E2.89804
G1 X120.062 Y137.988 E2.9281
G1 X119.736 Y137.847 E2.93991
G1 X119.346 Y137.647 E2.95449
G1 X119.071 Y137.537 E2.96434
G1 X118.649 Y137.354 E2.97964
G1 X117.704 Y136.912 E3.01434
G1 X117.224 Y136.657 E3.03242
G1 X116.857 Y136.869 E3.04651
G1 X116.104 Y137.205 E3.07394
G1 X114.308 Y137.897 E3.13795
G1 X113.558 Y138.144 E3.16422
G1 X112.787 Y138.313 E3.19047
G1 X111.927 Y138.408 E3.21925
G1 X110.399 Y138.491 E3.27014
G1 X109.609 Y138.493 E3.29642
G1 X108.823 Y138.416 E3.32269
G1 X108.5 Y138.351 E3.33364
G1 X108.213 Y138.309 E3.34329
G1 X107.447 Y138.116 E3.36957
G1 X106.843 Y137.904 E3.39086
G1 X106.044 Y137.578 E3.41956
G1 X105.709 Y137.426 E3.43179
G1 X105.486 Y137.319 E3.44002
G1 X104.913 Y137.023 E3.46147
G1 X104.089 Y136.552 E3.49304
G1 X103.663 Y136.273 E3.50998
G1 X103.42 Y136.107 E3.51976
G1 X103.175 Y135.933 E3.52976
G1 X102.818 Y135.665 E3.54461
G1 X102.387 Y135.319 E3.56299
G1 X102.05 Y135.041 E3.57752
G1 X101.468 Y134.508 E3.60377
G1 X101.418 Y134.452 E3.60626
G1 X101.25 Y134.306 E3.61367
G1 X100.771 Y133.77 E3.63758
G1 X100.471 Y133.489 E3.65125
G1 X99.772 Y132.657 E3.68739
G1 X98.881 Y131.432 E3.73777
G1 X98.45 Y130.771 E3.76402
G1 X98.087 Y130.069 E3.7903
G1 X97.797 Y129.335 E3.81655
G1 X97.755 Y129.185 E3.82173
G1 X97.54 Y128.918 E3.83313
G1 X97.379 Y128.693 E3.84234
G1 X96.952 Y128.028 E3.86862
G1 X96.595 Y127.324 E3.89487
G1 X96.334 Y126.655 E3.91876
G1 X96.224 Y126.33 E3.93017
G1 X96.084 Y125.872 E3.9461
G1 X95.856 Y125.007 E3.97585
G1 X95.771 Y124.627 E3.9888
G1 X95.707 Y124.306 E3.99969
G1 X95.624 Y123.806 E4.01655
G1 X95.556 Y123.293 E4.03376
G1 X95.492 Y122.506 E4.06002
G1 X95.493 Y122.408 E4.06328
G1 X95.474 Y121.581 E4.0908
G1 X95.487 Y121.429 E4.09587
G1 X95.484 Y121.096 E4.10695
G1 X95.557 Y120.31 E4.1332
G1 X95.568 Y120.248 E4.13529
G1 X95.689 Y119.424 E4.16299
G1 X95.887 Y118.659 E4.18928
G1 X96.253 Y117.713 E4.22301
G1 X96.53 Y117.115 E4.24493
G1 X96.215 Y116.383 E4.27144
G1 X95.977 Y115.63 E4.29771
G1 X95.816 Y114.856 E4.324
G1 X95.799 Y114.695 E4.32938
G1 X95.728 Y114.296 E4.34286
G1 X95.693 Y113.72 E4.36206
G1 X95.659 Y113.481 E4.37009
G1 X95.626 Y112.692 E4.39635
G1 X95.686 Y111.803 E4.42599
G1 X95.73 Y111.33 E4.44179
G1 X95.763 Y111.063 E4.45073
G1 X95.85 Y110.502 E4.46962
G1 X95.888 Y110.292 E4.47671
G1 X95.985 Y109.8 E4.49339
G1 X96.062 Y109.452 E4.50525
G1 X96.15 Y109.093 E4.51754
G1 X96.317 Y108.511 E4.53768
G1 X96.445 Y108.126 E4.55117
G1 X96.577 Y107.749 E4.56446
G1 X96.681 Y107.47 E4.57436
G1 X96.877 Y106.972 E4.59216
G1 X97.203 Y106.253 E4.61842
G1 X97.394 Y105.937 E4.6307
G1 X97.79 Y105.254 E4.65696
G1 X98.252 Y104.614 E4.68321
G1 X98.602 Y104.221 E4.70072
G1 X98.782 Y103.759 E4.71721
G1 X99.141 Y103.056 E4.74346
G1 X99.569 Y102.392 E4.76974
G1 X100.063 Y101.776 E4.796
G1 X100.415 Y101.418 E4.8127
G1 X100.689 Y101.07 E4.82743
G1 X101.237 Y100.501 E4.85371
G0 F6000 X101.539 Y100.766
G1 F1200 X101.612 Y100.706 E4.85685
G1 X102.119 Y100.199 E4.8807
G1 X102.417 Y99.935 E4.89394
G1 X102.663 Y99.726 E4.90467
G1 X103.107 Y99.366 E4.92369
G1 X103.44 Y99.111 E4.93764
G1 X103.698 Y98.925 E4.94821
G1 X103.925 Y98.768 E4.95739
G1 X104.626 Y98.31 E4.98525
G1 X104.991 Y98.093 E4.99937
G1 X105.496 Y97.816 E5.01853
G1 X105.682 Y97.72 E5.02549
G1 X106.207 Y97.475 E5.04476
G1 X106.83 Y97.213 E5.06724
G1 X107.554 Y96.952 E5.09283
G1 X108.187 Y96.803 E5.11446
G1 X108.75 Y96.656 E5.13382
G1 X109.816 Y96.517 E5.16957
G1 X110.131 Y96.499 E5.18006
G1 X110.9 Y96.495 E5.20564
G1 X111.311 Y96.526 E5.21935
G1 X111.995 Y96.606 E5.24226
G1 X112.277 Y96.65 E5.25175
G1 X112.544 Y96.697 E5.26077
G1 X112.833 Y96.753 E5.27056
G1 X113.22 Y96.839 E5.28374
G1 X113.723 Y96.967 E5.30101
G1 X114.161 Y97.089 E5.31613
G1 X114.89 Y97.334 E5.34171
G1 X115.348 Y97.533 E5.35832
G1 X117.206 Y98.415 E5.42672
G1 X117.605 Y98.152 E5.44262
G1 X118.288 Y97.798 E5.4682
G1 X119.139 Y97.474 E5.49849
G1 X120.922 Y96.917 E5.56062
G1 X121.668 Y96.726 E5.58623
G1 X122.693 Y96.593 E5.62061
G1 X124.03 Y96.514 E5.66516
G1 X124.799 Y96.508 E5.69073
G1 X125.564 Y96.583 E5.7163
G1 X126.261 Y96.722 E5.73994
G1 X126.733 Y96.84 E5.75612
G1 X127.468 Y97.065 E5.78169
G1 X127.986 Y97.276 E5.80029
G1 X128.86 Y97.671 E5.83219
G1 X129.756 Y98.153 E5.86603
G1 X130.114 Y98.378 E5.88009
G1 X130.347 Y98.517 E5.88912
G1 X130.986 Y98.944 E5.91468
G1 X131.316 Y99.218 E5.92894
G1 X131.77 Y99.547 E5.94759
G1 X132.016 Y99.749 E5.95818
G1 X132.315 Y100.021 E5.97162
G1 X132.925 Y100.564 E5.99879
G1 X133.149 Y100.812 E6.0099
G1 X133.705 Y101.373 E6.03617
G1 X134.189 Y101.983 E6.06207
G1 X134.308 Y102.109 E6.06784
G1 X134.686 Y102.547 E6.08708
G1 X134.889 Y102.797 E6.09779
G1 X135.112 Y103.087 E6.10996
G1 X135.307 Y103.353 E6.12093
G1 X135.729 Y103.996 E6.14651
G1 X136.082 Y104.679 E6.17208
G1 X136.362 Y105.396 E6.19768
G1 X136.428 Y105.636 E6.20596
G1 X136.616 Y105.859 E6.21566
G1 X137.048 Y106.496 E6.24126
G1 X137.412 Y107.173 E6.26682
G1 X137.727 Y107.954 E6.29483
G1 X137.845 Y108.302 E6.30706
G1 X137.936 Y108.59 E6.3171
G1 X138.067 Y109.045 E6.33285
G1 X138.176 Y109.458 E6.34706
G1 X138.252 Y109.774 E6.35787
G1 X138.397 Y110.474 E6.38164
G1 X138.47 Y110.92 E6.39667
G1 X138.54 Y111.449 E6.41442
G1 X138.601 Y112.216 E6.44001
G1 X138.598 Y112.344 E6.44427
G1 X138.61 Y113.084 E6.46889
G1 X138.603 Y113.167 E6.47166
G1 X138.56 Y114.096 E6.50259
G1 X138.46 Y114.858 E6.52815
G1 X138.282 Y115.606 E6.55372
G1 X138.114 Y116.109 E6.57136
G1 X137.884 Y116.724 E6.5932
G1 X137.779 Y116.967 E6.60201
G1 X138.231 Y117.874 E6.63571
G1 X138.538 Y118.58 E6.66132
G1 X138.77 Y119.313 E6.68689
G1 X138.795 Y119.435 E6.69103
G1 X138.842 Y119.58 E6.6961
G1 X139.001 Y120.333 E6.7217
G1 X139.039 Y120.758 E6.73589
G1 X139.117 Y121.566 E6.76289
G1 X139.111 Y121.996 E6.77719
G1 X139.124 Y122.198 E6.78392
G1 X139.11 Y122.82 E6.80462
G1 X139.009 Y123.938 E6.84195
G1 X138.894 Y124.608 E6.86456
G1 X138.786 Y125.136 E6.88249
G1 X138.714 Y125.455 E6.89337
G1 X138.599 Y125.9 E6.90865
G1 X138.472 Y126.335 E6.92372
G1 X138.35 Y126.715 E6.937
G1 X138.215 Y127.099 E6.95054
G1 X137.961 Y127.718 E6.97279
G1 X137.84 Y128.041 E6.98426
G1 X137.427 Y128.85 E7.01447
G1 X137.205 Y129.272 E7.03033
G1 X136.781 Y129.914 E7.05592
G1 X136.293 Y130.508 E7.08149
G1 X136.219 Y130.581 E7.08495
G1 X136.003 Y131.127 E7.10448
G1 X135.648 Y131.809 E7.13005
G1 X135.224 Y132.45 E7.15561
G1 X134.736 Y133.045 E7.18121
G1 X134.33 Y133.456 E7.20042
G1 X134.104 Y133.737 E7.21242
G1 X133.566 Y134.288 E7.23803
G1 X133.4 Y134.422 E7.24512
G1 X132.934 Y134.889 E7.26707
G1 X132.342 Y135.396 E7.29299
G1 X131.806 Y135.824 E7.31581
G1 X131.441 Y136.092 E7.33087
G1 X130.963 Y136.42 E7.35015
G1 X130.522 Y136.7 E7.36752
G1 X130.085 Y136.952 E7.3843
G1 X129.717 Y137.149 E7.39818
G1 X129.389 Y137.317 E7.41044
G1 X128.749 Y137.608 E7.43382
G1 X128.51 Y137.703 E7.44238
G1 X128.028 Y137.879 E7.45944
G1 X127.724 Y137.967 E7.46997
G1 X127.162 Y138.164 E7.48978
G1 X126.413 Y138.342 E7.51538
G1 X126.261 Y138.364 E7.52049
G1 X125.721 Y138.464 E7.53876
G1 X124.955 Y138.524 E7.56431
G1 X124.135 Y138.501 E7.5916
G1 X123.79 Y138.472 E7.60311
G1 X123.388 Y138.427 E7.61657
G1 X123.008 Y138.374 E7.62933
G1 X122.385 Y138.26 E7.65039
G1 X121.749 Y138.115 E7.67209
G1 X121.262 Y137.986 E7.68885
G1 X121.026 Y137.915 E7.69704
G1 X120.22 Y137.621 E7.72558
G1 X119.894 Y137.48 E7.73739
G1 X119.498 Y137.276 E7.75221
G1 X119.219 Y137.165 E7.76219
G1 X118.819 Y136.992 E7.77669
G1 X117.874 Y136.55 E7.81139
G1 X117.216 Y136.199 E7.83619
G1 X116.656 Y136.522 E7.85769
G1 X115.961 Y136.832 E7.88301
G1 X114.165 Y137.524 E7.94702
G1 X113.433 Y137.763 E7.97263
G1 X112.681 Y137.925 E7.99822
G1 X111.905 Y138.008 E8.02418
G1 X110.377 Y138.091 E8.07507
G1 X109.608 Y138.093 E8.10065
G1 X108.843 Y138.015 E8.12622
G1 X108.546 Y137.953 E8.13632
G1 X108.252 Y137.909 E8.1462
G1 X107.507 Y137.716 E8.1718
G1 X106.991 Y137.532 E8.19002
G1 X106.2 Y137.209 E8.21844
G1 X105.882 Y137.066 E8.23004
G1 X105.659 Y136.959 E8.23826
G1 X105.09 Y136.664 E8.25958
G1 X104.308 Y136.218 E8.28952
G1 X103.882 Y135.939 E8.30646
G1 X103.651 Y135.781 E8.31577
G1 X103.406 Y135.607 E8.32576
G1 X103.068 Y135.352 E8.33984
G1 X102.642 Y135.01 E8.35801
G1 X102.305 Y134.732 E8.37254
G1 X101.738 Y134.213 E8.39811
G1 X101.685 Y134.153 E8.40077
G1 X101.499 Y133.99 E8.409
G1 X101.041 Y133.475 E8.43192
G1 X100.745 Y133.197 E8.44543
G1 X100.096 Y132.422 E8.47905
G1 X99.205 Y131.197 E8.52943
G1 X98.785 Y130.552 E8.55503
G1 X98.435 Y129.867 E8.58061
G1 X98.157 Y129.15 E8.60619
G1 X98.117 Y129.004 E8.61123
G1 X97.865 Y128.685 E8.62475
G1 X97.704 Y128.46 E8.63395
G1 X97.29 Y127.812 E8.65953
G1 X96.945 Y127.125 E8.6851
G1 X96.713 Y126.526 E8.70646
G1 X96.603 Y126.201 E8.71787
G1 X96.47 Y125.767 E8.73297
G1 X96.244 Y124.909 E8.76248
G1 X96.163 Y124.549 E8.77475
G1 X96.099 Y124.228 E8.78564
G1 X96.02 Y123.753 E8.80166
G1 X95.952 Y123.24 E8.81887
G1 X95.891 Y122.474 E8.84443
G1 X95.892 Y122.373 E8.84778
G1 X95.886 Y122.323 E8.84946
G1 X95.876 Y121.554 E8.87504
G1 X95.887 Y121.43 E8.87918
G1 X95.884 Y121.093 E8.89039
G1 X95.955 Y120.52 E8.90959
G1 X95.97 Y120.225 E8.91942
G1 X96.089 Y119.465 E8.945
G1 X96.287 Y118.722 E8.97058
G1 X96.616 Y117.881 E9.00061
G1 X96.976 Y117.114 E9.02879
G1 X96.886 Y116.931 E9.03558
G1 X96.582 Y116.224 E9.06117
G1 X96.354 Y115.49 E9.08674
G1 X96.203 Y114.736 E9.11231
G1 X96.192 Y114.617 E9.11629
G1 X96.12 Y114.206 E9.13017
G1 X96.089 Y113.661 E9.14832
G1 X96.055 Y113.424 E9.15629
G1 X96.027 Y112.656 E9.18185
G1 X96.083 Y111.853 E9.20862
G1 X96.127 Y111.379 E9.22445
G1 X96.16 Y111.112 E9.2334
G1 X96.207 Y110.787 E9.24432
G1 X96.281 Y110.37 E9.25841
G1 X96.378 Y109.878 E9.27509
G1 X96.451 Y109.547 E9.28636
G1 X96.539 Y109.188 E9.29865
G1 X96.697 Y108.636 E9.31775
G1 X96.823 Y108.259 E9.33097
G1 X97.053 Y107.617 E9.35365
G1 X97.249 Y107.119 E9.37145
G1 X97.568 Y106.419 E9.39704
G1 X97.767 Y106.092 E9.40977
G1 X98.169 Y105.405 E9.43625
G1 X98.627 Y104.787 E9.46183
G1 X98.942 Y104.444 E9.47732
G1 X99.188 Y103.832 E9.49926
G1 X99.548 Y103.152 E9.52485
G1 X99.977 Y102.513 E9.55045
G1 X100.469 Y101.922 E9.57602
G1 X100.732 Y101.661 E9.58835
G1 X101.003 Y101.317 E9.60291
G1 X101.539 Y100.766 E9.62848
G0 F6000 X101.842 Y101.031
G1 F1200 X101.887 Y100.994 E9.63042
G1 X102.384 Y100.498 E9.65377
G1 X102.682 Y100.234 E9.66701
G1 X102.915 Y100.037 E9.67716
G1 X103.359 Y99.677 E9.69617
G1 X103.674 Y99.436 E9.70936
G1 X104.147 Y99.101 E9.72864
G1 X104.84 Y98.648 E9.75618
G1 X105.185 Y98.443 E9.76953
G1 X105.679 Y98.172 E9.78827
G1 X105.865 Y98.076 E9.79523
G1 X106.362 Y97.843 E9.81349
G1 X106.985 Y97.581 E9.83596
G1 X107.689 Y97.329 E9.86083
G1 X108.294 Y97.188 E9.8815
G1 X108.851 Y97.044 E9.90063
G1 X109.839 Y96.916 E9.93377
G1 X110.154 Y96.898 E9.94426
G1 X111.27 Y96.924 E9.98139
G1 X111.933 Y97.002 E10.00359
G1 X112.468 Y97.09 E10.02163
G1 X112.757 Y97.146 E10.03142
G1 X113.123 Y97.227 E10.04389
