;FLAVOR:Marlin
;TIME:2672
;Filament used: 1.2286m
;Layer height: 0.2
;MINX:99.757
;MINY:98.798
;MINZ:0.2
;MAXX:133.184
;MAXY:129.449
;MAXZ:18.8
;Generated with Cura_SteamEngine 4.5.0
M140 S50
M105
M190 S50
M104 S200
M105
M109 S200
M82 ;absolute extrusion mode
; Ender 3 Custom Start G-code
G92 E0 ; Reset Extruder
G28 ; Home all axes
G1 Z2.0 F3000 ; Move Z Axis up little to prevent scratching of Heat Bed
G1 X0.1 Y20 Z0.3 F5000.0 ; Move to start position
G1 X0.1 Y200.0 Z0.3 F1500.0 E15 ; Draw the first line
G1 X0.4 Y200.0 Z0.3 F5000.0 ; Move to side a little
G1 X0.4 Y20 Z0.3 F1500.0 E30 ; Draw the second line
G92 E0 ; Reset Extruder
G1 Z2.0 F3000 ; Move Z Axis up little to prevent scratching of Heat Bed
G1 X5 Y20 Z0.3 F5000.0 ; Move over to prevent blob squish
G92 E0
G92 E0
G1 F2700 E-5
;LAYER_COUNT:94
;LAYER:0
M107
G0 F6000 X107.856 Y106.239 Z0.2
;TYPE:SKIRT
G1 F2700 E0
G1 F1200 X108.527 Y105.561 E0.03173
G1 X109.253 Y104.94 E0.0635
G1 X110.028 Y104.383 E0.09525
G1 X110.938 Y103.844 E0.13042
G1 X111.113 Y103.751 E0.13701
G1 X111.974 Y103.339 E0.16876
G1 X112.867 Y103 E0.20053
G1 X113.785 Y102.737 E0.23229
G1 X114.507 Y102.586 E0.25683
G1 X115.452 Y102.451 E0.28858
G1 X116.405 Y102.396 E0.32032
G1 X117.36 Y102.42 E0.3521
G1 X118.592 Y102.571 E0.39338
G1 X118.794 Y102.607 E0.40021
G1 X119.726 Y102.814 E0.43196
G1 X120.638 Y103.098 E0.46373
G1 X121.522 Y103.457 E0.49546
G1 X122.374 Y103.889 E0.52724
G1 X123.186 Y104.391 E0.55899
G1 X123.733 Y104.785 E0.58141
G1 X123.922 Y104.93 E0.58933
G1 X124.655 Y105.543 E0.62111
G1 X125.333 Y106.214 E0.65284
G1 X125.954 Y106.94 E0.68462
G1 X126.511 Y107.715 E0.71636
G1 X127.001 Y108.535 E0.74813
G1 X127.421 Y109.392 E0.77987
G1 X127.627 Y109.892 E0.79786
G1 X127.744 Y110.197 E0.80873
G1 X128.048 Y111.102 E0.84048
G1 X128.276 Y112.029 E0.87223
G1 X128.425 Y112.972 E0.90398
G1 X128.494 Y113.925 E0.93576
G1 X128.484 Y114.879 E0.96749
G1 X128.394 Y115.83 E0.99927
G1 X128.28 Y116.518 E1.02246
G1 X128.07 Y117.45 E1.05424
G1 X127.784 Y118.361 E1.08599
G1 X127.422 Y119.244 E1.11774
G1 X126.987 Y120.094 E1.14949
G1 X126.483 Y120.905 E1.18125
G1 X126.072 Y121.47 E1.20449
G1 X125.927 Y121.657 E1.21236
G1 X125.311 Y122.386 E1.2441
G1 X124.636 Y123.061 E1.27585
G1 X123.907 Y123.678 E1.30762
G1 X123.129 Y124.231 E1.33937
G1 X122.268 Y124.738 E1.3726
G1 X122.093 Y124.831 E1.37919
G1 X121.232 Y125.243 E1.41094
G1 X120.339 Y125.582 E1.44271
G1 X119.421 Y125.845 E1.47447
G1 X118.699 Y125.996 E1.499
G1 X117.754 Y126.131 E1.53075
G1 X116.801 Y126.186 E1.5625
G1 X115.846 Y126.162 E1.59428
G1 X114.614 Y126.011 E1.63556
G1 X114.412 Y125.975 E1.64238
G1 X113.48 Y125.768 E1.67414
G1 X112.568 Y125.484 E1.70591
G1 X111.684 Y125.125 E1.73764
G1 X110.832 Y124.693 E1.76941
G1 X110.02 Y124.191 E1.80116
G1 X109.347 Y123.698 E1.82891
G1 X109.152 Y123.544 E1.83718
G1 X108.428 Y122.922 E1.86892
G1 X107.759 Y122.241 E1.90067
G1 X107.149 Y121.506 E1.93244
G1 X106.602 Y120.723 E1.96421
G1 X106.057 Y119.768 E2.00078
G1 X105.971 Y119.599 E2.00709
G1 X105.574 Y118.731 E2.03884
G1 X105.251 Y117.832 E2.07061
G1 X104.949 Y116.648 E2.11125
G1 X104.924 Y116.522 E2.11552
G1 X104.778 Y115.578 E2.14729
G1 X104.711 Y114.626 E2.17903
G1 X104.724 Y113.671 E2.2108
G1 X104.891 Y112.259 E2.25809
G1 X104.928 Y112.056 E2.26495
G1 X105.138 Y111.125 E2.2967
G1 X105.426 Y110.214 E2.32848
G1 X105.788 Y109.331 E2.36022
G1 X106.224 Y108.481 E2.39199
G1 X106.729 Y107.671 E2.42374
G1 X107.098 Y107.161 E2.44467
G1 X107.243 Y106.972 E2.4526
G1 X107.856 Y106.239 E2.48438
G0 F6000 X108.163 Y106.496
G1 F1200 X108.824 Y105.831 E2.51556
G1 X109.539 Y105.225 E2.54674
G1 X110.304 Y104.681 E2.57796
G1 X111.126 Y104.197 E2.60969
G1 X111.301 Y104.104 E2.61628
G1 X112.147 Y103.7 E2.64746
G1 X113.025 Y103.369 E2.67867
G1 X113.927 Y103.114 E2.70984
G1 X114.58 Y102.98 E2.73202
G1 X115.509 Y102.847 E2.76323
G1 X116.445 Y102.795 E2.79441
G1 X117.382 Y102.822 E2.82559
G1 X118.522 Y102.965 E2.8638
G1 X118.724 Y103.001 E2.87062
G1 X119.639 Y103.204 E2.9018
G1 X120.534 Y103.485 E2.933
G1 X121.402 Y103.842 E2.96421
G1 X122.236 Y104.27 E2.99539
G1 X123.03 Y104.769 E3.02658
G1 X123.49 Y105.103 E3.04549
G1 X123.679 Y105.248 E3.05341
G1 X124.398 Y105.85 E3.0846
G1 X125.063 Y106.511 E3.11579
G1 X125.669 Y107.226 E3.14696
G1 X126.213 Y107.991 E3.17818
G1 X126.689 Y108.799 E3.20938
G1 X127.253 Y110.035 E3.25456
G1 X127.37 Y110.34 E3.26543
G1 X127.669 Y111.229 E3.29662
G1 X127.89 Y112.141 E3.32783
G1 X128.033 Y113.068 E3.35903
G1 X128.097 Y114.003 E3.3902
G1 X128.08 Y114.941 E3.42141
G1 X127.923 Y116.243 E3.46502
G1 X127.886 Y116.447 E3.47192
G1 X127.68 Y117.362 E3.50311
G1 X127.396 Y118.256 E3.53431
G1 X127.037 Y119.122 E3.56549
G1 X126.606 Y119.955 E3.59669
G1 X126.105 Y120.748 E3.62789
G1 X125.756 Y121.224 E3.64752
G1 X125.611 Y121.411 E3.65539
G1 X125.005 Y122.127 E3.68659
G1 X124.341 Y122.789 E3.71777
G1 X123.622 Y123.392 E3.74898
G1 X122.855 Y123.931 E3.78016
G1 X122.08 Y124.385 E3.81004
G1 X121.905 Y124.478 E3.81663
G1 X121.059 Y124.882 E3.84781
G1 X120.181 Y125.213 E3.87902
G1 X119.279 Y125.468 E3.91019
G1 X118.626 Y125.602 E3.93237
G1 X117.697 Y125.735 E3.96358
G1 X116.761 Y125.787 E3.99476
G1 X115.824 Y125.76 E4.02594
G1 X114.684 Y125.617 E4.06415
G1 X114.482 Y125.581 E4.07098
G1 X113.567 Y125.378 E4.10215
G1 X112.672 Y125.097 E4.13335
G1 X111.804 Y124.74 E4.16456
G1 X110.97 Y124.312 E4.19574
G1 X110.176 Y123.813 E4.22693
G1 X109.594 Y123.385 E4.25096
G1 X109.399 Y123.231 E4.25923
G1 X108.689 Y122.618 E4.29043
G1 X108.033 Y121.948 E4.32161
G1 X107.437 Y121.224 E4.3528
G1 X106.904 Y120.452 E4.384
G1 X106.413 Y119.587 E4.41709
G1 X106.327 Y119.418 E4.42339
G1 X105.938 Y118.565 E4.45457
G1 X105.623 Y117.681 E4.48579
G1 X105.341 Y116.57 E4.52391
G1 X105.316 Y116.444 E4.52818
G1 X105.173 Y115.517 E4.55938
G1 X105.11 Y114.581 E4.59058
G1 X105.126 Y113.643 E4.62179
G1 X105.284 Y112.331 E4.66574
G1 X105.321 Y112.128 E4.6726
G1 X105.529 Y111.213 E4.70381
G1 X105.813 Y110.319 E4.73501
G1 X106.173 Y109.453 E4.7662
G1 X106.605 Y108.621 E4.79738
G1 X107.106 Y107.828 E4.82858
G1 X107.416 Y107.404 E4.84605
G1 X107.561 Y107.215 E4.85397
G1 X108.163 Y106.496 E4.88516
G0 F6000 X108.47 Y106.753
G1 F1200 X109.12 Y106.102 E4.91576
G1 X109.825 Y105.509 E4.9464
G1 X110.578 Y104.98 E4.97701
G1 X111.314 Y104.551 E5.00534
G1 X111.489 Y104.458 E5.01193
G1 X112.32 Y104.061 E5.04257
G1 X113.182 Y103.739 E5.07317
G1 X114.069 Y103.492 E5.10379
G1 X114.653 Y103.373 E5.12362
G1 X115.565 Y103.244 E5.15425
G1 X116.484 Y103.195 E5.18486
G1 X117.404 Y103.225 E5.21548
G1 X118.452 Y103.358 E5.25061
G1 X118.654 Y103.394 E5.25744
G1 X119.552 Y103.595 E5.28805
G1 X120.43 Y103.873 E5.31868
G1 X121.28 Y104.226 E5.34929
G1 X122.097 Y104.652 E5.37993
G1 X122.873 Y105.146 E5.41053
G1 X123.435 Y105.565 E5.43385
G1 X124.141 Y106.157 E5.46449
G1 X124.792 Y106.807 E5.49509
G1 X125.385 Y107.512 E5.52573
G1 X125.914 Y108.265 E5.55634
G1 X126.375 Y109.062 E5.58696
G1 X126.88 Y110.179 E5.62773
G1 X126.997 Y110.484 E5.6386
G1 X127.289 Y111.357 E5.66921
G1 X127.504 Y112.252 E5.69983
G1 X127.641 Y113.162 E5.73044
G1 X127.698 Y114.081 E5.76106
G1 X127.675 Y115.001 E5.79167
G1 X127.53 Y116.172 E5.83091
G1 X127.493 Y116.376 E5.83781
G1 X127.289 Y117.274 E5.86844
G1 X127.009 Y118.15 E5.89903
G1 X126.653 Y119 E5.92968
G1 X126.225 Y119.815 E5.9603
G1 X125.728 Y120.59 E5.99092
G1 X125.44 Y120.979 E6.00701
G1 X125.295 Y121.166 E6.01489
G1 X124.7 Y121.869 E6.04552
G1 X124.046 Y122.517 E6.07614
G1 X123.338 Y123.106 E6.10677
G1 X122.582 Y123.631 E6.13738
G1 X121.892 Y124.031 E6.16391
G1 X121.717 Y124.124 E6.1705
G1 X120.886 Y124.521 E6.20113
G1 X120.024 Y124.843 E6.23174
G1 X119.137 Y125.09 E6.26236
G1 X118.553 Y125.209 E6.28219
G1 X117.641 Y125.338 E6.31282
G1 X116.722 Y125.387 E6.34343
G1 X115.802 Y125.357 E6.37405
G1 X114.754 Y125.224 E6.40918
G1 X114.552 Y125.188 E6.41601
G1 X113.654 Y124.987 E6.44661
G1 X112.776 Y124.709 E6.47724
G1 X111.926 Y124.356 E6.50786
G1 X111.109 Y123.93 E6.5385
G1 X110.333 Y123.436 E6.5691
G1 X109.842 Y123.071 E6.58945
G1 X109.647 Y122.917 E6.59771
G1 X108.95 Y122.315 E6.62834
G1 X108.308 Y121.656 E6.65894
G1 X107.726 Y120.943 E6.68956
G1 X107.207 Y120.182 E6.72019
G1 X106.77 Y119.405 E6.74984
G1 X106.684 Y119.236 E6.75615
G1 X106.302 Y118.399 E6.78675
G1 X105.995 Y117.531 E6.81737
G1 X105.734 Y116.492 E6.853
G1 X105.709 Y116.366 E6.85728
G1 X105.569 Y115.456 E6.8879
G1 X105.509 Y114.537 E6.91853
G1 X105.528 Y113.617 E6.94914
G1 X105.678 Y112.402 E6.98985
G1 X105.715 Y112.199 E6.99672
G1 X105.919 Y111.302 E7.02731
G1 X106.2 Y110.425 E7.05794
G1 X106.557 Y109.576 E7.08858
G1 X106.986 Y108.761 E7.11921
G1 X107.733 Y107.648 E7.16379
G1 X107.878 Y107.459 E7.17171
G1 X108.47 Y106.753 E7.20236
G0 F6000 X108.776 Y107.011
G1 F1200 X109.416 Y106.373 E7.23242
G1 X110.11 Y105.795 E7.26246
G1 X110.852 Y105.28 E7.2925
G1 X111.501 Y104.904 E7.31744
G1 X111.676 Y104.811 E7.32403
G1 X112.492 Y104.423 E7.35409
G1 X113.338 Y104.108 E7.38411
G1 X114.597 Y103.79 E7.4273
G1 X114.726 Y103.766 E7.43167
G1 X115.621 Y103.64 E7.46173
G1 X116.523 Y103.594 E7.49177
G1 X117.425 Y103.628 E7.52179
G1 X118.382 Y103.752 E7.55388
G1 X118.584 Y103.788 E7.56071
G1 X119.465 Y103.986 E7.59074
G1 X120.325 Y104.261 E7.62077
G1 X121.158 Y104.611 E7.65082
G1 X121.956 Y105.033 E7.68085
G1 X123.003 Y105.737 E7.72281
G1 X123.192 Y105.882 E7.73074
G1 X123.883 Y106.463 E7.76076
G1 X124.521 Y107.103 E7.79082
G1 X125.099 Y107.797 E7.82086
G1 X125.614 Y108.539 E7.8509
G1 X126.061 Y109.323 E7.88092
G1 X126.506 Y110.322 E7.91729
G1 X126.623 Y110.627 E7.92816
G1 X126.909 Y111.483 E7.95817
G1 X127.118 Y112.362 E7.98822
G1 X127.248 Y113.256 E8.01827
G1 X127.299 Y114.157 E8.04829
G1 X127.27 Y115.06 E8.07834
G1 X127.136 Y116.1 E8.11321
G1 X127.099 Y116.304 E8.12011
G1 X126.899 Y117.185 E8.15016
G1 X126.621 Y118.044 E8.18019
G1 X126.269 Y118.876 E8.21023
G1 X125.845 Y119.673 E8.24026
G1 X125.124 Y120.734 E8.28292
G1 X124.979 Y120.921 E8.2908
G1 X124.394 Y121.61 E8.32086
G1 X123.751 Y122.244 E8.35089
G1 X123.055 Y122.819 E8.38092
G1 X122.31 Y123.329 E8.41095
G1 X121.705 Y123.678 E8.43418
G1 X121.53 Y123.771 E8.44077
G1 X120.714 Y124.159 E8.47082
G1 X119.868 Y124.474 E8.50085
G1 X118.609 Y124.792 E8.54404
G1 X118.48 Y124.816 E8.5484
G1 X117.585 Y124.942 E8.57846
G1 X116.683 Y124.988 E8.6085
G1 X115.781 Y124.954 E8.63852
G1 X114.824 Y124.83 E8.67062
G1 X114.622 Y124.794 E8.67744
G1 X113.741 Y124.596 E8.70748
G1 X112.881 Y124.321 E8.73751
G1 X112.048 Y123.971 E8.76756
G1 X111.25 Y123.549 E8.79758
G1 X110.492 Y123.058 E8.82762
G1 X110.09 Y122.757 E8.84432
G1 X109.895 Y122.603 E8.85259
G1 X109.212 Y122.012 E8.88263
G1 X108.584 Y121.364 E8.91264
G1 X108.015 Y120.662 E8.9427
G1 X107.511 Y119.913 E8.97272
G1 X107.126 Y119.224 E8.99898
G1 X107.04 Y119.055 E9.00528
G1 X106.667 Y118.233 E9.03531
G1 X106.367 Y117.381 E9.06535
G1 X106.126 Y116.414 E9.0985
G1 X106.101 Y116.288 E9.10277
G1 X105.965 Y115.395 E9.13281
G1 X105.908 Y114.494 E9.16284
G1 X105.931 Y113.591 E9.19288
G1 X106.071 Y112.474 E9.23032
G1 X106.108 Y112.271 E9.23719
G1 X106.309 Y111.391 E9.26721
G1 X106.588 Y110.531 E9.29728
G1 X106.941 Y109.7 E9.32731
G1 X107.366 Y108.903 E9.35735
G1 X108.05 Y107.891 E9.39798
G1 X108.195 Y107.702 E9.4059
G1 X108.776 Y107.011 E9.43593
G1 F2700 E4.43593
;MESH:top.stl
G0 F6000 X115.648 Y113.623
G0 X116.469 Y114.164
G0 X116.598 Y114.393
G0 X116.601 Y114.597
;TYPE:WALL-OUTER
G1 F2700 E9.43593
G1 F1200 X116.487 Y114.575 E9.43979
G1 X116.389 Y114.51 E9.4437
G1 X116.323 Y114.413 E9.4476
G1 X116.297 Y114.289 E9.45182
G1 X116.319 Y114.175 E9.45568
G1 X116.384 Y114.077 E9.45959
G1 X116.481 Y114.011 E9.46349
G1 X116.605 Y113.985 E9.46771
G1 X116.719 Y114.007 E9.47157
G1 X116.817 Y114.072 E9.47548
G1 X116.883 Y114.169 E9.47938
G1 X116.909 Y114.293 E9.4836
G1 X116.887 Y114.407 E9.48746
G1 X116.822 Y114.505 E9.49137
G1 X116.725 Y114.571 E9.49527
G1 X116.601 Y114.597 E9.49949
G0 F6000 X116.662 Y114.399
;TYPE:SKIN
G1 F1200 X116.491 Y114.228 E9.50351
;MESH:NONMESH
G0 F300 X116.491 Y114.228 Z0.4
G0 F6000 X116.597 Y114.8
;TIME_ELAPSED:19.734642
;LAYER:1
M140 S50
M106 S85
;TYPE:WALL-INNER
;MESH:top.stl
G1 F600 X116.41 Y114.763 E9.50985
G1 X116.247 Y114.655 E9.51635
G1 X116.138 Y114.496 E9.52276
G1 X116.094 Y114.285 E9.52993
G1 X116.131 Y114.097 E9.5363
G1 X116.238 Y113.936 E9.54273
G1 X116.398 Y113.826 E9.54919
G1 X116.609 Y113.782 E9.55636
G1 X116.797 Y113.819 E9.56273
G1 X116.958 Y113.926 E9.56916
G1 X117.068 Y114.086 E9.57562
G1 X117.112 Y114.297 E9.58279
G1 X117.076 Y114.482 E9.58906
G1 X116.967 Y114.646 E9.59561
G1 X116.806 Y114.757 E9.60211
G1 X116.597 Y114.8 E9.60921
G0 F7500 X116.601 Y115.208
G1 F600 X116.255 Y115.14 E9.62094
G1 X115.961 Y114.946 E9.63265
G1 X115.762 Y114.655 E9.64438
G1 X115.686 Y114.287 E9.65688
G1 X115.753 Y113.944 E9.6685
G1 X115.947 Y113.65 E9.68022
G1 X116.239 Y113.45 E9.69199
G1 X116.607 Y113.374 E9.70449
G1 X116.95 Y113.441 E9.71611
G1 X117.244 Y113.635 E9.72782
G1 X117.444 Y113.927 E9.7396
G1 X117.52 Y114.293 E9.75203
G1 X117.452 Y114.639 E9.76376
G1 X117.258 Y114.932 E9.77545
G1 X116.967 Y115.132 E9.78719
G1 X116.601 Y115.208 E9.79962
G0 F7500 X116.602 Y115.616
;TYPE:WALL-OUTER
G1 F600 X116.102 Y115.518 E9.81657
G1 X115.675 Y115.237 E9.83357
G1 X115.386 Y114.814 E9.85061
G1 X115.278 Y114.289 E9.86844
G1 X115.375 Y113.791 E9.88531
G1 X115.656 Y113.364 E9.90231
G1 X116.08 Y113.074 E9.9194
G1 X116.605 Y112.966 E9.93723
G1 X117.103 Y113.063 E9.9541
G1 X117.53 Y113.344 E9.9711
G1 X117.82 Y113.768 E9.98819
G1 X117.928 Y114.291 E10.00595
G1 X117.83 Y114.792 E10.02293
G1 X117.549 Y115.218 E10.0399
G1 X117.126 Y115.508 E10.05696
G1 X116.602 Y115.616 E10.07475
G0 F7500 X116.6 Y115.176
G0 X116.597 Y114.402
;TYPE:SKIN
G1 F600 X116.56 Y114.395 E10.07601
G1 X116.527 Y114.373 E10.07733
G1 X116.504 Y114.339 E10.07869
G1 X116.492 Y114.281 E10.08066
G1 X116.498 Y114.25 E10.08171
G1 X116.521 Y114.215 E10.0831
G1 X116.554 Y114.192 E10.08444
G1 X116.613 Y114.18 E10.08644
G1 X116.644 Y114.186 E10.0875
G1 X116.679 Y114.209 E10.08889
G1 X116.702 Y114.242 E10.09023
G1 X116.714 Y114.302 E10.09226
G1 X116.709 Y114.328 E10.09314
G1 X116.684 Y114.367 E10.09468
G1 X116.648 Y114.392 E10.09614
G1 X116.597 Y114.402 E10.09787
G0 F7500 X116.483 Y114.971
;MESH:NONMESH
G0 F300 X116.483 Y114.971 Z0.6
G0 F7500 X116.598 Y115.709
;TIME_ELAPSED:21.897805
;LAYER:2
M106 S170
;TYPE:WALL-INNER
;MESH:top.stl
G1 F600 X116.064 Y115.604 E10.11597
G1 X115.61 Y115.305 E10.13405
G1 X115.302 Y114.855 E10.15219
G1 X115.185 Y114.286 E10.17151
G1 X115.289 Y113.752 E10.1896
G1 X115.588 Y113.299 E10.20766
G1 X116.038 Y112.99 E10.22581
G1 X116.607 Y112.873 E10.24513
G1 X117.141 Y112.977 E10.26323
G1 X117.595 Y113.276 E10.28131
G1 X117.903 Y113.726 E10.29945
G1 X118.021 Y114.296 E10.31881
G1 X117.916 Y114.83 E10.33691
G1 X117.617 Y115.283 E10.35496
G1 X117.167 Y115.591 E10.3731
G1 X116.598 Y115.709 E10.39242
G0 F9000 X116.599 Y116.117
G1 F600 X115.911 Y115.982 E10.41574
G1 X115.324 Y115.596 E10.43911
G1 X114.926 Y115.014 E10.46256
G1 X114.777 Y114.288 E10.48721
G1 X114.911 Y113.599 E10.51056
G1 X115.297 Y113.013 E10.5339
G1 X115.879 Y112.614 E10.55737
G1 X116.606 Y112.465 E10.58205
G1 X117.294 Y112.599 E10.60536
G1 X117.881 Y112.985 E10.62873
G1 X118.279 Y113.567 E10.65218
G1 X118.429 Y114.294 E10.67687
G1 X118.294 Y114.983 E10.70022
G1 X117.908 Y115.569 E10.72356
G1 X117.326 Y115.967 E10.74701
G1 X116.599 Y116.117 E10.7717
G0 F9000 X116.601 Y116.525
;TYPE:WALL-OUTER
G1 F600 X115.758 Y116.36 E10.80027
G1 X115.038 Y115.887 E10.82892
G1 X114.55 Y115.173 E10.85769
G1 X114.369 Y114.289 E10.8877
G1 X114.533 Y113.446 E10.91626
G1 X115.006 Y112.727 E10.94489
G1 X115.72 Y112.238 E10.97367
G1 X116.605 Y112.057 E11.00372
G1 X117.447 Y112.221 E11.03225
G1 X118.167 Y112.694 E11.0609
G1 X118.655 Y113.408 E11.08966
G1 X118.837 Y114.293 E11.11971
G1 X118.672 Y115.136 E11.14829
G1 X118.199 Y115.855 E11.17691
G1 X117.485 Y116.343 E11.20567
G1 X116.601 Y116.525 E11.23569
G0 F9000 X116.599 Y116.085
G0 X116.593 Y115.311
;TYPE:SKIN
G1 F600 X116.217 Y115.238 E11.24843
G1 X115.888 Y115.021 E11.26154
