;FLAVOR:Marlin
;TIME:476
;Filament used: 0.258589m
;Layer height: 0.16
;MINX:99.7
;MINY:105.7
;MINZ:0.2
;MAXX:135.3
;MAXY:129.3
;MAXZ:5
;Generated with Cura_SteamEngine 4.5.0
M140 S60
M105
M190 S60
M104 S185
M105
M109 S185
M82 ;absolute extrusion mode
; Ender 3 Custom Start G-code
G92 E0 ; Reset Extruder
G28 ; Home all axes
G1 Z2.0 F3000 ; Move Z Axis up little to prevent scratching of Heat Bed
G1 X0.1 Y20 Z0.3 F5000.0 ; Move to start position
G1 X0.1 Y200.0 Z0.3 F1500.0 E15 ; Draw the first line
G1 X0.4 Y200.0 Z0.3 F5000.0 ; Move to side a little
G1 X0.4 Y20 Z0.3 F1500.0 E30 ; Draw the second line
G92 E0 ; Reset Extruder
G1 Z2.0 F3000 ; Move Z Axis up little to prevent scratching of Heat Bed
G1 X5 Y20 Z0.3 F5000.0 ; Move over to prevent blob squish
G92 E0
G92 E0
G1 F2700 E-5
;LAYER_COUNT:26
;LAYER:0
M107
G0 F7500 X102.102 Y107.985 Z0.2
;TYPE:SKIRT
G1 F2700 E0
G1 F1500 X102.688 Y107.455 E0.02628
G1 X103.324 Y106.988 E0.05252
G1 X104.004 Y106.587 E0.07878
G1 X104.722 Y106.257 E0.10506
G1 X105.469 Y106.002 E0.13132
G1 X106.238 Y105.823 E0.15758
G1 X107.022 Y105.723 E0.18386
G1 X107.617 Y105.7 E0.20367
G1 X127.383 Y105.7 E0.86109
G1 X128.172 Y105.74 E0.88736
G1 X128.952 Y105.859 E0.91361
G1 X129.717 Y106.057 E0.93989
G1 X130.457 Y106.331 E0.96613
G1 X131.166 Y106.679 E0.9924
G1 X131.837 Y107.097 E1.0187
G1 X132.461 Y107.58 E1.04494
G1 X132.898 Y107.985 E1.06476
G1 X133.015 Y108.102 E1.07026
G1 X133.545 Y108.688 E1.09654
G1 X134.012 Y109.324 E1.12279
G1 X134.413 Y110.004 E1.14904
G1 X134.743 Y110.722 E1.17532
G1 X134.998 Y111.469 E1.20158
G1 X135.177 Y112.238 E1.22784
G1 X135.277 Y113.022 E1.25413
G1 X135.3 Y113.617 E1.27393
G1 X135.3 Y121.383 E1.53223
G1 X135.26 Y122.172 E1.5585
G1 X135.141 Y122.952 E1.58475
G1 X134.943 Y123.717 E1.61103
G1 X134.669 Y124.457 E1.63728
G1 X134.321 Y125.166 E1.66354
G1 X133.903 Y125.837 E1.68984
G1 X133.42 Y126.461 E1.71608
G1 X133.015 Y126.898 E1.7359
G1 X132.898 Y127.015 E1.7414
G1 X132.312 Y127.545 E1.76768
G1 X131.676 Y128.012 E1.79393
G1 X130.996 Y128.413 E1.82018
G1 X130.278 Y128.743 E1.84647
G1 X129.531 Y128.998 E1.87272
G1 X128.762 Y129.177 E1.89898
G1 X127.978 Y129.277 E1.92527
G1 X127.383 Y129.3 E1.94507
G1 X107.617 Y129.3 E2.60249
G1 X106.828 Y129.26 E2.62877
G1 X106.048 Y129.141 E2.65501
G1 X105.283 Y128.943 E2.68129
G1 X104.543 Y128.669 E2.70754
G1 X103.834 Y128.321 E2.73381
G1 X103.163 Y127.903 E2.7601
G1 X102.539 Y127.42 E2.78635
G1 X102.102 Y127.015 E2.80616
G1 X101.985 Y126.898 E2.81167
G1 X101.455 Y126.312 E2.83795
G1 X100.988 Y125.676 E2.86419
G1 X100.587 Y124.996 E2.89045
G1 X100.257 Y124.278 E2.91673
G1 X100.002 Y123.531 E2.94298
G1 X99.823 Y122.762 E2.96924
G1 X99.723 Y121.978 E2.99553
G1 X99.7 Y121.383 E3.01533
G1 X99.7 Y113.617 E3.27363
G1 X99.74 Y112.828 E3.29991
G1 X99.859 Y112.048 E3.32615
G1 X100.057 Y111.283 E3.35243
G1 X100.331 Y110.543 E3.37868
G1 X100.679 Y109.834 E3.40495
G1 X101.097 Y109.163 E3.43124
G1 X101.58 Y108.539 E3.45749
G1 X101.985 Y108.102 E3.4773
G1 X102.102 Y107.985 E3.48281
G0 F7500 X102.384 Y108.267
G1 F1500 X102.956 Y107.753 E3.50838
G1 X103.578 Y107.3 E3.53398
G1 X104.243 Y106.914 E3.55955
G1 X104.945 Y106.599 E3.58514
G1 X105.676 Y106.359 E3.61073
G1 X106.427 Y106.196 E3.63629
G1 X107.192 Y106.112 E3.66189
G1 X107.617 Y106.1 E3.67603
G1 X127.383 Y106.1 E4.33345
G1 X128.151 Y106.14 E4.35903
G1 X128.911 Y106.259 E4.38462
G1 X129.654 Y106.457 E4.41019
G1 X130.373 Y106.731 E4.43578
G1 X131.059 Y107.078 E4.46135
G1 X131.706 Y107.494 E4.48693
G1 X132.306 Y107.975 E4.51251
G1 X132.733 Y108.384 E4.53218
G1 X133.247 Y108.956 E4.55775
G1 X133.7 Y109.578 E4.58335
G1 X134.086 Y110.243 E4.60892
G1 X134.401 Y110.945 E4.63451
G1 X134.641 Y111.676 E4.6601
G1 X134.804 Y112.427 E4.68566
G1 X134.888 Y113.192 E4.71126
G1 X134.9 Y113.617 E4.7254
G1 X134.9 Y121.383 E4.9837
G1 X134.86 Y122.151 E5.00928
G1 X134.741 Y122.911 E5.03486
G1 X134.543 Y123.654 E5.06044
G1 X134.269 Y124.373 E5.08603
G1 X133.922 Y125.059 E5.1116
G1 X133.506 Y125.706 E5.13718
G1 X133.025 Y126.306 E5.16276
G1 X132.616 Y126.733 E5.18243
G1 X132.044 Y127.247 E5.208
G1 X131.422 Y127.7 E5.2336
G1 X130.757 Y128.086 E5.25917
G1 X130.055 Y128.401 E5.28476
G1 X129.324 Y128.641 E5.31035
G1 X128.573 Y128.804 E5.33591
G1 X127.808 Y128.888 E5.36151
G1 X127.383 Y128.9 E5.37565
G1 X107.617 Y128.9 E6.03307
G1 X106.849 Y128.86 E6.05865
G1 X106.089 Y128.741 E6.08423
G1 X105.346 Y128.543 E6.10981
G1 X104.627 Y128.269 E6.1354
G1 X103.941 Y127.922 E6.16097
G1 X103.294 Y127.506 E6.18655
G1 X102.694 Y127.025 E6.21213
G1 X102.267 Y126.616 E6.2318
G1 X101.753 Y126.044 E6.25737
G1 X101.3 Y125.422 E6.28297
G1 X100.914 Y124.757 E6.30854
G1 X100.599 Y124.055 E6.33413
G1 X100.359 Y123.324 E6.35972
G1 X100.196 Y122.573 E6.38528
G1 X100.112 Y121.808 E6.41088
G1 X100.1 Y121.383 E6.42502
G1 X100.1 Y113.617 E6.68332
G1 X100.14 Y112.849 E6.7089
G1 X100.259 Y112.089 E6.73448
G1 X100.457 Y111.346 E6.76006
G1 X100.731 Y110.627 E6.78565
G1 X101.078 Y109.941 E6.81122
G1 X101.494 Y109.294 E6.8368
G1 X101.975 Y108.694 E6.86238
G1 X102.384 Y108.267 E6.88204
G0 F7500 X102.667 Y108.55
G1 F1500 X103.224 Y108.05 E6.90694
G1 X103.83 Y107.613 E6.93179
G1 X104.48 Y107.242 E6.95668
G1 X105.166 Y106.943 E6.98157
G1 X105.88 Y106.719 E7.00646
G1 X106.613 Y106.572 E7.03133
G1 X107.617 Y106.5 E7.0648
G1 X127.383 Y106.5 E7.72222
G1 X128.13 Y106.54 E7.74711
G1 X128.868 Y106.659 E7.77197
G1 X129.59 Y106.857 E7.79687
G1 X130.286 Y107.13 E7.82174
G1 X130.949 Y107.477 E7.84662
G1 X131.572 Y107.892 E7.87152
G1 X132.333 Y108.55 E7.90498
G1 X132.45 Y108.667 E7.91049
G1 X132.95 Y109.224 E7.93538
G1 X133.387 Y109.83 E7.96023
G1 X133.758 Y110.48 E7.98512
G1 X134.057 Y111.166 E8.01001
G1 X134.281 Y111.88 E8.0349
G1 X134.428 Y112.613 E8.05977
G1 X134.5 Y113.617 E8.09325
G1 X134.5 Y121.383 E8.35154
G1 X134.46 Y122.13 E8.37642
G1 X134.341 Y122.868 E8.40129
G1 X134.143 Y123.59 E8.42619
G1 X133.87 Y124.286 E8.45105
G1 X133.523 Y124.949 E8.47594
G1 X133.108 Y125.572 E8.50084
G1 X132.45 Y126.333 E8.5343
G1 X132.333 Y126.45 E8.5398
G1 X131.776 Y126.95 E8.5647
G1 X131.17 Y127.387 E8.58955
G1 X130.52 Y127.758 E8.61444
G1 X129.834 Y128.057 E8.63933
G1 X129.12 Y128.281 E8.66422
G1 X128.387 Y128.428 E8.68909
G1 X127.383 Y128.5 E8.72257
G1 X107.617 Y128.5 E9.37998
G1 X106.87 Y128.46 E9.40487
G1 X106.132 Y128.341 E9.42973
G1 X105.41 Y128.143 E9.45463
G1 X104.714 Y127.87 E9.4795
G1 X104.051 Y127.523 E9.50438
G1 X103.428 Y127.108 E9.52928
G1 X102.667 Y126.45 E9.56274
G1 X102.55 Y126.333 E9.56825
G1 X102.05 Y125.776 E9.59314
G1 X101.613 Y125.17 E9.61799
G1 X101.242 Y124.52 E9.64288
G1 X100.943 Y123.834 E9.66777
G1 X100.719 Y123.12 E9.69266
G1 X100.572 Y122.387 E9.71753
G1 X100.5 Y121.383 E9.75101
G1 X100.5 Y113.617 E10.0093
G1 X100.54 Y112.87 E10.03419
G1 X100.659 Y112.132 E10.05905
G1 X100.857 Y111.41 E10.08395
G1 X101.13 Y110.714 E10.10881
G1 X101.477 Y110.051 E10.1337
G1 X101.892 Y109.428 E10.1586
G1 X102.55 Y108.667 E10.19206
G1 X102.667 Y108.55 E10.19757
G0 F7500 X102.95 Y108.833
G1 F1500 X103.491 Y108.349 E10.22171
G1 X104.082 Y107.926 E10.24588
G1 X104.716 Y107.572 E10.27003
G1 X105.385 Y107.289 E10.29419
G1 X106.081 Y107.081 E10.31835
G1 X106.796 Y106.951 E10.34252
G1 X107.617 Y106.9 E10.36988
G1 X127.383 Y106.9 E11.0273
G1 X128.108 Y106.94 E11.05145
G1 X128.825 Y107.059 E11.07563
G1 X129.524 Y107.257 E11.09979
G1 X130.197 Y107.53 E11.12395
G1 X130.836 Y107.875 E11.1481
G1 X131.433 Y108.289 E11.17226
G1 X132.05 Y108.833 E11.19962
G1 X132.167 Y108.95 E11.20513
G1 X132.651 Y109.491 E11.22927
G1 X133.074 Y110.082 E11.25344
G1 X133.428 Y110.716 E11.27759
G1 X133.711 Y111.385 E11.30175
G1 X133.919 Y112.081 E11.32591
G1 X134.049 Y112.796 E11.35008
G1 X134.1 Y113.617 E11.37744
G1 X134.1 Y121.383 E11.63574
G1 X134.06 Y122.108 E11.65989
G1 X133.941 Y122.825 E11.68407
G1 X133.743 Y123.524 E11.70823
G1 X133.47 Y124.197 E11.73239
G1 X133.125 Y124.836 E11.75654
G1 X132.711 Y125.433 E11.7807
G1 X132.167 Y126.05 E11.80806
G1 X132.05 Y126.167 E11.81356
G1 X131.509 Y126.651 E11.83771
G1 X130.918 Y127.074 E11.86188
G1 X130.284 Y127.428 E11.88603
G1 X129.615 Y127.711 E11.91019
G1 X128.919 Y127.919 E11.93435
G1 X128.204 Y128.049 E11.95852
G1 X127.383 Y128.1 E11.98588
G1 X107.617 Y128.1 E12.6433
G1 X106.892 Y128.06 E12.66745
G1 X106.175 Y127.941 E12.69163
G1 X105.476 Y127.743 E12.71579
G1 X104.803 Y127.47 E12.73995
G1 X104.164 Y127.125 E12.7641
G1 X103.567 Y126.711 E12.78826
G1 X102.95 Y126.167 E12.81562
G1 X102.833 Y126.05 E12.82112
G1 X102.349 Y125.509 E12.84527
G1 X101.926 Y124.918 E12.86944
G1 X101.572 Y124.284 E12.89359
G1 X101.289 Y123.615 E12.91775
G1 X101.081 Y122.919 E12.94191
G1 X100.951 Y122.204 E12.96608
G1 X100.9 Y121.383 E12.99344
G1 X100.9 Y113.617 E13.25174
G1 X100.94 Y112.892 E13.27589
G1 X101.059 Y112.175 E13.30007
G1 X101.257 Y111.476 E13.32423
G1 X101.53 Y110.803 E13.34838
G1 X101.875 Y110.164 E13.37254
G1 X102.289 Y109.567 E13.3967
G1 X102.833 Y108.95 E13.42406
G1 X102.95 Y108.833 E13.42956
G0 F7500 X103.233 Y109.116
G1 F1500 X103.758 Y108.647 E13.45298
G1 X104.333 Y108.241 E13.47639
G1 X104.951 Y107.903 E13.49982
G1 X105.602 Y107.636 E13.52322
G1 X106.28 Y107.446 E13.54664
G1 X106.975 Y107.333 E13.57006
G1 X107.617 Y107.3 E13.59144
G1 X127.383 Y107.3 E14.24886
G1 X128.086 Y107.34 E14.27228
G1 X128.78 Y107.459 E14.2957
G1 X129.455 Y107.657 E14.3191
G1 X130.104 Y107.929 E14.3425
G1 X130.718 Y108.274 E14.36592
G1 X131.289 Y108.685 E14.38932
G1 X131.767 Y109.116 E14.41073
G1 X131.884 Y109.233 E14.41623
G1 X132.353 Y109.758 E14.43965
G1 X132.759 Y110.333 E14.46306
G1 X133.097 Y110.951 E14.48649
G1 X133.364 Y111.602 E14.50989
G1 X133.554 Y112.28 E14.53331
G1 X133.667 Y112.975 E14.55673
G1 X133.7 Y113.617 E14.57811
G1 X133.7 Y121.383 E14.83641
G1 X133.66 Y122.086 E14.85983
G1 X133.541 Y122.78 E14.88325
G1 X133.343 Y123.455 E14.90665
G1 X133.071 Y124.104 E14.93005
G1 X132.726 Y124.718 E14.95347
G1 X132.315 Y125.289 E14.97687
G1 X131.884 Y125.767 E14.99828
G1 X131.767 Y125.884 E15.00378
G1 X131.242 Y126.353 E15.0272
G1 X130.667 Y126.759 E15.05061
G1 X130.049 Y127.097 E15.07404
G1 X129.398 Y127.364 E15.09744
G1 X128.72 Y127.554 E15.12086
G1 X128.025 Y127.667 E15.14428
G1 X127.383 Y127.7 E15.16566
G1 X107.617 Y127.7 E15.82308
G1 X106.914 Y127.66 E15.8465
G1 X106.22 Y127.541 E15.86992
G1 X105.545 Y127.343 E15.89332
G1 X104.896 Y127.071 E15.91672
G1 X104.282 Y126.726 E15.94015
G1 X103.711 Y126.315 E15.96355
G1 X103.233 Y125.884 E15.98495
G1 X103.116 Y125.767 E15.99046
G1 X102.647 Y125.242 E16.01387
G1 X102.241 Y124.667 E16.03728
G1 X101.903 Y124.049 E16.06071
G1 X101.636 Y123.398 E16.08411
G1 X101.446 Y122.72 E16.10753
G1 X101.333 Y122.025 E16.13095
G1 X101.3 Y121.383 E16.15233
G1 X101.3 Y113.617 E16.41063
G1 X101.34 Y112.914 E16.43405
G1 X101.459 Y112.22 E16.45747
G1 X101.657 Y111.545 E16.48087
G1 X101.929 Y110.896 E16.50427
G1 X102.274 Y110.282 E16.5277
G1 X102.685 Y109.711 E16.5511
G1 X103.116 Y109.233 E16.5725
G1 X103.233 Y109.116 E16.57801
G0 F7500 X103.516 Y109.399
G1 F1500 X104.025 Y108.946 E16.60067
G1 X104.583 Y108.557 E16.62329
G1 X105.183 Y108.235 E16.64594
G1 X105.817 Y107.986 E16.6686
G1 X106.476 Y107.813 E16.69126
G1 X107.15 Y107.719 E16.71389
G1 X107.617 Y107.7 E16.72944
G1 X127.383 Y107.7 E17.38686
G1 X128.063 Y107.74 E17.40951
G1 X128.733 Y107.859 E17.43215
G1 X129.385 Y108.056 E17.4548
G1 X130.009 Y108.328 E17.47744
G1 X130.597 Y108.672 E17.5001
G1 X131.141 Y109.082 E17.52275
G1 X131.484 Y109.399 E17.53829
G1 X131.601 Y109.516 E17.54379
G1 X132.054 Y110.025 E17.56646
G1 X132.443 Y110.583 E17.58908
G1 X132.765 Y111.183 E17.61173
G1 X133.014 Y111.817 E17.63438
G1 X133.187 Y112.476 E17.65704
G1 X133.281 Y113.15 E17.67968
G1 X133.3 Y113.617 E17.69522
G1 X133.3 Y121.383 E17.95352
G1 X133.26 Y122.063 E17.97618
G1 X133.141 Y122.733 E17.99881
G1 X132.944 Y123.385 E18.02146
G1 X132.672 Y124.009 E18.0441
G1 X132.328 Y124.597 E18.06676
G1 X131.918 Y125.141 E18.08942
G1 X131.601 Y125.484 E18.10495
G1 X131.484 Y125.601 E18.11046
G1 X130.975 Y126.054 E18.13312
G1 X130.417 Y126.443 E18.15574
G1 X129.817 Y126.765 E18.17839
G1 X129.183 Y127.014 E18.20105
G1 X128.524 Y127.187 E18.22371
G1 X127.85 Y127.281 E18.24634
G1 X127.383 Y127.3 E18.26189
G1 X107.617 Y127.3 E18.91931
G1 X106.937 Y127.26 E18.94196
G1 X106.267 Y127.141 E18.9646
G1 X105.615 Y126.944 E18.98725
G1 X104.991 Y126.672 E19.00989
G1 X104.403 Y126.328 E19.03255
G1 X103.859 Y125.918 E19.05521
G1 X103.516 Y125.601 E19.07074
G1 X103.399 Y125.484 E19.07624
G1 X102.946 Y124.975 E19.09891
G1 X102.557 Y124.417 E19.12153
G1 X102.235 Y123.817 E19.14418
G1 X101.986 Y123.183 E19.16683
G1 X101.813 Y122.524 E19.18949
G1 X101.719 Y121.85 E19.21213
G1 X101.7 Y121.383 E19.22767
G1 X101.7 Y113.617 E19.48597
G1 X101.74 Y112.937 E19.50863
G1 X101.859 Y112.267 E19.53126
G1 X102.056 Y111.615 E19.55392
G1 X102.328 Y110.991 E19.57656
G1 X102.672 Y110.403 E19.59921
G1 X103.082 Y109.859 E19.62187
G1 X103.399 Y109.516 E19.6374
G1 X103.516 Y109.399 E19.64291
G0 F7500 X103.799 Y109.682
G1 F1500 X104.291 Y109.246 E19.66477
G1 X104.832 Y108.874 E19.68661
G1 X105.414 Y108.57 E19.70845
G1 X106.029 Y108.339 E19.7303
G1 X106.668 Y108.184 E19.75217
G1 X107.617 Y108.1 E19.78386
G1 X127.383 Y108.1 E20.44128
G1 X128.039 Y108.14 E20.46313
G1 X128.685 Y108.259 E20.48498
G1 X129.312 Y108.456 E20.50684
G1 X129.91 Y108.728 E20.52869
G1 X130.471 Y109.07 E20.55054
G1 X131.201 Y109.682 E20.58223
G1 X131.318 Y109.799 E20.58773
G1 X131.754 Y110.291 E20.6096
G1 X132.126 Y110.832 E20.63143
G1 X132.43 Y111.414 E20.65327
G1 X132.661 Y112.029 E20.67512
G1 X132.816 Y112.668 E20.69699
G1 X132.9 Y113.617 E20.72868
G1 X132.9 Y121.383 E20.98698
G1 X132.86 Y122.039 E21.00884
G1 X132.741 Y122.685 E21.03068
G1 X132.544 Y123.312 E21.05254
G1 X132.272 Y123.91 E21.07439
G1 X131.93 Y124.471 E21.09625
G1 X131.318 Y125.201 E21.12793
G1 X131.201 Y125.318 E21.13343
G1 X130.709 Y125.754 E21.1553
G1 X130.168 Y126.126 E21.17714
G1 X129.586 Y126.43 E21.19898
G1 X128.971 Y126.661 E21.22083
G1 X128.332 Y126.816 E21.24269
G1 X127.383 Y126.9 E21.27438
G1 X107.617 Y126.9 E21.9318
G1 X106.961 Y126.86 E21.95366
G1 X106.315 Y126.741 E21.97551
G1 X105.688 Y126.544 E21.99737
G1 X105.09 Y126.272 E22.01922
G1 X104.529 Y125.93 E22.04107
G1 X103.799 Y125.318 E22.07275
G1 X103.682 Y125.201 E22.07826
G1 X103.246 Y124.709 E22.10012
G1 X102.874 Y124.168 E22.12196
G1 X102.57 Y123.586 E22.1438
G1 X102.339 Y122.971 E22.16565
G1 X102.184 Y122.332 E22.18752
G1 X102.1 Y121.383 E22.21921
G1 X102.1 Y113.617 E22.4775
G1 X102.14 Y112.961 E22.49936
G1 X102.259 Y112.315 E22.52121
G1 X102.456 Y111.688 E22.54307
G1 X102.728 Y111.09 E22.56492
G1 X103.07 Y110.529 E22.58677
G1 X103.682 Y109.799 E22.61846
G1 X103.799 Y109.682 E22.62396
G0 F7500 X104.081 Y109.964
G1 F1500 X104.556 Y109.547 E22.64498
G1 X105.079 Y109.192 E22.66601
G1 X105.643 Y108.906 E22.68704
G1 X106.238 Y108.694 E22.70805
G1 X106.856 Y108.558 E22.72909
G1 X107.617 Y108.5 E22.75448
G1 X127.383 Y108.5 E23.4119
G1 X128.014 Y108.54 E23.43293
G1 X128.635 Y108.659 E23.45396
G1 X129.235 Y108.856 E23.47496
G1 X129.807 Y109.127 E23.49601
G1 X130.339 Y109.467 E23.51701
G1 X130.919 Y109.964 E23.54242
G1 X131.036 Y110.081 E23.54792
G1 X131.453 Y110.556 E23.56894
G1 X131.808 Y111.079 E23.58997
G1 X132.094 Y111.643 E23.611
G1 X132.306 Y112.238 E23.63201
G1 X132.442 Y112.856 E23.65306
G1 X132.5 Y113.617 E23.67844
G1 X132.5 Y121.383 E23.93674
G1 X132.46 Y122.014 E23.95777
G1 X132.341 Y122.635 E23.9788
G1 X132.144 Y123.235 E23.9998
G1 X131.873 Y123.807 E24.02085
G1 X131.533 Y124.339 E24.04185
G1 X131.036 Y124.919 E24.06726
G1 X130.919 Y125.036 E24.07276
G1 X130.444 Y125.453 E24.09378
G1 X129.921 Y125.808 E24.11481
G1 X129.357 Y126.094 E24.13584
G1 X128.762 Y126.306 E24.15685
G1 X128.144 Y126.442 E24.1779
G1 X127.383 Y126.5 E24.20328
G1 X107.617 Y126.5 E24.8607
G1 X106.986 Y126.46 E24.88173
G1 X106.365 Y126.341 E24.90276
G1 X105.765 Y126.144 E24.92376
G1 X105.193 Y125.873 E24.94482
G1 X104.661 Y125.533 E24.96582
G1 X104.081 Y125.036 E24.99122
G1 X103.964 Y124.919 E24.99672
G1 X103.547 Y124.444 E25.01775
G1 X103.192 Y123.921 E25.03877
