;FLAVOR:Marlin
;TIME:4769
;Filament used: 2.27782m
;Layer height: 0.2
;MINX:63.7
;MINY:95.2
;MINZ:0.2
;MAXX:171.3
;MAXY:139.8
;MAXZ:8
;Generated with Cura_SteamEngine 4.5.0
M140 S58
M105
M190 S58
M104 S192
M105
M109 S192
M82 ;absolute extrusion mode
; Ender 3 Custom Start G-code
G92 E0 ; Reset Extruder
G28 ; Home all axes
G1 Z2.0 F3000 ; Move Z Axis up little to prevent scratching of Heat Bed
G1 X0.1 Y20 Z0.3 F5000.0 ; Move to start position
G1 X0.1 Y200.0 Z0.3 F1500.0 E15 ; Draw the first line
G1 X0.4 Y200.0 Z0.3 F5000.0 ; Move to side a little
G1 X0.4 Y20 Z0.3 F1500.0 E30 ; Draw the second line
G92 E0 ; Reset Extruder
G1 Z2.0 F3000 ; Move Z Axis up little to prevent scratching of Heat Bed
G1 X5 Y20 Z0.3 F5000.0 ; Move over to prevent blob squish
G92 E0
G92 E0
G1 F2700 E-5
;LAYER_COUNT:40
;LAYER:0
M107
G0 F6000 X67.37 Y96.383 Z0.2
;TYPE:SKIRT
G1 F2700 E0
G1 F1200 X68.061 Y95.999 E0.02629
G1 X68.786 Y95.687 E0.05254
G1 X69.539 Y95.45 E0.0788
G1 X70.313 Y95.291 E0.10508
G1 X71.098 Y95.21 E0.13133
G1 X71.5 Y95.2 E0.1447
G1 X91.5 Y95.2 E0.80991
G1 X92.289 Y95.24 E0.83618
G1 X93.069 Y95.359 E0.86243
G1 X93.486 Y95.467 E0.87675
G1 X93.539 Y95.45 E0.8786
G1 X94.313 Y95.291 E0.90489
G1 X95.098 Y95.21 E0.93113
G1 X95.5 Y95.2 E0.94451
G1 X115.5 Y95.2 E1.60971
G1 X116.289 Y95.24 E1.63599
G1 X117.069 Y95.359 E1.66223
G1 X117.486 Y95.467 E1.67656
G1 X117.539 Y95.45 E1.67841
G1 X118.313 Y95.291 E1.70469
G1 X119.098 Y95.21 E1.73094
G1 X119.5 Y95.2 E1.74431
G1 X139.5 Y95.2 E2.40951
G1 X140.289 Y95.24 E2.43579
G1 X141.069 Y95.359 E2.46203
G1 X141.486 Y95.467 E2.47636
G1 X141.539 Y95.45 E2.47821
G1 X142.313 Y95.291 E2.50449
G1 X143.098 Y95.21 E2.53074
G1 X143.5 Y95.2 E2.54411
G1 X163.5 Y95.2 E3.20932
G1 X164.289 Y95.24 E3.23559
G1 X165.069 Y95.359 E3.26184
G1 X165.834 Y95.557 E3.28812
G1 X166.574 Y95.831 E3.31436
G1 X167.283 Y96.179 E3.34063
G1 X167.954 Y96.597 E3.36693
G1 X168.578 Y97.08 E3.39317
G1 X169.151 Y97.623 E3.41943
G1 X169.666 Y98.222 E3.4457
G1 X170.117 Y98.87 E3.47196
G1 X170.501 Y99.561 E3.49825
G1 X170.813 Y100.286 E3.52451
G1 X171.05 Y101.039 E3.55076
G1 X171.209 Y101.813 E3.57704
G1 X171.29 Y102.598 E3.60329
G1 X171.3 Y103 E3.61667
G1 X171.3 Y104 E3.64993
G1 X171.26 Y104.789 E3.6762
G1 X171.149 Y105.519 E3.70076
G1 X171.209 Y105.813 E3.71074
G1 X171.29 Y106.598 E3.73699
G1 X171.3 Y107 E3.75036
G1 X171.3 Y108 E3.78362
G1 X171.26 Y108.789 E3.8099
G1 X171.141 Y109.569 E3.83614
G1 X170.943 Y110.334 E3.86242
G1 X170.669 Y111.074 E3.88867
G1 X170.463 Y111.493 E3.9042
G1 X170.501 Y111.561 E3.90679
G1 X170.813 Y112.286 E3.93304
G1 X171.05 Y113.039 E3.9593
G1 X171.209 Y113.813 E3.98558
G1 X171.29 Y114.598 E4.01183
G1 X171.3 Y115 E4.0252
G1 X171.3 Y116 E4.05846
G1 X171.26 Y116.789 E4.08474
G1 X171.149 Y117.519 E4.1093
G1 X171.209 Y117.813 E4.11928
G1 X171.29 Y118.598 E4.14552
G1 X171.3 Y119 E4.1589
G1 X171.3 Y120 E4.19216
G1 X171.26 Y120.789 E4.21844
G1 X171.141 Y121.569 E4.24468
G1 X170.943 Y122.334 E4.27096
G1 X170.669 Y123.074 E4.29721
G1 X170.463 Y123.493 E4.31274
G1 X170.501 Y123.561 E4.31533
G1 X170.813 Y124.286 E4.34158
G1 X171.05 Y125.039 E4.36783
G1 X171.209 Y125.813 E4.39412
G1 X171.29 Y126.598 E4.42036
G1 X171.3 Y127 E4.43374
G1 X171.3 Y128 E4.467
G1 X171.26 Y128.789 E4.49327
G1 X171.149 Y129.519 E4.51783
G1 X171.209 Y129.813 E4.52781
G1 X171.29 Y130.598 E4.55406
G1 X171.3 Y131 E4.56744
G1 X171.3 Y132 E4.6007
G1 X171.26 Y132.789 E4.62697
G1 X171.141 Y133.569 E4.65321
G1 X170.943 Y134.334 E4.6795
G1 X170.669 Y135.074 E4.70574
G1 X170.321 Y135.783 E4.73201
G1 X169.903 Y136.454 E4.75831
G1 X169.42 Y137.078 E4.78455
G1 X168.877 Y137.651 E4.81081
G1 X168.278 Y138.166 E4.83708
G1 X167.63 Y138.617 E4.86334
G1 X166.939 Y139.001 E4.88963
G1 X166.214 Y139.313 E4.91588
G1 X165.461 Y139.55 E4.94214
G1 X164.687 Y139.709 E4.96842
G1 X163.902 Y139.79 E4.99467
G1 X163.5 Y139.8 E5.00804
G1 X143.5 Y139.8 E5.67325
G1 X142.711 Y139.76 E5.69952
G1 X141.931 Y139.641 E5.72577
G1 X141.514 Y139.533 E5.74009
G1 X141.461 Y139.55 E5.74194
G1 X140.687 Y139.709 E5.76822
G1 X139.902 Y139.79 E5.79447
G1 X139.5 Y139.8 E5.80785
G1 X119.5 Y139.8 E6.47305
G1 X118.711 Y139.76 E6.49933
G1 X117.931 Y139.641 E6.52557
G1 X117.514 Y139.533 E6.5399
G1 X117.461 Y139.55 E6.54175
G1 X116.687 Y139.709 E6.56803
G1 X115.902 Y139.79 E6.59428
G1 X115.5 Y139.8 E6.60765
G1 X95.5 Y139.8 E7.27285
G1 X94.711 Y139.76 E7.29913
G1 X93.931 Y139.641 E7.32537
G1 X93.514 Y139.533 E7.3397
G1 X93.461 Y139.55 E7.34155
G1 X92.687 Y139.709 E7.36783
G1 X91.902 Y139.79 E7.39408
G1 X91.5 Y139.8 E7.40745
G1 X71.5 Y139.8 E8.07266
G1 X70.711 Y139.76 E8.09893
G1 X69.931 Y139.641 E8.12518
G1 X69.166 Y139.443 E8.15146
G1 X68.426 Y139.169 E8.1777
G1 X67.717 Y138.821 E8.20397
G1 X67.046 Y138.403 E8.23027
G1 X66.422 Y137.92 E8.25651
G1 X65.849 Y137.377 E8.28277
G1 X65.334 Y136.778 E8.30904
G1 X64.883 Y136.13 E8.3353
G1 X64.499 Y135.439 E8.36159
G1 X64.187 Y134.714 E8.38785
G1 X63.95 Y133.961 E8.4141
G1 X63.791 Y133.187 E8.44038
G1 X63.71 Y132.402 E8.46663
G1 X63.7 Y132 E8.48
G1 X63.7 Y131 E8.51327
G1 X63.74 Y130.211 E8.53954
G1 X63.851 Y129.481 E8.5641
G1 X63.791 Y129.187 E8.57408
G1 X63.71 Y128.402 E8.60033
G1 X63.7 Y128 E8.6137
G1 X63.7 Y127 E8.64696
G1 X63.74 Y126.211 E8.67324
G1 X63.859 Y125.431 E8.69948
G1 X64.057 Y124.666 E8.72576
G1 X64.331 Y123.926 E8.75201
G1 X64.537 Y123.507 E8.76754
G1 X64.499 Y123.439 E8.77013
G1 X64.187 Y122.714 E8.79638
G1 X63.95 Y121.961 E8.82264
G1 X63.791 Y121.187 E8.84892
G1 X63.71 Y120.402 E8.87517
G1 X63.7 Y120 E8.88854
G1 X63.7 Y119 E8.9218
G1 X63.74 Y118.211 E8.94808
G1 X63.851 Y117.481 E8.97264
G1 X63.791 Y117.187 E8.98262
G1 X63.71 Y116.402 E9.00886
G1 X63.7 Y116 E9.02224
G1 X63.7 Y115 E9.0555
G1 X63.74 Y114.211 E9.08177
G1 X63.859 Y113.431 E9.10802
G1 X64.057 Y112.666 E9.1343
G1 X64.331 Y111.926 E9.16055
G1 X64.537 Y111.507 E9.17607
G1 X64.499 Y111.439 E9.17867
G1 X64.187 Y110.714 E9.20492
G1 X63.95 Y109.961 E9.23117
G1 X63.791 Y109.187 E9.25745
G1 X63.71 Y108.402 E9.2837
G1 X63.7 Y108 E9.29708
G1 X63.7 Y107 E9.33034
G1 X63.74 Y106.211 E9.35661
G1 X63.851 Y105.481 E9.38117
G1 X63.791 Y105.187 E9.39115
G1 X63.71 Y104.402 E9.4174
G1 X63.7 Y104 E9.43077
G1 X63.7 Y103 E9.46403
G1 X63.74 Y102.211 E9.49031
G1 X63.859 Y101.431 E9.51655
G1 X64.057 Y100.666 E9.54284
G1 X64.331 Y99.926 E9.56908
G1 X64.679 Y99.217 E9.59535
G1 X65.097 Y98.546 E9.62164
G1 X65.58 Y97.922 E9.64789
G1 X66.123 Y97.349 E9.67415
G1 X66.722 Y96.834 E9.70042
G1 X67.37 Y96.383 E9.72668
G0 F6000 X67.753 Y96.619
G1 F1200 X68.436 Y96.264 E9.75228
G1 X69.151 Y95.983 E9.77783
G1 X69.893 Y95.777 E9.80344
G1 X70.651 Y95.649 E9.82901
G1 X71.5 Y95.6 E9.8573
G1 X91.5 Y95.6 E10.5225
G1 X92.268 Y95.64 E10.54808
G1 X93.028 Y95.759 E10.57366
G1 X93.502 Y95.885 E10.58998
G1 X93.893 Y95.777 E10.60347
G1 X94.651 Y95.649 E10.62904
G1 X95.5 Y95.6 E10.65732
G1 X115.5 Y95.6 E11.32252
G1 X116.268 Y95.64 E11.3481
G1 X117.028 Y95.759 E11.37369
G1 X117.502 Y95.885 E11.39
G1 X117.893 Y95.777 E11.40349
G1 X118.651 Y95.649 E11.42906
G1 X119.5 Y95.6 E11.45735
G1 X139.5 Y95.6 E12.12255
G1 X140.268 Y95.64 E12.14813
G1 X141.028 Y95.759 E12.17371
G1 X141.502 Y95.885 E12.19003
G1 X141.893 Y95.777 E12.20352
G1 X142.651 Y95.649 E12.22909
G1 X143.5 Y95.6 E12.25737
G1 X163.5 Y95.6 E12.92257
G1 X164.268 Y95.64 E12.94815
G1 X165.028 Y95.759 E12.97374
G1 X165.771 Y95.957 E12.99931
G1 X166.49 Y96.231 E13.0249
G1 X167.176 Y96.578 E13.05047
G1 X167.823 Y96.994 E13.07606
G1 X168.423 Y97.475 E13.10163
G1 X168.97 Y98.016 E13.12722
G1 X169.458 Y98.611 E13.15282
G1 X169.881 Y99.253 E13.17839
G1 X170.236 Y99.936 E13.20399
G1 X170.517 Y100.651 E13.22954
G1 X170.723 Y101.393 E13.25515
G1 X170.851 Y102.151 E13.28072
G1 X170.9 Y103 E13.30901
G1 X170.9 Y104 E13.34227
G1 X170.86 Y104.768 E13.36785
G1 X170.743 Y105.513 E13.39293
G1 X170.851 Y106.151 E13.41445
G1 X170.9 Y107 E13.44273
G1 X170.9 Y108 E13.47599
G1 X170.86 Y108.768 E13.50157
G1 X170.741 Y109.528 E13.52716
G1 X170.543 Y110.271 E13.55273
G1 X170.269 Y110.99 E13.57833
G1 X170.01 Y111.502 E13.59741
G1 X170.236 Y111.936 E13.61368
G1 X170.517 Y112.651 E13.63924
G1 X170.723 Y113.393 E13.66485
G1 X170.851 Y114.151 E13.69042
G1 X170.9 Y115 E13.7187
G1 X170.9 Y116 E13.75196
G1 X170.86 Y116.768 E13.77754
G1 X170.743 Y117.513 E13.80262
G1 X170.851 Y118.151 E13.82414
G1 X170.9 Y119 E13.85243
G1 X170.9 Y120 E13.88569
G1 X170.86 Y120.768 E13.91127
G1 X170.741 Y121.528 E13.93685
G1 X170.543 Y122.271 E13.96243
G1 X170.269 Y122.99 E13.98802
G1 X170.01 Y123.502 E14.0071
G1 X170.236 Y123.936 E14.02338
G1 X170.517 Y124.651 E14.04893
G1 X170.723 Y125.393 E14.07454
G1 X170.851 Y126.151 E14.10011
G1 X170.9 Y127 E14.1284
G1 X170.9 Y128 E14.16166
G1 X170.86 Y128.768 E14.18723
G1 X170.743 Y129.513 E14.21232
G1 X170.851 Y130.151 E14.23384
G1 X170.9 Y131 E14.26212
G1 X170.9 Y132 E14.29538
G1 X170.86 Y132.768 E14.32096
G1 X170.741 Y133.528 E14.34655
G1 X170.543 Y134.271 E14.37212
G1 X170.269 Y134.99 E14.39771
G1 X169.922 Y135.676 E14.42328
G1 X169.506 Y136.323 E14.44887
G1 X169.025 Y136.923 E14.47444
G1 X168.484 Y137.47 E14.50003
G1 X167.889 Y137.958 E14.52563
G1 X167.247 Y138.381 E14.5512
G1 X166.564 Y138.736 E14.5768
G1 X165.849 Y139.017 E14.60235
G1 X165.107 Y139.223 E14.62796
G1 X164.349 Y139.351 E14.65353
G1 X163.5 Y139.4 E14.68182
G1 X143.5 Y139.4 E15.34702
G1 X142.732 Y139.36 E15.3726
G1 X141.972 Y139.241 E15.39818
G1 X141.498 Y139.115 E15.4145
G1 X141.107 Y139.223 E15.42799
G1 X140.349 Y139.351 E15.45356
G1 X139.5 Y139.4 E15.48184
G1 X119.5 Y139.4 E16.14704
G1 X118.732 Y139.36 E16.17262
G1 X117.972 Y139.241 E16.19821
G1 X117.498 Y139.115 E16.21452
G1 X117.107 Y139.223 E16.22801
G1 X116.349 Y139.351 E16.25358
G1 X115.5 Y139.4 E16.28187
G1 X95.5 Y139.4 E16.94707
G1 X94.732 Y139.36 E16.97265
G1 X93.972 Y139.241 E16.99823
G1 X93.498 Y139.115 E17.01454
G1 X93.107 Y139.223 E17.02804
G1 X92.349 Y139.351 E17.0536
G1 X91.5 Y139.4 E17.08189
G1 X71.5 Y139.4 E17.74709
G1 X70.732 Y139.36 E17.77267
G1 X69.972 Y139.241 E17.79826
G1 X69.229 Y139.043 E17.82383
G1 X68.51 Y138.769 E17.84942
G1 X67.824 Y138.422 E17.87499
G1 X67.177 Y138.006 E17.90058
G1 X66.577 Y137.525 E17.92615
G1 X66.03 Y136.984 E17.95174
G1 X65.542 Y136.389 E17.97734
G1 X65.119 Y135.747 E18.00291
G1 X64.764 Y135.064 E18.02851
G1 X64.483 Y134.349 E18.05406
G1 X64.277 Y133.607 E18.07967
G1 X64.149 Y132.849 E18.10524
G1 X64.1 Y132 E18.13353
G1 X64.1 Y131 E18.16679
G1 X64.14 Y130.232 E18.19236
G1 X64.257 Y129.487 E18.21745
G1 X64.149 Y128.849 E18.23897
G1 X64.1 Y128 E18.26725
G1 X64.1 Y127 E18.30051
G1 X64.14 Y126.232 E18.32609
G1 X64.259 Y125.472 E18.35168
G1 X64.457 Y124.729 E18.37725
G1 X64.731 Y124.01 E18.40284
G1 X64.99 Y123.498 E18.42193
G1 X64.764 Y123.064 E18.4382
G1 X64.483 Y122.349 E18.46375
G1 X64.277 Y121.607 E18.48937
G1 X64.149 Y120.849 E18.51494
G1 X64.1 Y120 E18.54322
G1 X64.1 Y119 E18.57648
G1 X64.14 Y118.232 E18.60206
G1 X64.257 Y117.487 E18.62714
G1 X64.149 Y116.849 E18.64866
G1 X64.1 Y116 E18.67695
G1 X64.1 Y115 E18.71021
G1 X64.14 Y114.232 E18.73579
G1 X64.259 Y113.472 E18.76137
G1 X64.457 Y112.729 E18.78695
G1 X64.731 Y112.01 E18.81254
G1 X64.99 Y111.498 E18.83162
G1 X64.764 Y111.064 E18.8479
G1 X64.483 Y110.349 E18.87345
G1 X64.277 Y109.607 E18.89906
G1 X64.149 Y108.849 E18.92463
G1 X64.1 Y108 E18.95291
G1 X64.1 Y107 E18.98617
G1 X64.14 Y106.232 E19.01175
G1 X64.257 Y105.487 E19.03684
G1 X64.149 Y104.849 E19.05836
G1 X64.1 Y104 E19.08664
G1 X64.1 Y103 E19.1199
G1 X64.14 Y102.232 E19.14548
G1 X64.259 Y101.472 E19.17107
G1 X64.457 Y100.729 E19.19664
G1 X64.731 Y100.01 E19.22223
G1 X65.078 Y99.324 E19.2478
G1 X65.494 Y98.677 E19.27339
G1 X65.975 Y98.077 E19.29896
G1 X66.516 Y97.53 E19.32455
G1 X67.111 Y97.042 E19.35015
G1 X67.753 Y96.619 E19.37572
G0 F6000 X67.498 Y97.257
G1 F1200 X68.134 Y96.862 E19.40062
G1 X68.808 Y96.538 E19.42549
G1 X69.513 Y96.288 E19.45037
G1 X70.241 Y96.114 E19.47527
G1 X70.983 Y96.019 E19.50015
G1 X71.5 Y96 E19.51735
G1 X91.5 Y96 E20.18256
G1 X92.247 Y96.04 E20.20744
G1 X92.985 Y96.159 E20.2323
G1 X93.488 Y96.297 E20.24965
G1 X94.241 Y96.114 E20.27542
G1 X94.983 Y96.019 E20.3003
G1 X95.5 Y96 E20.31751
G1 X115.5 Y96 E20.98271
G1 X116.247 Y96.04 E21.00759
G1 X116.985 Y96.159 E21.03246
G1 X117.488 Y96.297 E21.0498
G1 X118.241 Y96.114 E21.07558
G1 X118.983 Y96.019 E21.10046
G1 X119.5 Y96 E21.11767
G1 X139.5 Y96 E21.78287
G1 X140.247 Y96.04 E21.80775
G1 X140.985 Y96.159 E21.83261
G1 X141.488 Y96.297 E21.84996
G1 X142.241 Y96.114 E21.87573
G1 X142.983 Y96.019 E21.90061
G1 X143.5 Y96 E21.91782
G1 X163.5 Y96 E22.58302
G1 X164.247 Y96.04 E22.60791
G1 X164.985 Y96.159 E22.63277
G1 X165.707 Y96.357 E22.65767
G1 X166.403 Y96.63 E22.68253
G1 X167.066 Y96.977 E22.70742
G1 X167.689 Y97.392 E22.73232
G1 X168.263 Y97.871 E22.75719
G1 X168.784 Y98.408 E22.78207
G1 X169.243 Y98.998 E22.80693
G1 X169.638 Y99.634 E22.83184
G1 X169.962 Y100.308 E22.85671
G1 X170.212 Y101.013 E22.88159
G1 X170.386 Y101.741 E22.90648
G1 X170.481 Y102.483 E22.93136
G1 X170.5 Y103 E22.94857
G1 X170.5 Y104 E22.98183
G1 X170.46 Y104.747 E23.00671
G1 X170.341 Y105.485 E23.03158
G1 X170.386 Y105.741 E23.04022
G1 X170.481 Y106.483 E23.0651
G1 X170.5 Y107 E23.08231
G1 X170.5 Y108 E23.11557
G1 X170.46 Y108.747 E23.14045
G1 X170.341 Y109.485 E23.16531
G1 X170.143 Y110.207 E23.19021
G1 X169.87 Y110.903 E23.21508
G1 X169.556 Y111.502 E23.23757
G1 X169.638 Y111.634 E23.24274
G1 X169.962 Y112.308 E23.26761
G1 X170.212 Y113.013 E23.29249
G1 X170.386 Y113.741 E23.31739
G1 X170.481 Y114.483 E23.34227
G1 X170.5 Y115 E23.35948
G1 X170.5 Y116 E23.39274
G1 X170.46 Y116.747 E23.41762
G1 X170.341 Y117.485 E23.44248
G1 X170.386 Y117.741 E23.45113
G1 X170.481 Y118.483 E23.47601
G1 X170.5 Y119 E23.49321
G1 X170.5 Y120 E23.52647
G1 X170.46 Y120.747 E23.55135
G1 X170.341 Y121.485 E23.57622
G1 X170.143 Y122.207 E23.60112
G1 X169.87 Y122.903 E23.62598
G1 X169.556 Y123.502 E23.64848
G1 X169.638 Y123.634 E23.65365
G1 X169.962 Y124.308 E23.67852
G1 X170.212 Y125.013 E23.7034
G1 X170.386 Y125.741 E23.72829
G1 X170.481 Y126.483 E23.75317
G1 X170.5 Y127 E23.77038
G1 X170.5 Y128 E23.80364
G1 X170.46 Y128.747 E23.82852
G1 X170.341 Y129.485 E23.85339
G1 X170.386 Y129.741 E23.86203
G1 X170.481 Y130.483 E23.88691
G1 X170.5 Y131 E23.90412
G1 X170.5 Y132 E23.93738
G1 X170.46 Y132.747 E23.96226
G1 X170.341 Y133.485 E23.98712
G1 X170.143 Y134.207 E24.01202
G1 X169.87 Y134.903 E24.03689
G1 X169.523 Y135.566 E24.06178
G1 X169.108 Y136.189 E24.08668
G1 X168.629 Y136.763 E24.11154
G1 X168.092 Y137.284 E24.13643
G1 X167.502 Y137.743 E24.16129
G1 X166.866 Y138.138 E24.18619
G1 X166.192 Y138.462 E24.21106
G1 X165.487 Y138.712 E24.23594
G1 X164.759 Y138.886 E24.26084
G1 X164.017 Y138.981 E24.28572
G1 X163.5 Y139 E24.30292
G1 X143.5 Y139 E24.96813
G1 X142.753 Y138.96 E24.99301
G1 X142.015 Y138.841 E25.01787
G1 X141.512 Y138.703 E25.03522
G1 X140.759 Y138.886 E25.06099
G1 X140.017 Y138.981 E25.08587
G1 X139.5 Y139 E25.10308
G1 X119.5 Y139 E25.76828
G1 X118.753 Y138.96 E25.79316
G1 X118.015 Y138.841 E25.81803
G1 X117.512 Y138.703 E25.83538
G1 X116.759 Y138.886 E25.86115
G1 X116.017 Y138.981 E25.88603
G1 X115.5 Y139 E25.90324
G1 X95.5 Y139 E26.56844
G1 X94.753 Y138.96 E26.59332
G1 X94.015 Y138.841 E26.61818
G1 X93.512 Y138.703 E26.63553
G1 X92.759 Y138.886 E26.66131
G1 X92.017 Y138.981 E26.68619
G1 X91.5 Y139 E26.70339
G1 X71.5 Y139 E27.3686
G1 X70.753 Y138.96 E27.39348
G1 X70.015 Y138.841 E27.41834
G1 X69.293 Y138.643 E27.44324
G1 X68.597 Y138.37 E27.46811
G1 X67.934 Y138.023 E27.493
G1 X67.311 Y137.608 E27.51789
G1 X66.737 Y137.129 E27.54276
G1 X66.216 Y136.592 E27.56764
G1 X65.757 Y136.002 E27.59251
G1 X65.362 Y135.366 E27.61741
G1 X65.038 Y134.692 E27.64228
G1 X64.788 Y133.987 E27.66716
G1 X64.614 Y133.259 E27.69206
G1 X64.519 Y132.517 E27.71694
G1 X64.5 Y132 E27.73414
G1 X64.5 Y131 E27.7674
G1 X64.54 Y130.253 E27.79228
G1 X64.659 Y129.515 E27.81715
G1 X64.614 Y129.259 E27.82579
G1 X64.519 Y128.517 E27.85067
G1 X64.5 Y128 E27.86788
G1 X64.5 Y127 E27.90114
G1 X64.54 Y126.253 E27.92602
G1 X64.659 Y125.515 E27.95088
G1 X64.857 Y124.793 E27.97578
G1 X65.13 Y124.097 E28.00065
