;FLAVOR:Marlin
;TIME:2195
;Filament used: 1.41302m
;Layer height: 0.2
;MINX:95.486
;MINY:95.486
;MINZ:0.2
;MAXX:139.514
;MAXY:139.514
;MAXZ:9
;Generated with Cura_SteamEngine 4.5.0
M140 S58
M105
M190 S58
M104 S192
M105
M109 S192
M82 ;absolute extrusion mode
; Ender 3 Custom Start G-code
G92 E0 ; Reset Extruder
G28 ; Home all axes
G1 Z2.0 F3000 ; Move Z Axis up little to prevent scratching of Heat Bed
G1 X0.1 Y20 Z0.3 F5000.0 ; Move to start position
G1 X0.1 Y200.0 Z0.3 F1500.0 E15 ; Draw the first line
G1 X0.4 Y200.0 Z0.3 F5000.0 ; Move to side a little
G1 X0.4 Y20 Z0.3 F1500.0 E30 ; Draw the second line
G92 E0 ; Reset Extruder
G1 Z2.0 F3000 ; Move Z Axis up little to prevent scratching of Heat Bed
G1 X5 Y20 Z0.3 F5000.0 ; Move over to prevent blob squish
G92 E0
G92 E0
G1 F2700 E-5
;LAYER_COUNT:45
;LAYER:0
M107
G0 F6000 X102.058 Y101.81 Z0.2
;TYPE:SKIRT
G1 F2700 E0
G1 F1200 X102.653 Y101.282 E0.02646
G1 X104.911 Y99.473 E0.12269
G1 X105.552 Y99.011 E0.14897
G1 X106.229 Y98.619 E0.17499
G1 X108.747 Y97.328 E0.2691
G1 X109.467 Y97.004 E0.29536
G1 X110.162 Y96.77 E0.31975
G1 X112.771 Y96.024 E0.41001
G1 X113.54 Y95.845 E0.43627
G1 X114.195 Y95.756 E0.45825
G1 X116.751 Y95.519 E0.54363
G1 X117.54 Y95.486 E0.5699
G1 X118.198 Y95.52 E0.59181
G1 X120.913 Y95.774 E0.68251
G1 X121.694 Y95.887 E0.70875
G1 X122.406 Y96.063 E0.73315
G1 X125.09 Y96.86 E0.82627
G1 X125.835 Y97.123 E0.85255
G1 X126.533 Y97.451 E0.8782
G1 X129.069 Y98.8 E0.97374
G1 X129.747 Y99.205 E1.00001
G1 X130.383 Y99.68 E1.02641
G1 X132.608 Y101.524 E1.12252
G1 X133.19 Y102.058 E1.14879
G1 X133.718 Y102.653 E1.17525
G1 X135.527 Y104.911 E1.27148
G1 X135.989 Y105.552 E1.29776
G1 X136.381 Y106.229 E1.32378
G1 X137.672 Y108.747 E1.4179
G1 X137.996 Y109.467 E1.44416
G1 X138.23 Y110.161 E1.46852
G1 X138.976 Y112.769 E1.55874
G1 X139.155 Y113.538 E1.585
G1 X139.244 Y114.194 E1.60702
G1 X139.481 Y116.749 E1.69236
G1 X139.514 Y117.538 E1.71863
G1 X139.48 Y118.195 E1.74051
G1 X139.226 Y120.912 E1.83127
G1 X139.113 Y121.694 E1.85755
G1 X138.937 Y122.406 E1.88194
G1 X138.14 Y125.09 E1.97507
G1 X137.877 Y125.835 E2.00134
G1 X137.55 Y126.532 E2.02695
G1 X136.202 Y129.067 E2.12244
G1 X135.796 Y129.745 E2.14873
G1 X135.32 Y130.382 E2.17518
G1 X133.475 Y132.608 E2.27134
G1 X132.941 Y133.19 E2.29761
G1 X132.347 Y133.718 E2.32404
G1 X130.089 Y135.527 E2.42027
G1 X129.448 Y135.989 E2.44655
G1 X128.772 Y136.38 E2.47253
G1 X126.255 Y137.671 E2.56661
G1 X125.535 Y137.996 E2.59289
G1 X124.839 Y138.231 E2.61732
G1 X122.229 Y138.977 E2.70761
G1 X121.459 Y139.155 E2.73389
G1 X120.805 Y139.244 E2.75584
G1 X118.249 Y139.481 E2.84122
G1 X117.46 Y139.514 E2.86749
G1 X116.802 Y139.48 E2.8894
G1 X114.087 Y139.226 E2.9801
G1 X113.306 Y139.113 E3.00634
G1 X112.594 Y138.937 E3.03074
G1 X109.91 Y138.14 E3.12386
G1 X109.165 Y137.877 E3.15014
G1 X108.467 Y137.549 E3.17579
G1 X105.931 Y136.2 E3.27133
G1 X105.253 Y135.795 E3.2976
G1 X104.617 Y135.32 E3.324
G1 X102.392 Y133.476 E3.42011
G1 X101.81 Y132.942 E3.44638
G1 X101.282 Y132.347 E3.47284
G1 X99.473 Y130.089 E3.56907
G1 X99.011 Y129.448 E3.59535
G1 X98.619 Y128.771 E3.62137
G1 X97.328 Y126.253 E3.71549
G1 X97.004 Y125.533 E3.74175
G1 X96.77 Y124.838 E3.76614
G1 X96.024 Y122.229 E3.85639
G1 X95.845 Y121.46 E3.88265
G1 X95.756 Y120.806 E3.9046
G1 X95.519 Y118.252 E3.98992
G1 X95.486 Y117.463 E4.01618
G1 X95.52 Y116.805 E4.0381
G1 X95.774 Y114.087 E4.12889
G1 X95.887 Y113.306 E4.15514
G1 X96.063 Y112.592 E4.1796
G1 X96.86 Y109.909 E4.27269
G1 X97.123 Y109.164 E4.29896
G1 X97.451 Y108.467 E4.32459
G1 X98.8 Y105.931 E4.42012
G1 X99.205 Y105.253 E4.44639
G1 X99.68 Y104.617 E4.47279
G1 X101.524 Y102.392 E4.56891
G1 X102.058 Y101.81 E4.59518
G0 F6000 X102.353 Y102.081
G1 F1200 X102.903 Y101.594 E4.61961
G1 X105.161 Y99.785 E4.71584
G1 X105.786 Y99.336 E4.74144
G1 X106.412 Y98.975 E4.76547
G1 X108.93 Y97.684 E4.85959
G1 X109.632 Y97.369 E4.88518
G1 X110.272 Y97.154 E4.90764
G1 X112.881 Y96.408 E4.99789
G1 X113.63 Y96.235 E5.02346
G1 X114.232 Y96.155 E5.04366
G1 X116.788 Y95.918 E5.12903
G1 X117.556 Y95.886 E5.1546
G1 X118.16 Y95.918 E5.17472
G1 X120.875 Y96.172 E5.26541
G1 X121.636 Y96.284 E5.291
G1 X122.292 Y96.446 E5.31347
G1 X124.976 Y97.243 E5.40659
G1 X125.701 Y97.5 E5.43218
G1 X126.345 Y97.804 E5.45586
G1 X128.881 Y99.153 E5.5514
G1 X129.541 Y99.549 E5.577
G1 X130.128 Y99.988 E5.60138
G1 X132.353 Y101.832 E5.6975
G1 X132.919 Y102.353 E5.72308
G1 X133.406 Y102.903 E5.74752
G1 X135.215 Y105.161 E5.84375
G1 X135.664 Y105.786 E5.86934
G1 X136.025 Y106.412 E5.89338
G1 X137.316 Y108.93 E5.98749
G1 X137.631 Y109.632 E6.01308
G1 X137.846 Y110.271 E6.03551
G1 X138.592 Y112.879 E6.12573
G1 X138.764 Y113.628 E6.15129
G1 X138.845 Y114.231 E6.17153
G1 X139.082 Y116.786 E6.25687
G1 X139.114 Y117.554 E6.28244
G1 X139.082 Y118.158 E6.30255
G1 X138.828 Y120.875 E6.39332
G1 X138.717 Y121.636 E6.41889
G1 X138.554 Y122.292 E6.44138
G1 X137.757 Y124.976 E6.5345
G1 X137.5 Y125.701 E6.56008
G1 X137.197 Y126.344 E6.58372
G1 X135.849 Y128.879 E6.67922
G1 X135.453 Y129.539 E6.70482
G1 X135.012 Y130.127 E6.72926
G1 X133.167 Y132.353 E6.82543
G1 X132.646 Y132.919 E6.85101
G1 X132.097 Y133.406 E6.87542
G1 X129.839 Y135.215 E6.97165
G1 X129.214 Y135.664 E6.99725
G1 X128.589 Y136.024 E7.02124
G1 X126.072 Y137.315 E7.11532
G1 X125.371 Y137.63 E7.14088
G1 X124.729 Y137.846 E7.16341
G1 X122.119 Y138.592 E7.2537
G1 X121.369 Y138.765 E7.2793
G1 X120.768 Y138.845 E7.29946
G1 X118.212 Y139.082 E7.38484
G1 X117.444 Y139.114 E7.41041
G1 X116.84 Y139.082 E7.43053
G1 X114.125 Y138.828 E7.52122
G1 X113.364 Y138.716 E7.5468
G1 X112.708 Y138.554 E7.56928
G1 X110.024 Y137.757 E7.6624
G1 X109.299 Y137.5 E7.68799
G1 X108.655 Y137.196 E7.71167
G1 X106.119 Y135.847 E7.80721
G1 X105.459 Y135.451 E7.83281
G1 X104.872 Y135.012 E7.85719
G1 X102.647 Y133.168 E7.9533
G1 X102.081 Y132.647 E7.97889
G1 X101.594 Y132.097 E8.00333
G1 X99.785 Y129.839 E8.09956
G1 X99.336 Y129.214 E8.12515
G1 X98.975 Y128.588 E8.14919
G1 X97.684 Y126.07 E8.2433
G1 X97.369 Y125.368 E8.26889
G1 X97.154 Y124.728 E8.29135
G1 X96.408 Y122.119 E8.3816
G1 X96.235 Y121.37 E8.40717
G1 X96.155 Y120.769 E8.42734
G1 X95.918 Y118.215 E8.51265
G1 X95.886 Y117.446 E8.53825
G1 X95.918 Y116.842 E8.55836
G1 X96.172 Y114.124 E8.64916
G1 X96.283 Y113.363 E8.67474
G1 X96.446 Y112.706 E8.69725
G1 X97.243 Y110.023 E8.79034
G1 X97.5 Y109.298 E8.81593
G1 X97.804 Y108.655 E8.83958
G1 X99.153 Y106.119 E8.93512
G1 X99.549 Y105.459 E8.96072
G1 X99.988 Y104.872 E8.9851
G1 X101.832 Y102.647 E9.08122
G1 X102.353 Y102.081 E9.1068
G0 F6000 X102.648 Y102.353
G1 F1200 X103.153 Y101.906 E9.12923
G1 X105.411 Y100.097 E9.22546
G1 X106.019 Y99.661 E9.25035
G1 X106.594 Y99.331 E9.2724
G1 X109.112 Y98.04 E9.36651
G1 X109.795 Y97.735 E9.39139
G1 X110.382 Y97.539 E9.41198
G1 X112.991 Y96.793 E9.50223
G1 X113.72 Y96.626 E9.5271
G1 X114.269 Y96.553 E9.54552
G1 X116.825 Y96.316 E9.6309
G1 X117.572 Y96.287 E9.65577
G1 X118.123 Y96.316 E9.67412
G1 X120.838 Y96.57 E9.76481
G1 X121.578 Y96.68 E9.7897
G1 X122.179 Y96.83 E9.8103
G1 X124.863 Y97.627 E9.90342
G1 X125.567 Y97.878 E9.92828
G1 X126.157 Y98.157 E9.94999
G1 X128.693 Y99.506 E10.04553
G1 X129.334 Y99.892 E10.07041
G1 X129.873 Y100.296 E10.09282
G1 X132.098 Y102.14 E10.18893
G1 X132.647 Y102.648 E10.21381
G1 X133.094 Y103.153 E10.23624
G1 X134.903 Y105.411 E10.33247
G1 X135.339 Y106.019 E10.35736
G1 X135.669 Y106.594 E10.37941
G1 X136.96 Y109.112 E10.47352
G1 X137.265 Y109.795 E10.4984
G1 X137.461 Y110.381 E10.51895
G1 X138.207 Y112.989 E10.60917
G1 X138.374 Y113.718 E10.63405
G1 X138.447 Y114.267 E10.65247
G1 X138.684 Y116.822 E10.73781
G1 X138.713 Y117.57 E10.76271
G1 X138.684 Y118.121 E10.78106
G1 X138.43 Y120.838 E10.87182
G1 X138.32 Y121.578 E10.89671
G1 X138.17 Y122.179 E10.91731
G1 X137.373 Y124.863 E11.01043
G1 X137.122 Y125.567 E11.03529
G1 X136.844 Y126.157 E11.05698
G1 X135.496 Y128.692 E11.15248
G1 X135.11 Y129.332 E11.17734
G1 X134.704 Y129.872 E11.19981
G1 X132.859 Y132.098 E11.29597
G1 X132.352 Y132.648 E11.32085
G1 X131.847 Y133.094 E11.34326
G1 X129.589 Y134.903 E11.43949
G1 X128.981 Y135.339 E11.46437
G1 X128.407 Y135.668 E11.48638
G1 X125.89 Y136.959 E11.58046
G1 X125.207 Y137.265 E11.60535
G1 X124.619 Y137.461 E11.62597
G1 X122.009 Y138.207 E11.71625
G1 X121.28 Y138.374 E11.74113
G1 X120.731 Y138.447 E11.75955
G1 X118.175 Y138.684 E11.84493
G1 X117.428 Y138.713 E11.86979
G1 X116.877 Y138.684 E11.88814
G1 X114.162 Y138.43 E11.97884
G1 X113.422 Y138.32 E12.00372
G1 X112.821 Y138.17 E12.02432
G1 X110.137 Y137.373 E12.11745
G1 X109.433 Y137.122 E12.14231
G1 X108.843 Y136.843 E12.16401
G1 X106.307 Y135.494 E12.25955
G1 X105.666 Y135.108 E12.28444
G1 X105.127 Y134.704 E12.30684
G1 X102.902 Y132.86 E12.40296
G1 X102.353 Y132.352 E12.42784
G1 X101.906 Y131.847 E12.45027
G1 X100.097 Y129.589 E12.5465
G1 X99.661 Y128.981 E12.57138
G1 X99.331 Y128.406 E12.59343
G1 X98.04 Y125.888 E12.68755
G1 X97.735 Y125.205 E12.71243
G1 X97.539 Y124.618 E12.73301
G1 X96.793 Y122.009 E12.82326
G1 X96.626 Y121.28 E12.84814
G1 X96.553 Y120.732 E12.86653
G1 X96.316 Y118.178 E12.95184
G1 X96.287 Y117.43 E12.97673
G1 X96.316 Y116.88 E12.99505
G1 X96.57 Y114.162 E13.08585
G1 X96.68 Y113.422 E13.11073
G1 X96.83 Y112.82 E13.13136
G1 X97.627 Y110.137 E13.22446
G1 X97.878 Y109.432 E13.24935
G1 X98.157 Y108.843 E13.27102
G1 X99.506 Y106.307 E13.36656
G1 X99.892 Y105.666 E13.39145
G1 X100.296 Y105.127 E13.41385
G1 X102.14 Y102.902 E13.50997
G1 X102.648 Y102.353 E13.53485
G0 F6000 X102.942 Y102.625
G1 F1200 X103.403 Y102.218 E13.5553
G1 X105.661 Y100.409 E13.65153
G1 X106.252 Y99.987 E13.67568
G1 X106.777 Y99.687 E13.69579
G1 X109.295 Y98.396 E13.78991
G1 X109.958 Y98.101 E13.81405
G1 X110.492 Y97.923 E13.83277
G1 X113.101 Y97.177 E13.92302
G1 X113.809 Y97.016 E13.94717
G1 X114.306 Y96.951 E13.96384
G1 X116.862 Y96.714 E14.04922
G1 X117.587 Y96.687 E14.07335
G1 X118.086 Y96.715 E14.08997
G1 X120.801 Y96.969 E14.18067
G1 X121.519 Y97.076 E14.20481
G1 X122.065 Y97.213 E14.22353
G1 X124.749 Y98.01 E14.31666
G1 X125.433 Y98.255 E14.34082
G1 X125.97 Y98.51 E14.36059
G1 X128.506 Y99.859 E14.45613
G1 X129.127 Y100.235 E14.48028
G1 X129.617 Y100.604 E14.50068
G1 X131.842 Y102.448 E14.5968
G1 X132.375 Y102.942 E14.62097
G1 X132.782 Y103.403 E14.64142
G1 X134.591 Y105.661 E14.73765
G1 X135.013 Y106.252 E14.7618
G1 X135.313 Y106.777 E14.78192
G1 X136.604 Y109.295 E14.87603
G1 X136.899 Y109.958 E14.90017
G1 X137.077 Y110.491 E14.91886
G1 X137.823 Y113.099 E15.00908
G1 X137.984 Y113.807 E15.03323
G1 X138.049 Y114.304 E15.0499
G1 X138.286 Y116.859 E15.13524
G1 X138.313 Y117.585 E15.15941
G1 X138.285 Y118.083 E15.176
G1 X138.031 Y120.8 E15.26676
G1 X137.924 Y121.519 E15.29094
G1 X137.787 Y122.065 E15.30966
G1 X136.99 Y124.749 E15.40278
G1 X136.745 Y125.433 E15.42695
G1 X136.49 Y125.969 E15.44669
G1 X135.142 Y128.504 E15.54218
G1 X134.767 Y129.125 E15.56631
G1 X134.396 Y129.617 E15.58681
G1 X132.551 Y131.843 E15.68297
G1 X132.058 Y132.376 E15.70712
G1 X131.597 Y132.782 E15.72755
G1 X129.339 Y134.591 E15.82378
G1 X128.748 Y135.013 E15.84793
G1 X128.224 Y135.313 E15.86801
G1 X125.707 Y136.604 E15.9621
G1 X125.044 Y136.899 E15.98624
G1 X124.509 Y137.077 E16.00499
G1 X121.899 Y137.823 E16.09527
G1 X121.19 Y137.984 E16.11946
G1 X120.694 Y138.049 E16.13609
G1 X118.138 Y138.286 E16.22147
G1 X117.413 Y138.313 E16.2456
G1 X116.914 Y138.285 E16.26223
G1 X114.199 Y138.031 E16.35292
G1 X113.481 Y137.924 E16.37707
G1 X112.935 Y137.787 E16.39579
G1 X110.251 Y136.99 E16.48891
G1 X109.567 Y136.745 E16.51308
G1 X109.03 Y136.49 E16.53285
G1 X106.494 Y135.141 E16.62839
G1 X105.873 Y134.765 E16.65253
G1 X105.383 Y134.396 E16.67293
G1 X103.158 Y132.552 E16.76905
G1 X102.625 Y132.058 E16.79322
G1 X102.218 Y131.597 E16.81367
G1 X100.409 Y129.339 E16.9099
G1 X99.987 Y128.748 E16.93406
G1 X99.687 Y128.223 E16.95417
G1 X98.396 Y125.705 E17.04828
G1 X98.101 Y125.042 E17.07242
G1 X97.923 Y124.508 E17.09114
G1 X97.177 Y121.899 E17.1814
G1 X97.016 Y121.191 E17.20554
G1 X96.951 Y120.695 E17.22218
G1 X96.714 Y118.141 E17.30749
G1 X96.687 Y117.415 E17.33166
G1 X96.715 Y116.917 E17.34825
G1 X96.969 Y114.199 E17.43904
G1 X97.076 Y113.481 E17.46319
G1 X97.213 Y112.934 E17.48194
G1 X98.01 Y110.251 E17.57503
G1 X98.255 Y109.567 E17.5992
G1 X98.51 Y109.03 E17.61897
G1 X99.859 Y106.494 E17.71451
G1 X100.235 Y105.873 E17.73865
G1 X100.604 Y105.383 E17.75906
G1 X102.448 Y103.158 E17.85517
G1 X102.942 Y102.625 E17.87934
G0 F6000 X103.236 Y102.897
G1 F1200 X103.653 Y102.53 E17.89782
G1 X105.911 Y100.721 E17.99405
G1 X106.485 Y100.313 E18.01747
G1 X106.959 Y100.043 E18.03562
G1 X109.477 Y98.752 E18.12973
G1 X110.121 Y98.467 E18.15315
G1 X110.602 Y98.308 E18.17
G1 X113.211 Y97.562 E18.26026
G1 X113.897 Y97.407 E18.28365
G1 X114.343 Y97.349 E18.29861
G1 X116.899 Y97.112 E18.38399
G1 X117.602 Y97.087 E18.40738
G1 X118.049 Y97.113 E18.42227
G1 X120.764 Y97.367 E18.51297
G1 X121.46 Y97.472 E18.53638
G1 X121.951 Y97.597 E18.55323
G1 X124.635 Y98.394 E18.64636
G1 X125.297 Y98.632 E18.66975
G1 X125.782 Y98.863 E18.68762
G1 X128.318 Y100.212 E18.78316
G1 X128.919 Y100.578 E18.80656
G1 X129.362 Y100.912 E18.82502
G1 X131.587 Y102.756 E18.92113
G1 X132.103 Y103.236 E18.94457
G1 X132.47 Y103.653 E18.96305
G1 X134.279 Y105.911 E19.05928
G1 X134.687 Y106.485 E19.0827
G1 X134.957 Y106.959 E19.10084
G1 X136.248 Y109.477 E19.19496
G1 X136.533 Y110.121 E19.21838
G1 X136.692 Y110.601 E19.2352
G1 X137.438 Y113.209 E19.32542
G1 X137.593 Y113.896 E19.34885
G1 X137.65 Y114.341 E19.36377
G1 X137.887 Y116.896 E19.44911
G1 X137.913 Y117.6 E19.47254
G1 X137.887 Y118.046 E19.4874
G1 X137.633 Y120.763 E19.57816
G1 X137.528 Y121.459 E19.60158
G1 X137.403 Y121.951 E19.61846
G1 X136.606 Y124.635 E19.71158
G1 X136.368 Y125.297 E19.73498
G1 X136.137 Y125.781 E19.75282
G1 X134.789 Y128.316 E19.84831
G1 X134.424 Y128.918 E19.87173
G1 X134.089 Y129.361 E19.8902
G1 X132.244 Y131.587 E19.98636
G1 X131.764 Y132.103 E20.0098
G1 X131.347 Y132.47 E20.02828
G1 X129.089 Y134.279 E20.12451
G1 X128.515 Y134.687 E20.14793
G1 X128.042 Y134.957 E20.16605
G1 X125.525 Y136.248 E20.26013
G1 X124.881 Y136.533 E20.28355
G1 X124.399 Y136.692 E20.30044
G1 X121.789 Y137.438 E20.39072
G1 X121.102 Y137.593 E20.41414
G1 X120.657 Y137.651 E20.42907
G1 X118.101 Y137.888 E20.51445
G1 X117.398 Y137.913 E20.53784
G1 X116.951 Y137.887 E20.55274
G1 X114.236 Y137.633 E20.64343
G1 X113.54 Y137.528 E20.66684
G1 X113.049 Y137.403 E20.6837
G1 X110.365 Y136.606 E20.77682
G1 X109.703 Y136.368 E20.80022
G1 X109.218 Y136.137 E20.81808
G1 X106.682 Y134.788 E20.91362
G1 X106.081 Y134.422 E20.93703
G1 X105.638 Y134.088 E20.95548
G1 X103.413 Y132.244 E21.05159
G1 X102.897 Y131.764 E21.07503
G1 X102.53 Y131.347 E21.09351
G1 X100.721 Y129.089 E21.18974
G1 X100.313 Y128.515 E21.21316
G1 X100.043 Y128.041 E21.23131
G1 X98.752 Y125.523 E21.32542
G1 X98.467 Y124.879 E21.34885
G1 X98.308 Y124.398 E21.3657
G1 X97.562 Y121.789 E21.45595
G1 X97.407 Y121.103 E21.47934
G1 X97.35 Y120.658 E21.49426
G1 X97.113 Y118.104 E21.57957
G1 X97.087 Y117.4 E21.603
G1 X97.113 Y116.954 E21.61786
G1 X97.367 Y114.236 E21.70866
G1 X97.472 Y113.54 E21.73207
G1 X97.597 Y113.048 E21.74895
G1 X98.394 Y110.365 E21.84204
G1 X98.632 Y109.702 E21.86547
G1 X98.863 Y109.218 E21.88331
G1 X100.212 Y106.682 E21.97885
G1 X100.578 Y106.081 E22.00225
G1 X100.912 Y105.638 E22.02071
G1 X102.756 Y103.413 E22.11682
G1 X103.236 Y102.897 E22.14026
G0 F6000 X103.529 Y103.17
G1 F1200 X103.904 Y102.843 E22.15681
G1 X106.162 Y101.034 E22.25304
G1 X106.717 Y100.64 E22.27568
G1 X107.142 Y100.399 E22.29193
G1 X109.66 Y99.108 E22.38604
G1 X110.283 Y98.833 E22.40869
G1 X110.711 Y98.692 E22.42368
G1 X113.32 Y97.946 E22.51394
G1 X113.985 Y97.798 E22.53659
G1 X114.38 Y97.748 E22.54984
G1 X116.936 Y97.511 E22.63521
G1 X117.616 Y97.488 E22.65784
G1 X118.011 Y97.511 E22.671
G1 X120.726 Y97.765 E22.7617
G1 X121.399 Y97.868 E22.78434
G1 X121.837 Y97.98 E22.79938
G1 X124.521 Y98.777 E22.8925
G1 X125.161 Y99.009 E22.91515
G1 X125.594 Y99.216 E22.93111
G1 X128.13 Y100.565 E23.02665
G1 X128.711 Y100.92 E23.04929
